(1001)
(Machine)
(  vendor: Makera)
(  model: Carvera 3-axis)
(  description: Makera Carvera 3-axis)
(T1  D=3.175 CR=0 - ZMIN=-12 - flat end mill)
G90 G94
G17
G21
(When using Fusion 360 for Personal Use, the feedrate of)
(rapid moves is reduced to match the feedrate of cutting)
(moves, which can increase machining time. Unrestricted rapid)
(moves are available with a Fusion 360 Subscription.)

(2D Adaptive1)
T1 M6
S10000 M3
G54
G0 X17.393 Y11.304
Z15
G1 Z5 F1000
Z0.5
G3 X19.763 Y12.013 Z0.4 I0.917 J1.25 F500
X18.435 Y14.096 Z0.3 I-1.451 J0.54
X16.795 Y12.252 Z0.2 I-0.123 J-1.542
X19.015 Y11.18 Z0.1 I1.515 J0.303
X19.44 Y13.605 Z0 I-0.704 J1.373
X16.993 Y13.351 Z-0.1 I-1.127 J-1.051
X17.904 Y11.07 Z-0.2 I1.318 J-0.797
X19.848 Y12.568 Z-0.3 I0.406 J1.483
X17.878 Y14.027 Z-0.4 I-1.536 J-0.015
X17.014 Y11.736 Z-0.5 I0.433 J-1.472
X19.451 Y11.53 Z-0.6 I1.296 J0.818
X18.984 Y13.928 Z-0.7 I-1.139 J1.022
X16.807 Y12.825 Z-0.8 I-0.672 J-1.374
X18.461 Y11.035 Z-0.9 I1.503 J-0.271
X19.73 Y13.112 Z-1 I-0.15 J1.518
X17.388 Y13.765 Z-1.1 I-1.418 J-0.558
X17.399 Y11.336 Z-1.2 I0.923 J-1.21
X19.73 Y12.01 Z-1.3 I0.911 J1.217
X18.447 Y14.066 Z-1.4 I-1.418 J0.543
X16.822 Y12.272 Z-1.5 I-0.135 J-1.511
X18.989 Y11.2 Z-1.6 I1.489 J0.283
X19.428 Y13.574 Z-1.7 I-0.678 J1.353
X17.026 Y13.348 Z-1.8 I-1.115 J-1.02
X17.898 Y11.102 Z-1.9 I1.285 J-0.793
X19.818 Y12.553 Z-2 I0.412 J1.451
X16.802 Y12.553 I-1.508 J0
X19.818 Y12.553 I1.508 J0
G1 X19.821 Y12.637 F1000
X20.053 Y13.262
X20.126 Y13.393
X20.175 Y13.535
X20.202 Y13.683
X20.209 Y13.844
X20.194 Y14.02
X20.153 Y14.208
X20.081 Y14.403
X19.977 Y14.601
X19.839 Y14.798
X19.665 Y14.986
X19.455 Y15.161
X19.21 Y15.314
X18.932 Y15.441
X18.626 Y15.535
X18.296 Y15.59
X17.948 Y15.601
X17.591 Y15.565
X17.23 Y15.48
X16.876 Y15.345
X16.535 Y15.161
X16.216 Y14.929
X15.925 Y14.654
X15.671 Y14.339
X15.458 Y13.99
X15.292 Y13.613
X15.176 Y13.215
X15.114 Y12.803
X15.106 Y12.385
X15.153 Y11.968
X15.255 Y11.559
X15.41 Y11.167
X15.616 Y10.799
X15.868 Y10.46
X16.164 Y10.157
X16.497 Y9.895
X16.862 Y9.68
X17.252 Y9.514
X17.661 Y9.401
X18.081 Y9.343
X18.505 Y9.34
X18.926 Y9.394
X19.337 Y9.502
X19.729 Y9.664
X20.097 Y9.876
X20.434 Y10.134
X20.734 Y10.435
X20.992 Y10.772
X21.324 Y11.351
X21.57 Y11.846
X21.589 Y11.892
X21.6 Y11.939
X21.604 Y11.988
Y14.152
X21.601 Y14.304
X21.595 Y14.337
X21.585 Y14.37
X21.572 Y14.403
X21.555 Y14.436
X21.542 Y14.455
X21.513 Y14.491
X21.473 Y14.528
X21.403 Y14.57
X18.524 Y16.233
X18.449 Y16.275
X18.411 Y16.291
X18.373 Y16.301
X18.335 Y16.306
X18.297 Y16.307
X18.259 Y16.303
X18.221 Y16.294
X18.172 Y16.275
X17.918 Y16.13
X15.19 Y14.555
X15.133 Y14.516
X15.101 Y14.486
X15.076 Y14.455
X15.055 Y14.421
X15.039 Y14.386
X15.026 Y14.345
X15.019 Y14.304
X15.017 Y14.152
Y10.967
X15.018 Y10.815
X15.025 Y10.769
X15.039 Y10.723
X15.052 Y10.693
X15.07 Y10.663
X15.096 Y10.63
X15.13 Y10.596
X15.16 Y10.572
X15.19 Y10.552
X18.151 Y8.843
X18.186 Y8.827
X18.221 Y8.816
X18.259 Y8.808
X18.297 Y8.804
X18.335
X18.373 Y8.809
X18.422 Y8.821
X18.471 Y8.843
X21.403 Y10.537
X21.477 Y10.583
X21.499 Y10.601
X21.521 Y10.623
X21.551 Y10.663
X21.574 Y10.706
X21.587 Y10.742
X21.597 Y10.779
X21.602 Y10.815
X21.604 Y10.967
Y11.988
G3 X21.306 Y12.294 I-0.317 J-0.011
G1 X21.286 Z-1.999
X21.233 Y12.281 Z-1.991
X21.182 Y12.268 Z-1.973
X21.135 Y12.256 Z-1.946
X21.099 Y12.225 Z-1.906
X21.07 Y12.199 Z-1.858
X21.048 Y12.18 Z-1.803
X21.035 Y12.169 Z-1.744
X21.03 Y12.165 Z-1.683
Z5
X17.394 Y11.303
Z-1.5
G3 X19.763 Y12.013 Z-1.6 I0.917 J1.25 F500
X18.435 Y14.096 Z-1.7 I-1.451 J0.54
X16.796 Y12.252 Z-1.8 I-0.123 J-1.542
X19.015 Y11.179 Z-1.9 I1.515 J0.303
X19.44 Y13.605 Z-2 I-0.704 J1.373
X16.993 Y13.351 Z-2.1 I-1.127 J-1.051
X17.905 Y11.07 Z-2.2 I1.318 J-0.797
X19.848 Y12.568 Z-2.3 I0.406 J1.483
X17.879 Y14.027 Z-2.4 I-1.536 J-0.015
X17.014 Y11.736 Z-2.5 I0.433 J-1.472
X19.451 Y11.53 Z-2.6 I1.296 J0.818
X18.984 Y13.928 Z-2.7 I-1.139 J1.022
X16.807 Y12.825 Z-2.8 I-0.672 J-1.374
X18.461 Y11.034 Z-2.9 I1.503 J-0.271
X19.73 Y13.112 Z-3 I-0.15 J1.518
X17.388 Y13.765 Z-3.1 I-1.418 J-0.558
X17.4 Y11.336 Z-3.2 I0.923 J-1.21
X19.73 Y12.01 Z-3.3 I0.911 J1.217
X18.447 Y14.065 Z-3.4 I-1.418 J0.543
X16.822 Y12.272 Z-3.5 I-0.135 J-1.511
X18.989 Y11.199 Z-3.6 I1.489 J0.283
X19.428 Y13.574 Z-3.7 I-0.678 J1.353
X17.026 Y13.348 Z-3.8 I-1.115 J-1.02
X17.899 Y11.102 Z-3.9 I1.285 J-0.793
X19.819 Y12.553 Z-4 I0.412 J1.451
X16.802 Y12.553 I-1.508 J0
X19.819 Y12.553 I1.508 J0
G1 X19.821 Y12.636 F1000
X20.053 Y13.262
X20.126 Y13.393
X20.175 Y13.535
X20.202 Y13.682
X20.21 Y13.844
X20.194 Y14.02
X20.153 Y14.208
X20.082 Y14.403
X19.978 Y14.601
X19.839 Y14.797
X19.665 Y14.986
X19.455 Y15.16
X19.21 Y15.314
X18.932 Y15.441
X18.626 Y15.535
X18.296 Y15.589
X17.949 Y15.601
X17.591 Y15.565
X17.231 Y15.48
X16.876 Y15.345
X16.535 Y15.161
X16.216 Y14.929
X15.926 Y14.654
X15.671 Y14.339
X15.459 Y13.989
X15.292 Y13.612
X15.177 Y13.214
X15.114 Y12.802
X15.106 Y12.384
X15.153 Y11.967
X15.255 Y11.559
X15.41 Y11.167
X15.616 Y10.799
X15.869 Y10.46
X16.164 Y10.157
X16.497 Y9.895
X16.862 Y9.68
X17.252 Y9.514
X17.661 Y9.401
X18.081 Y9.343
X18.505 Y9.34
X18.927 Y9.394
X19.337 Y9.502
X19.729 Y9.664
X20.097 Y9.875
X20.434 Y10.134
X20.734 Y10.434
X20.992 Y10.772
X21.324 Y11.351
X21.57 Y11.846
X21.589 Y11.891
X21.6 Y11.939
X21.604 Y11.987
Y14.152
X21.601 Y14.304
X21.595 Y14.337
X21.585 Y14.37
X21.572 Y14.403
X21.555 Y14.436
X21.542 Y14.455
X21.513 Y14.491
X21.473 Y14.528
X21.403 Y14.57
X18.524 Y16.233
X18.449 Y16.275
X18.411 Y16.291
X18.373 Y16.301
X18.335 Y16.306
X18.297 Y16.307
X18.259 Y16.303
X18.221 Y16.294
X18.172 Y16.275
X17.918 Y16.13
X15.19 Y14.555
X15.133 Y14.516
X15.101 Y14.486
X15.076 Y14.455
X15.055 Y14.421
X15.039 Y14.386
X15.026 Y14.345
X15.019 Y14.304
X15.017 Y14.152
Y10.967
X15.018 Y10.815
X15.025 Y10.769
X15.039 Y10.723
X15.052 Y10.693
X15.07 Y10.663
X15.096 Y10.63
X15.13 Y10.596
X15.16 Y10.572
X15.19 Y10.552
X18.151 Y8.843
X18.186 Y8.827
X18.221 Y8.816
X18.259 Y8.808
X18.297 Y8.804
X18.335
X18.373 Y8.809
X18.422 Y8.821
X18.471 Y8.843
X21.403 Y10.537
X21.477 Y10.583
X21.499 Y10.601
X21.521 Y10.623
X21.551 Y10.663
X21.574 Y10.706
X21.587 Y10.742
X21.597 Y10.779
X21.602 Y10.815
X21.604 Y10.967
Y11.987
G3 X21.306 Y12.293 I-0.317 J-0.011
G1 X21.286 Y12.294 Z-3.999
X21.233 Y12.28 Z-3.991
X21.182 Y12.267 Z-3.973
X21.135 Y12.255 Z-3.946
X21.099 Y12.224 Z-3.906
X21.07 Y12.198 Z-3.858
X21.048 Y12.18 Z-3.803
X21.035 Y12.168 Z-3.744
X21.03 Y12.164 Z-3.683
Z5
X17.394 Y11.303
Z-3.5
G3 X19.763 Y12.013 Z-3.6 I0.917 J1.25 F500
X18.435 Y14.096 Z-3.7 I-1.451 J0.54
X16.796 Y12.251 Z-3.8 I-0.123 J-1.542
X19.015 Y11.179 Z-3.9 I1.515 J0.303
X19.44 Y13.605 Z-4 I-0.704 J1.373
X16.994 Y13.351 Z-4.1 I-1.127 J-1.051
X17.905 Y11.069 Z-4.2 I1.318 J-0.797
X19.848 Y12.567 Z-4.3 I0.406 J1.483
X17.879 Y14.026 Z-4.4 I-1.536 J-0.015
X17.014 Y11.736 Z-4.5 I0.433 J-1.472
X19.451 Y11.53 Z-4.6 I1.296 J0.818
X18.984 Y13.928 Z-4.7 I-1.139 J1.022
X16.808 Y12.825 Z-4.8 I-0.672 J-1.374
X18.461 Y11.034 Z-4.9 I1.503 J-0.271
X19.73 Y13.112 Z-5 I-0.15 J1.518
X17.388 Y13.765 Z-5.1 I-1.418 J-0.558
X17.4 Y11.336 Z-5.2 I0.923 J-1.21
X19.73 Y12.009 Z-5.3 I0.911 J1.217
X18.447 Y14.065 Z-5.4 I-1.418 J0.543
X16.822 Y12.271 Z-5.5 I-0.135 J-1.511
X18.989 Y11.199 Z-5.6 I1.489 J0.283
X19.428 Y13.574 Z-5.7 I-0.678 J1.353
X17.026 Y13.348 Z-5.8 I-1.115 J-1.02
X17.899 Y11.102 Z-5.9 I1.285 J-0.793
X19.819 Y12.553 Z-6 I0.412 J1.451
X16.802 Y12.553 I-1.508 J0
X19.819 Y12.553 I1.508 J0
G1 X19.821 Y12.636 F1000
X20.054 Y13.262
X20.126 Y13.393
X20.175 Y13.535
X20.202 Y13.682
X20.21 Y13.844
X20.195 Y14.02
X20.153 Y14.207
X20.082 Y14.403
X19.978 Y14.601
X19.839 Y14.797
X19.665 Y14.986
X19.455 Y15.16
X19.21 Y15.314
X18.932 Y15.441
X18.626 Y15.534
X18.296 Y15.589
X17.949 Y15.6
X17.591 Y15.565
X17.231 Y15.48
X16.876 Y15.345
X16.535 Y15.161
X16.216 Y14.929
X15.926 Y14.653
X15.671 Y14.338
X15.459 Y13.989
X15.293 Y13.612
X15.177 Y13.214
X15.114 Y12.802
X15.106 Y12.384
X15.153 Y11.967
X15.255 Y11.559
X15.41 Y11.167
X15.616 Y10.798
X15.869 Y10.459
X16.164 Y10.157
X16.497 Y9.895
X16.862 Y9.679
X17.252 Y9.514
X17.661 Y9.401
X18.081 Y9.342
X18.506 Y9.34
X18.927 Y9.393
X19.337 Y9.502
X19.73 Y9.663
X20.098 Y9.875
X20.434 Y10.134
X20.734 Y10.434
X20.992 Y10.771
X21.324 Y11.351
X21.57 Y11.845
X21.589 Y11.891
X21.6 Y11.938
X21.604 Y11.987
Y14.152
X21.601 Y14.304
X21.595 Y14.337
X21.585 Y14.37
X21.572 Y14.403
X21.555 Y14.436
X21.542 Y14.455
X21.513 Y14.491
X21.473 Y14.528
X21.403 Y14.57
X18.524 Y16.233
X18.449 Y16.275
X18.411 Y16.291
X18.373 Y16.301
X18.335 Y16.306
X18.297 Y16.307
X18.259 Y16.303
X18.221 Y16.294
X18.172 Y16.275
X17.918 Y16.13
X15.19 Y14.555
X15.133 Y14.516
X15.101 Y14.486
X15.076 Y14.455
X15.055 Y14.421
X15.039 Y14.386
X15.026 Y14.345
X15.019 Y14.304
X15.017 Y14.152
Y10.967
X15.018 Y10.815
X15.025 Y10.769
X15.039 Y10.723
X15.052 Y10.693
X15.07 Y10.663
X15.096 Y10.63
X15.13 Y10.596
X15.16 Y10.572
X15.19 Y10.552
X18.151 Y8.843
X18.186 Y8.827
X18.221 Y8.816
X18.259 Y8.808
X18.297 Y8.804
X18.335
X18.373 Y8.809
X18.422 Y8.821
X18.471 Y8.843
X21.403 Y10.537
X21.477 Y10.583
X21.499 Y10.601
X21.521 Y10.623
X21.551 Y10.663
X21.574 Y10.706
X21.587 Y10.742
X21.597 Y10.779
X21.602 Y10.815
X21.604 Y10.967
Y11.987
G3 X21.306 Y12.293 I-0.317 J-0.011
G1 X21.286 Z-5.999
X21.233 Y12.28 Z-5.991
X21.182 Y12.267 Z-5.973
X21.135 Y12.255 Z-5.946
X21.099 Y12.224 Z-5.906
X21.07 Y12.198 Z-5.858
X21.048 Y12.179 Z-5.803
X21.035 Y12.167 Z-5.744
X21.03 Y12.163 Z-5.683
Z5
X17.394 Y11.304
Z-5.5
G3 X19.763 Y12.013 Z-5.6 I0.917 J1.25 F500
X18.435 Y14.097 Z-5.7 I-1.451 J0.54
X16.796 Y12.252 Z-5.8 I-0.123 J-1.542
X19.015 Y11.18 Z-5.9 I1.515 J0.303
X19.44 Y13.605 Z-6 I-0.704 J1.373
X16.994 Y13.352 Z-6.1 I-1.127 J-1.051
X17.905 Y11.07 Z-6.2 I1.318 J-0.797
X19.848 Y12.568 Z-6.3 I0.406 J1.483
X17.879 Y14.027 Z-6.4 I-1.536 J-0.015
X17.014 Y11.736 Z-6.5 I0.433 J-1.472
X19.451 Y11.531 Z-6.6 I1.296 J0.818
X18.984 Y13.928 Z-6.7 I-1.139 J1.022
X16.808 Y12.825 Z-6.8 I-0.672 J-1.374
X18.461 Y11.035 Z-6.9 I1.503 J-0.271
X19.73 Y13.112 Z-7 I-0.15 J1.518
X17.388 Y13.765 Z-7.1 I-1.418 J-0.558
X17.4 Y11.336 Z-7.2 I0.923 J-1.21
X19.73 Y12.01 Z-7.3 I0.911 J1.217
X18.447 Y14.066 Z-7.4 I-1.418 J0.543
X16.822 Y12.272 Z-7.5 I-0.135 J-1.511
X18.989 Y11.2 Z-7.6 I1.489 J0.283
X19.428 Y13.574 Z-7.7 I-0.678 J1.353
X17.027 Y13.348 Z-7.8 I-1.115 J-1.02
X17.899 Y11.103 Z-7.9 I1.285 J-0.793
X19.819 Y12.553 Z-8 I0.412 J1.451
X16.803 Y12.553 I-1.508 J0
X19.819 Y12.553 I1.508 J0
G1 X19.821 Y12.637 F1000
X20.054 Y13.262
X20.126 Y13.393
X20.175 Y13.535
X20.202 Y13.683
X20.21 Y13.844
X20.195 Y14.02
X20.153 Y14.208
X20.082 Y14.403
X19.978 Y14.602
X19.839 Y14.798
X19.665 Y14.986
X19.455 Y15.161
X19.21 Y15.315
X18.932 Y15.441
X18.626 Y15.535
X18.296 Y15.59
X17.949 Y15.601
X17.591 Y15.565
X17.231 Y15.48
X16.876 Y15.345
X16.535 Y15.161
X16.216 Y14.93
X15.926 Y14.654
X15.671 Y14.339
X15.459 Y13.99
X15.293 Y13.613
X15.177 Y13.215
X15.114 Y12.803
X15.106 Y12.385
X15.153 Y11.968
X15.255 Y11.56
X15.41 Y11.168
X15.616 Y10.799
X15.869 Y10.46
X16.164 Y10.157
X16.497 Y9.896
X16.862 Y9.68
X17.252 Y9.514
X17.661 Y9.401
X18.081 Y9.343
X18.506 Y9.341
X18.927 Y9.394
X19.337 Y9.502
X19.73 Y9.664
X20.098 Y9.876
X20.434 Y10.134
X20.734 Y10.435
X20.992 Y10.772
X21.324 Y11.351
X21.57 Y11.846
X21.589 Y11.891
X21.6 Y11.939
X21.604 Y11.987
Y14.152
X21.601 Y14.304
X21.595 Y14.337
X21.585 Y14.37
X21.572 Y14.403
X21.555 Y14.436
X21.542 Y14.455
X21.513 Y14.491
X21.473 Y14.528
X21.403 Y14.57
X18.524 Y16.233
X18.449 Y16.275
X18.411 Y16.291
X18.373 Y16.301
X18.335 Y16.306
X18.297 Y16.307
X18.259 Y16.303
X18.221 Y16.294
X18.172 Y16.275
X17.918 Y16.13
X15.19 Y14.555
X15.133 Y14.516
X15.101 Y14.486
X15.076 Y14.455
X15.055 Y14.421
X15.039 Y14.386
X15.026 Y14.345
X15.019 Y14.304
X15.017 Y14.152
Y10.967
X15.018 Y10.815
X15.025 Y10.769
X15.039 Y10.723
X15.052 Y10.693
X15.07 Y10.663
X15.096 Y10.63
X15.13 Y10.596
X15.16 Y10.572
X15.19 Y10.552
X18.151 Y8.843
X18.186 Y8.827
X18.221 Y8.816
X18.259 Y8.808
X18.297 Y8.804
X18.335
X18.373 Y8.809
X18.422 Y8.821
X18.471 Y8.843
X21.403 Y10.537
X21.477 Y10.583
X21.499 Y10.601
X21.521 Y10.623
X21.551 Y10.663
X21.574 Y10.706
X21.587 Y10.742
X21.597 Y10.779
X21.602 Y10.815
X21.604 Y10.967
Y11.987
G3 X21.306 Y12.293 I-0.317 J-0.011
G1 X21.286 Y12.294 Z-7.999
X21.233 Y12.28 Z-7.991
X21.182 Y12.267 Z-7.973
X21.135 Y12.255 Z-7.946
X21.099 Y12.224 Z-7.906
X21.07 Y12.199 Z-7.858
X21.048 Y12.18 Z-7.803
X21.035 Y12.168 Z-7.744
X21.03 Y12.164 Z-7.683
Z5
X17.394 Y11.303
Z-7.5
G3 X19.764 Y12.013 Z-7.6 I0.917 J1.25 F500
X18.435 Y14.096 Z-7.7 I-1.451 J0.54
X16.796 Y12.252 Z-7.8 I-0.123 J-1.542
X19.016 Y11.179 Z-7.9 I1.515 J0.303
X19.44 Y13.605 Z-8 I-0.704 J1.373
X16.994 Y13.351 Z-8.1 I-1.127 J-1.051
X17.905 Y11.07 Z-8.2 I1.318 J-0.797
X19.849 Y12.568 Z-8.3 I0.406 J1.483
X17.879 Y14.027 Z-8.4 I-1.536 J-0.015
X17.014 Y11.736 Z-8.5 I0.433 J-1.472
X19.451 Y11.53 Z-8.6 I1.296 J0.818
X18.984 Y13.928 Z-8.7 I-1.139 J1.022
X16.808 Y12.825 Z-8.8 I-0.672 J-1.374
X18.461 Y11.034 Z-8.9 I1.503 J-0.271
X19.731 Y13.112 Z-9 I-0.15 J1.518
X17.388 Y13.765 Z-9.1 I-1.418 J-0.558
X17.4 Y11.336 Z-9.2 I0.923 J-1.21
X19.731 Y12.01 Z-9.3 I0.911 J1.217
X18.447 Y14.065 Z-9.4 I-1.418 J0.543
X16.822 Y12.271 Z-9.5 I-0.135 J-1.511
X18.989 Y11.199 Z-9.6 I1.489 J0.283
X19.428 Y13.574 Z-9.7 I-0.678 J1.353
X17.027 Y13.348 Z-9.8 I-1.115 J-1.02
X17.899 Y11.102 Z-9.9 I1.285 J-0.793
X19.819 Y12.553 Z-10 I0.412 J1.451
X16.803 Y12.553 I-1.508 J0
X19.819 Y12.553 I1.508 J0
G1 X19.821 Y12.636 F1000
X20.054 Y13.262
X20.127 Y13.393
X20.176 Y13.535
X20.203 Y13.682
X20.21 Y13.844
X20.195 Y14.02
X20.153 Y14.207
X20.082 Y14.403
X19.978 Y14.601
X19.84 Y14.797
X19.665 Y14.986
X19.455 Y15.16
X19.21 Y15.314
X18.933 Y15.441
X18.626 Y15.534
X18.297 Y15.589
X17.949 Y15.601
X17.591 Y15.565
X17.231 Y15.48
X16.876 Y15.345
X16.535 Y15.161
X16.216 Y14.929
X15.926 Y14.654
X15.672 Y14.339
X15.459 Y13.989
X15.293 Y13.612
X15.177 Y13.214
X15.114 Y12.802
X15.106 Y12.384
X15.153 Y11.967
X15.255 Y11.559
X15.411 Y11.167
X15.616 Y10.798
X15.869 Y10.46
X16.165 Y10.157
X16.498 Y9.895
X16.862 Y9.68
X17.253 Y9.514
X17.661 Y9.401
X18.082 Y9.342
X18.506 Y9.34
X18.927 Y9.394
X19.337 Y9.502
X19.73 Y9.663
X20.098 Y9.875
X20.435 Y10.134
X20.735 Y10.434
X20.992 Y10.772
X21.324 Y11.351
X21.57 Y11.845
X21.589 Y11.89
X21.6 Y11.938
X21.604 Y11.986
Y14.152
X21.601 Y14.304
X21.595 Y14.337
X21.585 Y14.37
X21.572 Y14.403
X21.555 Y14.436
X21.542 Y14.455
X21.513 Y14.491
X21.473 Y14.528
X21.403 Y14.57
X18.524 Y16.233
X18.449 Y16.275
X18.411 Y16.291
X18.373 Y16.301
X18.335 Y16.306
X18.297 Y16.307
X18.259 Y16.303
X18.221 Y16.294
X18.172 Y16.275
X17.918 Y16.13
X15.19 Y14.555
X15.133 Y14.516
X15.101 Y14.486
X15.076 Y14.455
X15.055 Y14.421
X15.039 Y14.386
X15.026 Y14.345
X15.019 Y14.304
X15.017 Y14.152
Y10.967
X15.018 Y10.815
X15.025 Y10.769
X15.039 Y10.723
X15.052 Y10.693
X15.07 Y10.663
X15.096 Y10.63
X15.13 Y10.596
X15.16 Y10.572
X15.19 Y10.552
X18.151 Y8.843
X18.186 Y8.827
X18.221 Y8.816
X18.259 Y8.808
X18.297 Y8.804
X18.335
X18.373 Y8.809
X18.422 Y8.821
X18.471 Y8.843
X21.403 Y10.537
X21.477 Y10.583
X21.499 Y10.601
X21.521 Y10.623
X21.551 Y10.663
X21.574 Y10.706
X21.587 Y10.742
X21.597 Y10.779
X21.602 Y10.815
X21.604 Y10.967
Y11.986
G3 X21.306 Y12.292 I-0.317 J-0.011
G1 X21.286 Y12.293 Z-9.999
X21.233 Y12.279 Z-9.991
X21.182 Y12.266 Z-9.973
X21.135 Y12.254 Z-9.946
X21.099 Y12.223 Z-9.906
X21.07 Y12.198 Z-9.858
X21.048 Y12.179 Z-9.803
X21.035 Y12.167 Z-9.744
X21.03 Y12.163 Z-9.683
Z5
X29.305 Y11.304
Z0.5
G3 X31.674 Y12.013 Z0.4 I0.917 J1.25 F500
X30.346 Y14.097 Z0.3 I-1.451 J0.54
X28.707 Y12.252 Z0.2 I-0.123 J-1.542
X30.926 Y11.18 Z0.1 I1.515 J0.303
X31.351 Y13.605 Z0 I-0.704 J1.373
X28.905 Y13.352 Z-0.1 I-1.127 J-1.051
X29.816 Y11.07 Z-0.2 I1.318 J-0.797
X31.759 Y12.568 Z-0.3 I0.406 J1.483
X29.79 Y14.027 Z-0.4 I-1.536 J-0.015
X28.925 Y11.736 Z-0.5 I0.433 J-1.472
X31.362 Y11.531 Z-0.6 I1.296 J0.818
X30.895 Y13.928 Z-0.7 I-1.139 J1.022
X28.719 Y12.825 Z-0.8 I-0.672 J-1.374
X30.372 Y11.035 Z-0.9 I1.503 J-0.271
X31.641 Y13.112 Z-1 I-0.15 J1.518
X29.299 Y13.765 Z-1.1 I-1.418 J-0.558
X29.311 Y11.336 Z-1.2 I0.923 J-1.21
X31.641 Y12.01 Z-1.3 I0.911 J1.217
X30.358 Y14.066 Z-1.4 I-1.418 J0.543
X28.733 Y12.272 Z-1.5 I-0.135 J-1.511
X30.9 Y11.2 Z-1.6 I1.489 J0.283
X31.339 Y13.574 Z-1.7 I-0.678 J1.353
X28.938 Y13.349 Z-1.8 I-1.115 J-1.02
X29.81 Y11.103 Z-1.9 I1.285 J-0.793
X31.73 Y12.553 Z-2 I0.412 J1.451
X28.714 Y12.553 I-1.508 J0
X31.73 Y12.553 I1.508 J0
G1 X31.732 Y12.637 F1000
X31.965 Y13.262
X32.005 Y13.335
X32.064 Y13.473
X32.101 Y13.618
X32.117 Y13.773
X32.112 Y13.942
X32.083 Y14.125
X32.025 Y14.317
X31.936 Y14.514
X31.813 Y14.712
X31.655 Y14.905
X31.461 Y15.086
X31.231 Y15.249
X30.968 Y15.389
X30.674 Y15.498
X30.354 Y15.57
X30.014 Y15.601
X29.66 Y15.586
X29.3 Y15.523
X28.942 Y15.411
X28.594 Y15.248
X28.265 Y15.037
X27.961 Y14.781
X27.69 Y14.482
X27.458 Y14.148
X27.271 Y13.782
X27.133 Y13.393
X27.046 Y12.986
X27.014 Y12.57
X27.037 Y12.151
X27.115 Y11.738
X27.247 Y11.338
X27.43 Y10.958
X27.663 Y10.606
X27.94 Y10.286
X28.257 Y10.006
X28.609 Y9.769
X28.988 Y9.581
X29.39 Y9.444
X29.806 Y9.362
X30.229 Y9.335
X30.653 Y9.364
X31.069 Y9.448
X31.47 Y9.586
X31.85 Y9.776
X32.201 Y10.015
X32.518 Y10.297
X32.795 Y10.619
X33.16 Y11.178
X33.458 Y11.775
X33.491 Y11.854
X33.504 Y11.894
X33.512 Y11.935
X33.515 Y11.976
Y14.152
X33.512 Y14.304
X33.506 Y14.341
X33.495 Y14.379
X33.478 Y14.417
X33.455 Y14.455
X33.437 Y14.479
X33.415 Y14.502
X33.375 Y14.535
X33.223 Y14.623
X30.496 Y16.198
X30.36 Y16.275
X30.344 Y16.283
X30.306 Y16.296
X30.268 Y16.304
X30.23 Y16.307
X30.193 Y16.306
X30.165 Y16.302
X30.138 Y16.296
X30.111 Y16.287
X30.083 Y16.275
X30.041 Y16.252
X27.086 Y14.546
X27.048 Y14.519
X27.01 Y14.483
X26.988 Y14.455
X26.966 Y14.417
X26.949 Y14.379
X26.938 Y14.341
X26.932 Y14.304
X26.929 Y14.152
Y10.967
Y10.815
X26.934 Y10.777
X26.944 Y10.739
X26.959 Y10.701
X26.98 Y10.663
X27.01 Y10.624
X27.048 Y10.588
X27.086 Y10.562
X28.526 Y9.73
X30.062 Y8.843
X30.127 Y8.817
X30.16 Y8.809
X30.193 Y8.803
X30.23 Y8.802
X30.268 Y8.805
X30.306 Y8.812
X30.344 Y8.825
X30.382 Y8.843
X33.272 Y10.512
X33.375 Y10.572
X33.401 Y10.593
X33.428 Y10.618
X33.447 Y10.641
X33.464 Y10.663
X33.484 Y10.701
X33.499 Y10.739
X33.508 Y10.777
X33.513 Y10.815
X33.515 Y10.967
Y11.976
G3 X33.217 Y12.282 I-0.317 J-0.011
G1 X33.198 Y12.283 Z-1.999
X33.144 Y12.269 Z-1.991
X33.093 Y12.256 Z-1.973
X33.046 Y12.244 Z-1.946
X33.01 Y12.213 Z-1.906
X32.981 Y12.187 Z-1.858
X32.959 Y12.169 Z-1.803
X32.946 Y12.157 Z-1.744
X32.942 Y12.153 Z-1.683
Z5
X29.305 Y11.303
Z-1.5
G3 X31.674 Y12.012 Z-1.6 I0.917 J1.25 F500
X30.346 Y14.096 Z-1.7 I-1.451 J0.54
X28.707 Y12.251 Z-1.8 I-0.123 J-1.542
X30.927 Y11.179 Z-1.9 I1.515 J0.303
X31.351 Y13.604 Z-2 I-0.704 J1.373
X28.905 Y13.351 Z-2.1 I-1.127 J-1.051
X29.816 Y11.069 Z-2.2 I1.318 J-0.797
X31.76 Y12.567 Z-2.3 I0.406 J1.483
X29.79 Y14.026 Z-2.4 I-1.536 J-0.015
X28.925 Y11.736 Z-2.5 I0.433 J-1.472
X31.362 Y11.53 Z-2.6 I1.296 J0.818
X30.895 Y13.927 Z-2.7 I-1.139 J1.022
X28.719 Y12.825 Z-2.8 I-0.672 J-1.374
X30.372 Y11.034 Z-2.9 I1.503 J-0.271
X31.642 Y13.111 Z-3 I-0.15 J1.518
X29.299 Y13.764 Z-3.1 I-1.418 J-0.558
X29.311 Y11.335 Z-3.2 I0.923 J-1.21
X31.642 Y12.009 Z-3.3 I0.911 J1.217
X30.358 Y14.065 Z-3.4 I-1.418 J0.543
X28.733 Y12.271 Z-3.5 I-0.135 J-1.511
X30.9 Y11.199 Z-3.6 I1.489 J0.283
X31.339 Y13.574 Z-3.7 I-0.678 J1.353
X28.938 Y13.348 Z-3.8 I-1.115 J-1.02
X29.81 Y11.102 Z-3.9 I1.285 J-0.793
X31.73 Y12.553 Z-4 I0.412 J1.451
X28.714 Y12.553 I-1.508 J0
X31.73 Y12.553 I1.508 J0
G1 X31.732 Y12.636 F1000
X31.965 Y13.261
X32.005 Y13.334
X32.065 Y13.472
X32.101 Y13.618
X32.117 Y13.772
X32.113 Y13.941
X32.083 Y14.124
X32.025 Y14.316
X31.936 Y14.513
X31.814 Y14.711
X31.655 Y14.904
X31.461 Y15.085
X31.232 Y15.248
X30.968 Y15.388
X30.675 Y15.497
X30.355 Y15.569
X30.014 Y15.6
X29.66 Y15.586
X29.3 Y15.523
X28.942 Y15.41
X28.594 Y15.247
X28.265 Y15.036
X27.961 Y14.78
X27.69 Y14.482
X27.458 Y14.147
X27.271 Y13.781
X27.133 Y13.392
X27.046 Y12.985
X27.014 Y12.569
X27.037 Y12.15
X27.115 Y11.737
X27.247 Y11.337
X27.43 Y10.958
X27.663 Y10.605
X27.94 Y10.285
X28.257 Y10.005
X28.609 Y9.768
X28.988 Y9.58
X29.39 Y9.444
X29.806 Y9.361
X30.229 Y9.334
X30.653 Y9.363
X31.069 Y9.447
X31.47 Y9.585
X31.85 Y9.775
X32.201 Y10.014
X32.518 Y10.296
X32.795 Y10.618
X33.16 Y11.177
X33.458 Y11.774
X33.491 Y11.853
X33.504 Y11.892
X33.512 Y11.933
X33.515 Y11.975
Y14.152
X33.512 Y14.304
X33.506 Y14.341
X33.495 Y14.379
X33.478 Y14.417
X33.455 Y14.455
X33.437 Y14.479
X33.415 Y14.502
X33.375 Y14.535
X33.223 Y14.623
X30.496 Y16.198
X30.36 Y16.275
X30.344 Y16.283
X30.306 Y16.296
X30.268 Y16.304
X30.23 Y16.307
X30.193 Y16.306
X30.165 Y16.302
X30.138 Y16.296
X30.111 Y16.287
X30.083 Y16.275
X30.041 Y16.252
X27.086 Y14.546
X27.048 Y14.519
X27.01 Y14.483
X26.988 Y14.455
X26.966 Y14.417
X26.949 Y14.379
X26.938 Y14.341
X26.932 Y14.304
X26.929 Y14.152
Y10.967
Y10.815
X26.934 Y10.777
X26.944 Y10.739
X26.959 Y10.701
X26.98 Y10.663
X27.01 Y10.624
X27.048 Y10.588
X27.086 Y10.562
X28.526 Y9.73
X30.062 Y8.843
X30.127 Y8.817
X30.16 Y8.809
X30.193 Y8.803
X30.23 Y8.802
X30.268 Y8.805
X30.306 Y8.812
X30.344 Y8.825
X30.382 Y8.843
X33.272 Y10.512
X33.375 Y10.572
X33.401 Y10.593
X33.428 Y10.618
X33.447 Y10.641
X33.464 Y10.663
X33.484 Y10.701
X33.499 Y10.739
X33.508 Y10.777
X33.513 Y10.815
X33.515 Y10.967
Y11.975
G3 X33.217 Y12.281 I-0.317 J-0.011
G1 X33.198 Z-3.999
X33.144 Y12.268 Z-3.991
X33.093 Y12.255 Z-3.973
X33.046 Y12.243 Z-3.946
X33.01 Y12.212 Z-3.906
X32.981 Y12.186 Z-3.858
X32.959 Y12.167 Z-3.803
X32.946 Y12.156 Z-3.744
X32.942 Y12.152 Z-3.683
Z5
X29.306 Y11.304
Z-3.5
G3 X31.675 Y12.013 Z-3.6 I0.917 J1.25 F500
X30.347 Y14.097 Z-3.7 I-1.451 J0.54
X28.708 Y12.252 Z-3.8 I-0.123 J-1.542
X30.927 Y11.18 Z-3.9 I1.515 J0.303
X31.352 Y13.605 Z-4 I-0.704 J1.373
X28.906 Y13.352 Z-4.1 I-1.127 J-1.051
X29.817 Y11.07 Z-4.2 I1.318 J-0.797
X31.76 Y12.568 Z-4.3 I0.406 J1.483
X29.791 Y14.027 Z-4.4 I-1.536 J-0.015
X28.926 Y11.736 Z-4.5 I0.433 J-1.472
X31.363 Y11.531 Z-4.6 I1.296 J0.818
X30.896 Y13.928 Z-4.7 I-1.139 J1.022
X28.72 Y12.825 Z-4.8 I-0.672 J-1.374
X30.373 Y11.035 Z-4.9 I1.503 J-0.271
X31.642 Y13.112 Z-5 I-0.15 J1.518
X29.3 Y13.765 Z-5.1 I-1.418 J-0.558
X29.312 Y11.336 Z-5.2 I0.923 J-1.21
X31.642 Y12.01 Z-5.3 I0.911 J1.217
X30.359 Y14.066 Z-5.4 I-1.418 J0.543
X28.734 Y12.272 Z-5.5 I-0.135 J-1.511
X30.901 Y11.2 Z-5.6 I1.489 J0.283
X31.34 Y13.574 Z-5.7 I-0.678 J1.353
X28.938 Y13.349 Z-5.8 I-1.115 J-1.02
X29.811 Y11.103 Z-5.9 I1.285 J-0.793
X31.731 Y12.553 Z-6 I0.412 J1.451
X28.714 Y12.553 I-1.508 J0
X31.731 Y12.553 I1.508 J0
G1 X31.733 Y12.637 F1000
X31.965 Y13.262
X32.006 Y13.335
X32.065 Y13.473
X32.102 Y13.619
X32.118 Y13.773
X32.113 Y13.942
X32.084 Y14.125
X32.026 Y14.317
X31.937 Y14.514
X31.814 Y14.712
X31.656 Y14.905
X31.462 Y15.086
X31.232 Y15.249
X30.969 Y15.389
X30.675 Y15.498
X30.355 Y15.57
X30.015 Y15.601
X29.661 Y15.587
X29.301 Y15.524
X28.943 Y15.411
X28.595 Y15.248
X28.266 Y15.037
X27.962 Y14.781
X27.691 Y14.482
X27.459 Y14.148
X27.272 Y13.782
X27.133 Y13.393
X27.047 Y12.986
X27.015 Y12.57
X27.038 Y12.151
X27.115 Y11.738
X27.247 Y11.338
X27.431 Y10.959
X27.664 Y10.606
X27.941 Y10.286
X28.258 Y10.006
X28.609 Y9.769
X28.989 Y9.581
X29.391 Y9.445
X29.807 Y9.362
X30.23 Y9.335
X30.653 Y9.364
X31.069 Y9.448
X31.471 Y9.586
X31.85 Y9.776
X32.202 Y10.015
X32.519 Y10.297
X32.796 Y10.619
X33.161 Y11.178
X33.458 Y11.775
X33.491 Y11.852
X33.504 Y11.892
X33.512 Y11.932
X33.515 Y11.974
Y14.152
X33.512 Y14.304
X33.506 Y14.341
X33.495 Y14.379
X33.478 Y14.417
X33.455 Y14.455
X33.437 Y14.479
X33.415 Y14.502
X33.375 Y14.535
X33.223 Y14.623
X30.496 Y16.198
X30.36 Y16.275
X30.344 Y16.283
X30.306 Y16.296
X30.268 Y16.304
X30.23 Y16.307
X30.193 Y16.306
X30.165 Y16.302
X30.138 Y16.296
X30.111 Y16.287
X30.083 Y16.275
X30.041 Y16.252
X27.086 Y14.546
X27.048 Y14.519
X27.01 Y14.483
X26.988 Y14.455
X26.966 Y14.417
X26.949 Y14.379
X26.938 Y14.341
X26.932 Y14.304
X26.929 Y14.152
Y10.967
Y10.815
X26.934 Y10.777
X26.944 Y10.739
X26.959 Y10.701
X26.98 Y10.663
X27.01 Y10.624
X27.048 Y10.588
X27.086 Y10.562
X28.526 Y9.73
X30.062 Y8.843
X30.127 Y8.817
X30.16 Y8.809
X30.193 Y8.803
X30.23 Y8.802
X30.268 Y8.805
X30.306 Y8.812
X30.344 Y8.825
X30.382 Y8.843
X33.272 Y10.512
X33.375 Y10.572
X33.401 Y10.593
X33.428 Y10.618
X33.447 Y10.641
X33.464 Y10.663
X33.484 Y10.701
X33.499 Y10.739
X33.508 Y10.777
X33.513 Y10.815
X33.515 Y10.967
Y11.974
G3 X33.217 Y12.28 I-0.317 J-0.011
G1 X33.198 Y12.281 Z-5.999
X33.144 Y12.267 Z-5.991
X33.093 Y12.254 Z-5.973
X33.046 Y12.242 Z-5.946
X33.01 Y12.211 Z-5.906
X32.981 Y12.185 Z-5.858
X32.959 Y12.166 Z-5.803
X32.946 Y12.155 Z-5.744
X32.942 Y12.151 Z-5.683
Z5
X29.305 Y11.303
Z-5.5
G3 X31.675 Y12.012 Z-5.6 I0.917 J1.25 F500
X30.346 Y14.096 Z-5.7 I-1.451 J0.54
X28.707 Y12.251 Z-5.8 I-0.123 J-1.542
X30.927 Y11.179 Z-5.9 I1.515 J0.303
X31.351 Y13.604 Z-6 I-0.704 J1.373
X28.905 Y13.351 Z-6.1 I-1.127 J-1.051
X29.816 Y11.069 Z-6.2 I1.318 J-0.797
X31.76 Y12.567 Z-6.3 I0.406 J1.483
X29.79 Y14.026 Z-6.4 I-1.536 J-0.015
X28.926 Y11.736 Z-6.5 I0.433 J-1.472
X31.362 Y11.53 Z-6.6 I1.296 J0.818
X30.895 Y13.927 Z-6.7 I-1.139 J1.022
X28.719 Y12.825 Z-6.8 I-0.672 J-1.374
X30.372 Y11.034 Z-6.9 I1.503 J-0.271
X31.642 Y13.111 Z-7 I-0.15 J1.518
X29.299 Y13.764 Z-7.1 I-1.418 J-0.558
X29.311 Y11.335 Z-7.2 I0.923 J-1.21
X31.642 Y12.009 Z-7.3 I0.911 J1.217
X30.359 Y14.065 Z-7.4 I-1.418 J0.543
X28.733 Y12.271 Z-7.5 I-0.135 J-1.511
X30.9 Y11.199 Z-7.6 I1.489 J0.283
X31.339 Y13.574 Z-7.7 I-0.678 J1.353
X28.938 Y13.348 Z-7.8 I-1.115 J-1.02
X29.81 Y11.102 Z-7.9 I1.285 J-0.793
X31.73 Y12.553 Z-8 I0.412 J1.451
X28.714 Y12.553 I-1.508 J0
X31.73 Y12.553 I1.508 J0
G1 X31.732 Y12.636 F1000
X31.965 Y13.261
X32.005 Y13.334
X32.065 Y13.472
X32.101 Y13.618
X32.117 Y13.772
X32.113 Y13.941
X32.083 Y14.124
X32.026 Y14.316
X31.937 Y14.513
X31.814 Y14.711
X31.656 Y14.904
X31.461 Y15.085
X31.232 Y15.248
X30.969 Y15.388
X30.675 Y15.497
X30.355 Y15.569
X30.014 Y15.6
X29.661 Y15.586
X29.301 Y15.523
X28.943 Y15.41
X28.595 Y15.247
X28.265 Y15.036
X27.961 Y14.78
X27.69 Y14.482
X27.459 Y14.147
X27.271 Y13.781
X27.133 Y13.392
X27.046 Y12.985
X27.014 Y12.569
X27.037 Y12.15
X27.115 Y11.737
X27.247 Y11.337
X27.431 Y10.958
X27.663 Y10.605
X27.94 Y10.285
X28.257 Y10.005
X28.609 Y9.768
X28.989 Y9.58
X29.39 Y9.444
X29.806 Y9.361
X30.23 Y9.334
X30.653 Y9.363
X31.069 Y9.447
X31.47 Y9.585
X31.85 Y9.775
X32.201 Y10.014
X32.518 Y10.296
X32.795 Y10.618
X33.16 Y11.177
X33.458 Y11.774
X33.491 Y11.853
X33.504 Y11.892
X33.512 Y11.933
X33.515 Y11.975
Y14.152
X33.512 Y14.304
X33.506 Y14.341
X33.495 Y14.379
X33.478 Y14.417
X33.455 Y14.455
X33.437 Y14.479
X33.415 Y14.502
X33.375 Y14.535
X33.223 Y14.623
X30.496 Y16.198
X30.36 Y16.275
X30.344 Y16.283
X30.306 Y16.296
X30.268 Y16.304
X30.23 Y16.307
X30.193 Y16.306
X30.165 Y16.302
X30.138 Y16.296
X30.111 Y16.287
X30.083 Y16.275
X30.041 Y16.252
X27.086 Y14.546
X27.048 Y14.519
X27.01 Y14.483
X26.988 Y14.455
X26.966 Y14.417
X26.949 Y14.379
X26.938 Y14.341
X26.932 Y14.304
X26.929 Y14.152
Y10.967
Y10.815
X26.934 Y10.777
X26.944 Y10.739
X26.959 Y10.701
X26.98 Y10.663
X27.01 Y10.624
X27.048 Y10.588
X27.086 Y10.562
X28.526 Y9.73
X30.062 Y8.843
X30.127 Y8.817
X30.16 Y8.809
X30.193 Y8.803
X30.23 Y8.802
X30.268 Y8.805
X30.306 Y8.812
X30.344 Y8.825
X30.382 Y8.843
X33.272 Y10.512
X33.375 Y10.572
X33.401 Y10.593
X33.428 Y10.618
X33.447 Y10.641
X33.464 Y10.663
X33.484 Y10.701
X33.499 Y10.739
X33.508 Y10.777
X33.513 Y10.815
X33.515 Y10.967
Y11.975
G3 X33.217 Y12.28 I-0.317 J-0.011
G1 X33.198 Y12.281 Z-7.999
X33.144 Y12.267 Z-7.991
X33.093 Y12.254 Z-7.973
X33.046 Y12.242 Z-7.946
X33.01 Y12.211 Z-7.906
X32.981 Y12.186 Z-7.858
X32.959 Y12.167 Z-7.803
X32.946 Y12.155 Z-7.744
X32.942 Y12.151 Z-7.683
Z5
X29.305 Y11.304
Z-7.5
G3 X31.675 Y12.013 Z-7.6 I0.917 J1.25 F500
X30.347 Y14.096 Z-7.7 I-1.451 J0.54
X28.707 Y12.252 Z-7.8 I-0.123 J-1.542
X30.927 Y11.18 Z-7.9 I1.515 J0.303
X31.352 Y13.605 Z-8 I-0.704 J1.373
X28.905 Y13.351 Z-8.1 I-1.127 J-1.051
X29.816 Y11.07 Z-8.2 I1.318 J-0.797
X31.76 Y12.568 Z-8.3 I0.406 J1.483
X29.79 Y14.027 Z-8.4 I-1.536 J-0.015
X28.926 Y11.736 Z-8.5 I0.433 J-1.472
X31.363 Y11.53 Z-8.6 I1.296 J0.818
X30.896 Y13.928 Z-8.7 I-1.139 J1.022
X28.719 Y12.825 Z-8.8 I-0.672 J-1.374
X30.373 Y11.035 Z-8.9 I1.503 J-0.271
X31.642 Y13.112 Z-9 I-0.15 J1.518
X29.3 Y13.765 Z-9.1 I-1.418 J-0.558
X29.311 Y11.336 Z-9.2 I0.923 J-1.21
X31.642 Y12.01 Z-9.3 I0.911 J1.217
X30.359 Y14.066 Z-9.4 I-1.418 J0.543
X28.734 Y12.272 Z-9.5 I-0.135 J-1.511
X30.901 Y11.2 Z-9.6 I1.489 J0.283
X31.34 Y13.574 Z-9.7 I-0.678 J1.353
X28.938 Y13.348 Z-9.8 I-1.115 J-1.02
X29.81 Y11.102 Z-9.9 I1.285 J-0.793
X31.73 Y12.553 Z-10 I0.412 J1.451
X28.714 Y12.553 I-1.508 J0
X31.73 Y12.553 I1.508 J0
G1 X31.733 Y12.637 F1000
X31.965 Y13.262
X32.006 Y13.335
X32.065 Y13.473
X32.102 Y13.618
X32.118 Y13.772
X32.113 Y13.942
X32.084 Y14.125
X32.026 Y14.317
X31.937 Y14.514
X31.814 Y14.712
X31.656 Y14.904
X31.462 Y15.086
X31.232 Y15.249
X30.969 Y15.388
X30.675 Y15.497
X30.355 Y15.57
X30.015 Y15.601
X29.661 Y15.586
X29.301 Y15.523
X28.943 Y15.41
X28.595 Y15.248
X28.265 Y15.037
X27.961 Y14.78
X27.691 Y14.482
X27.459 Y14.147
X27.272 Y13.782
X27.133 Y13.392
X27.047 Y12.986
X27.014 Y12.569
X27.037 Y12.151
X27.115 Y11.738
X27.247 Y11.338
X27.431 Y10.958
X27.663 Y10.605
X27.941 Y10.286
X28.258 Y10.006
X28.609 Y9.769
X28.989 Y9.581
X29.39 Y9.444
X29.806 Y9.362
X30.23 Y9.334
X30.653 Y9.363
X31.069 Y9.448
X31.47 Y9.586
X31.85 Y9.776
X32.201 Y10.014
X32.518 Y10.297
X32.795 Y10.619
X33.16 Y11.177
X33.458 Y11.775
X33.491 Y11.853
X33.504 Y11.892
X33.512 Y11.933
X33.515 Y11.975
Y14.152
X33.512 Y14.304
X33.506 Y14.341
X33.495 Y14.379
X33.478 Y14.417
X33.455 Y14.455
X33.437 Y14.479
X33.415 Y14.502
X33.375 Y14.535
X33.223 Y14.623
X30.496 Y16.198
X30.36 Y16.275
X30.344 Y16.283
X30.306 Y16.296
X30.268 Y16.304
X30.23 Y16.307
X30.193 Y16.306
X30.165 Y16.302
X30.138 Y16.296
X30.111 Y16.287
X30.083 Y16.275
X30.041 Y16.252
X27.086 Y14.546
X27.048 Y14.519
X27.01 Y14.483
X26.988 Y14.455
X26.966 Y14.417
X26.949 Y14.379
X26.938 Y14.341
X26.932 Y14.304
X26.929 Y14.152
Y10.967
Y10.815
X26.934 Y10.777
X26.944 Y10.739
X26.959 Y10.701
X26.98 Y10.663
X27.01 Y10.624
X27.048 Y10.588
X27.086 Y10.562
X28.526 Y9.73
X30.062 Y8.843
X30.127 Y8.817
X30.16 Y8.809
X30.193 Y8.803
X30.23 Y8.802
X30.268 Y8.805
X30.306 Y8.812
X30.344 Y8.825
X30.382 Y8.843
X33.272 Y10.512
X33.375 Y10.572
X33.401 Y10.593
X33.428 Y10.618
X33.447 Y10.641
X33.464 Y10.663
X33.484 Y10.701
X33.499 Y10.739
X33.508 Y10.777
X33.513 Y10.815
X33.515 Y10.967
Y11.975
G3 X33.217 Y12.28 I-0.317 J-0.011
G1 X33.198 Y12.281 Z-9.999
X33.144 Y12.267 Z-9.991
X33.093 Y12.254 Z-9.973
X33.046 Y12.242 Z-9.946
X33.01 Y12.211 Z-9.906
X32.981 Y12.186 Z-9.858
X32.959 Y12.167 Z-9.803
X32.946 Y12.155 Z-9.744
X32.942 Y12.151 Z-9.683
Z5
X41.216 Y11.304
Z0.5
G3 X43.585 Y12.013 Z0.4 I0.917 J1.25 F500
X42.257 Y14.097 Z0.3 I-1.451 J0.54
X40.618 Y12.252 Z0.2 I-0.123 J-1.542
X42.838 Y11.18 Z0.1 I1.515 J0.303
X43.262 Y13.605 Z0 I-0.704 J1.373
X40.816 Y13.352 Z-0.1 I-1.127 J-1.051
X41.727 Y11.07 Z-0.2 I1.318 J-0.797
X43.671 Y12.568 Z-0.3 I0.406 J1.483
X41.701 Y14.027 Z-0.4 I-1.536 J-0.015
X40.836 Y11.737 Z-0.5 I0.433 J-1.472
X43.273 Y11.531 Z-0.6 I1.296 J0.818
X42.806 Y13.928 Z-0.7 I-1.139 J1.022
X40.63 Y12.826 Z-0.8 I-0.672 J-1.374
X42.283 Y11.035 Z-0.9 I1.503 J-0.271
X43.553 Y13.112 Z-1 I-0.15 J1.518
X41.21 Y13.765 Z-1.1 I-1.418 J-0.558
X41.222 Y11.337 Z-1.2 I0.923 J-1.21
X43.553 Y12.01 Z-1.3 I0.911 J1.217
X42.269 Y14.066 Z-1.4 I-1.418 J0.543
X40.644 Y12.272 Z-1.5 I-0.135 J-1.511
X42.811 Y11.2 Z-1.6 I1.489 J0.283
X43.25 Y13.575 Z-1.7 I-0.678 J1.353
X40.849 Y13.349 Z-1.8 I-1.115 J-1.02
X41.721 Y11.103 Z-1.9 I1.285 J-0.793
X43.641 Y12.554 Z-2 I0.412 J1.451
X40.625 Y12.554 I-1.508 J0
X43.641 Y12.554 I1.508 J0
G1 X43.643 Y12.637 F1000
X43.876 Y13.262
X43.949 Y13.394
X43.998 Y13.535
X44.025 Y13.683
X44.032 Y13.844
X44.017 Y14.021
X43.975 Y14.208
X43.904 Y14.403
X43.8 Y14.602
X43.662 Y14.798
X43.487 Y14.987
X43.277 Y15.161
X43.032 Y15.315
X42.755 Y15.442
X42.448 Y15.535
X42.119 Y15.59
X41.771 Y15.601
X41.413 Y15.565
X41.053 Y15.481
X40.698 Y15.346
X40.357 Y15.161
X40.038 Y14.93
X39.748 Y14.654
X39.494 Y14.339
X39.281 Y13.99
X39.115 Y13.613
X38.999 Y13.215
X38.936 Y12.803
X38.928 Y12.385
X38.975 Y11.968
X39.077 Y11.56
X39.233 Y11.168
X39.438 Y10.799
X39.691 Y10.46
X39.987 Y10.157
X40.32 Y9.896
X40.684 Y9.68
X41.075 Y9.514
X41.483 Y9.401
X41.904 Y9.343
X42.328 Y9.341
X42.749 Y9.394
X43.159 Y9.503
X43.552 Y9.664
X43.92 Y9.876
X44.257 Y10.134
X44.557 Y10.435
X44.814 Y10.772
X45.146 Y11.351
X45.393 Y11.847
X45.411 Y11.892
X45.422 Y11.94
X45.426 Y11.988
Y14.152
X45.424 Y14.304
X45.417 Y14.341
X45.404 Y14.379
X45.388 Y14.417
X45.365 Y14.455
X45.346 Y14.48
X45.308 Y14.517
X45.271 Y14.545
X42.316 Y16.251
X42.271 Y16.275
X42.245 Y16.287
X42.218 Y16.295
X42.164 Y16.305
X42.126 Y16.307
X42.088 Y16.304
X42.05 Y16.296
X42.012 Y16.283
X41.995 Y16.275
X41.73 Y16.124
X39.103 Y14.607
X38.982 Y14.536
X38.941 Y14.503
X38.919 Y14.479
X38.901 Y14.455
X38.878 Y14.417
X38.862 Y14.379
X38.85 Y14.341
X38.842 Y14.304
X38.84 Y14.152
Y10.967
X38.841 Y10.815
X38.846 Y10.777
X38.856 Y10.739
X38.872 Y10.701
X38.894 Y10.663
X38.91 Y10.641
X38.93 Y10.618
X38.982 Y10.573
X39.083 Y10.512
X41.973 Y8.843
X42.012 Y8.824
X42.05 Y8.811
X42.088 Y8.803
X42.126 Y8.8
X42.164 Y8.802
X42.196 Y8.806
X42.229 Y8.815
X42.261 Y8.827
X42.293 Y8.843
X45.271 Y10.562
X45.308 Y10.589
X45.346 Y10.625
X45.375 Y10.663
X45.396 Y10.701
X45.411 Y10.739
X45.421 Y10.777
X45.426 Y10.815
Y11.422
Y11.988
G3 X45.129 Y12.294 I-0.317 J-0.011
G1 X45.109 Y12.295 Z-1.999
X45.056 Y12.281 Z-1.991
X45.004 Y12.268 Z-1.973
X44.957 Y12.256 Z-1.946
X44.922 Y12.225 Z-1.906
X44.892 Y12.199 Z-1.858
X44.871 Y12.181 Z-1.803
X44.857 Y12.169 Z-1.744
X44.853 Y12.165 Z-1.683
Z5
X41.216 Y11.304
Z-1.5
G3 X43.586 Y12.013 Z-1.6 I0.917 J1.25 F500
X42.258 Y14.096 Z-1.7 I-1.451 J0.54
X40.618 Y12.252 Z-1.8 I-0.123 J-1.542
X42.838 Y11.18 Z-1.9 I1.515 J0.303
X43.262 Y13.605 Z-2 I-0.704 J1.373
X40.816 Y13.351 Z-2.1 I-1.127 J-1.051
X41.727 Y11.07 Z-2.2 I1.318 J-0.797
X43.671 Y12.568 Z-2.3 I0.406 J1.483
X41.701 Y14.027 Z-2.4 I-1.536 J-0.015
X40.837 Y11.736 Z-2.5 I0.433 J-1.472
X43.273 Y11.53 Z-2.6 I1.296 J0.818
X42.806 Y13.928 Z-2.7 I-1.139 J1.022
X40.63 Y12.825 Z-2.8 I-0.672 J-1.374
X42.283 Y11.035 Z-2.9 I1.503 J-0.271
X43.553 Y13.112 Z-3 I-0.15 J1.518
X41.211 Y13.765 Z-3.1 I-1.418 J-0.558
X41.222 Y11.336 Z-3.2 I0.923 J-1.21
X43.553 Y12.01 Z-3.3 I0.911 J1.217
X42.27 Y14.066 Z-3.4 I-1.418 J0.543
X40.644 Y12.272 Z-3.5 I-0.135 J-1.511
X42.811 Y11.2 Z-3.6 I1.489 J0.283
X43.25 Y13.574 Z-3.7 I-0.678 J1.353
X40.849 Y13.348 Z-3.8 I-1.115 J-1.02
X41.721 Y11.102 Z-3.9 I1.285 J-0.793
X43.641 Y12.553 Z-4 I0.412 J1.451
X40.625 Y12.553 I-1.508 J0
X43.641 Y12.553 I1.508 J0
G1 X43.643 Y12.637 F1000
X43.876 Y13.262
X43.949 Y13.393
X43.998 Y13.535
X44.025 Y13.683
X44.032 Y13.844
X44.017 Y14.02
X43.975 Y14.208
X43.904 Y14.403
X43.8 Y14.601
X43.662 Y14.798
X43.488 Y14.986
X43.277 Y15.161
X43.032 Y15.314
X42.755 Y15.441
X42.449 Y15.535
X42.119 Y15.59
X41.771 Y15.601
X41.414 Y15.565
X41.053 Y15.48
X40.698 Y15.345
X40.358 Y15.161
X40.038 Y14.929
X39.748 Y14.654
X39.494 Y14.339
X39.281 Y13.99
X39.115 Y13.613
X38.999 Y13.215
X38.936 Y12.803
X38.928 Y12.384
X38.976 Y11.967
X39.078 Y11.559
X39.233 Y11.167
X39.438 Y10.799
X39.691 Y10.46
X39.987 Y10.157
X40.32 Y9.895
X40.685 Y9.68
X41.075 Y9.514
X41.483 Y9.401
X41.904 Y9.343
X42.328 Y9.34
X42.749 Y9.394
X43.159 Y9.502
X43.552 Y9.664
X43.92 Y9.876
X44.257 Y10.134
X44.557 Y10.434
X44.815 Y10.772
X45.146 Y11.351
X45.393 Y11.846
X45.411 Y11.891
X45.422 Y11.939
X45.426 Y11.988
Y14.152
X45.424 Y14.304
X45.417 Y14.341
X45.404 Y14.379
X45.388 Y14.417
X45.365 Y14.455
X45.346 Y14.48
X45.308 Y14.517
X45.271 Y14.545
X42.316 Y16.251
X42.271 Y16.275
X42.245 Y16.287
X42.218 Y16.295
X42.164 Y16.305
X42.126 Y16.307
X42.088 Y16.304
X42.05 Y16.296
X42.012 Y16.283
X41.995 Y16.275
X41.73 Y16.124
X39.103 Y14.607
X38.982 Y14.536
X38.941 Y14.503
X38.919 Y14.479
X38.901 Y14.455
X38.878 Y14.417
X38.862 Y14.379
X38.85 Y14.341
X38.842 Y14.304
X38.84 Y14.152
Y10.967
X38.841 Y10.815
X38.846 Y10.777
X38.856 Y10.739
X38.872 Y10.701
X38.894 Y10.663
X38.91 Y10.641
X38.93 Y10.618
X38.982 Y10.573
X39.083 Y10.512
X41.973 Y8.843
X42.012 Y8.824
X42.05 Y8.811
X42.088 Y8.803
X42.126 Y8.8
X42.164 Y8.802
X42.196 Y8.806
X42.229 Y8.815
X42.261 Y8.827
X42.293 Y8.843
X45.271 Y10.562
X45.308 Y10.589
X45.346 Y10.625
X45.375 Y10.663
X45.396 Y10.701
X45.411 Y10.739
X45.421 Y10.777
X45.426 Y10.815
Y11.422
Y11.988
G3 X45.129 Y12.293 I-0.317 J-0.011
G1 X45.109 Y12.294 Z-3.999
X45.056 Y12.28 Z-3.991
X45.004 Y12.267 Z-3.973
X44.957 Y12.255 Z-3.946
X44.922 Y12.224 Z-3.906
X44.892 Y12.199 Z-3.858
X44.871 Y12.18 Z-3.803
X44.857 Y12.168 Z-3.744
X44.853 Y12.164 Z-3.683
Z5
X41.216 Y11.304
Z-3.5
G3 X43.586 Y12.013 Z-3.6 I0.917 J1.25 F500
X42.258 Y14.096 Z-3.7 I-1.451 J0.54
X40.618 Y12.252 Z-3.8 I-0.123 J-1.542
X42.838 Y11.18 Z-3.9 I1.515 J0.303
X43.263 Y13.605 Z-4 I-0.704 J1.373
X40.816 Y13.351 Z-4.1 I-1.127 J-1.051
X41.727 Y11.07 Z-4.2 I1.318 J-0.797
X43.671 Y12.568 Z-4.3 I0.406 J1.483
X41.702 Y14.027 Z-4.4 I-1.536 J-0.015
X40.837 Y11.736 Z-4.5 I0.433 J-1.472
X43.274 Y11.53 Z-4.6 I1.296 J0.818
X42.807 Y13.928 Z-4.7 I-1.139 J1.022
X40.63 Y12.825 Z-4.8 I-0.672 J-1.374
X42.284 Y11.035 Z-4.9 I1.503 J-0.271
X43.553 Y13.112 Z-5 I-0.15 J1.518
X41.211 Y13.765 Z-5.1 I-1.418 J-0.558
X41.222 Y11.336 Z-5.2 I0.923 J-1.21
X43.553 Y12.01 Z-5.3 I0.911 J1.217
X42.27 Y14.066 Z-5.4 I-1.418 J0.543
X40.645 Y12.272 Z-5.5 I-0.135 J-1.511
X42.812 Y11.2 Z-5.6 I1.489 J0.283
X43.251 Y13.574 Z-5.7 I-0.678 J1.353
X40.849 Y13.348 Z-5.8 I-1.115 J-1.02
X41.721 Y11.102 Z-5.9 I1.285 J-0.793
X43.642 Y12.553 Z-6 I0.412 J1.451
X40.625 Y12.553 I-1.508 J0
X43.642 Y12.553 I1.508 J0
G1 X43.644 Y12.637 F1000
X43.876 Y13.262
X43.949 Y13.393
X43.998 Y13.535
X44.025 Y13.683
X44.032 Y13.844
X44.017 Y14.02
X43.976 Y14.208
X43.904 Y14.403
X43.801 Y14.601
X43.662 Y14.798
X43.488 Y14.986
X43.278 Y15.161
X43.033 Y15.314
X42.755 Y15.441
X42.449 Y15.535
X42.119 Y15.59
X41.772 Y15.601
X41.414 Y15.565
X41.054 Y15.48
X40.699 Y15.345
X40.358 Y15.161
X40.039 Y14.929
X39.748 Y14.654
X39.494 Y14.339
X39.281 Y13.99
X39.115 Y13.613
X38.999 Y13.215
X38.937 Y12.803
X38.929 Y12.384
X38.976 Y11.968
X39.078 Y11.559
X39.233 Y11.167
X39.439 Y10.799
X39.692 Y10.46
X39.987 Y10.157
X40.32 Y9.895
X40.685 Y9.68
X41.075 Y9.514
X41.484 Y9.401
X41.904 Y9.343
X42.328 Y9.34
X42.749 Y9.394
X43.16 Y9.502
X43.552 Y9.664
X43.92 Y9.876
X44.257 Y10.134
X44.557 Y10.435
X44.815 Y10.772
X45.147 Y11.351
X45.393 Y11.845
X45.411 Y11.891
X45.422 Y11.938
X45.426 Y11.987
Y14.152
X45.424 Y14.304
X45.417 Y14.341
X45.404 Y14.379
X45.388 Y14.417
X45.365 Y14.455
X45.346 Y14.48
X45.308 Y14.517
X45.271 Y14.545
X42.316 Y16.251
X42.271 Y16.275
X42.245 Y16.287
X42.218 Y16.295
X42.164 Y16.305
X42.126 Y16.307
X42.088 Y16.304
X42.05 Y16.296
X42.012 Y16.283
X41.995 Y16.275
X41.73 Y16.124
X39.103 Y14.607
X38.982 Y14.536
X38.941 Y14.503
X38.919 Y14.479
X38.901 Y14.455
X38.878 Y14.417
X38.862 Y14.379
X38.85 Y14.341
X38.842 Y14.304
X38.84 Y14.152
Y10.967
X38.841 Y10.815
X38.846 Y10.777
X38.856 Y10.739
X38.872 Y10.701
X38.894 Y10.663
X38.91 Y10.641
X38.93 Y10.618
X38.982 Y10.573
X39.083 Y10.512
X41.973 Y8.843
X42.012 Y8.824
X42.05 Y8.811
X42.088 Y8.803
X42.126 Y8.8
X42.164 Y8.802
X42.196 Y8.806
X42.229 Y8.815
X42.261 Y8.827
X42.293 Y8.843
X45.271 Y10.562
X45.308 Y10.589
X45.346 Y10.625
X45.375 Y10.663
X45.396 Y10.701
X45.411 Y10.739
X45.421 Y10.777
X45.426 Y10.815
Y11.422
Y11.987
G3 X45.129 Y12.293 I-0.317 J-0.011
G1 X45.109 Z-5.999
X45.056 Y12.28 Z-5.991
X45.004 Y12.267 Z-5.973
X44.957 Y12.255 Z-5.946
X44.922 Y12.224 Z-5.906
X44.892 Y12.198 Z-5.858
X44.871 Y12.179 Z-5.803
X44.857 Y12.168 Z-5.744
X44.853 Y12.164 Z-5.683
Z5
X41.216 Y11.304
Z-5.5
G3 X43.586 Y12.013 Z-5.6 I0.917 J1.25 F500
X42.257 Y14.096 Z-5.7 I-1.451 J0.54
X40.618 Y12.252 Z-5.8 I-0.123 J-1.542
X42.838 Y11.18 Z-5.9 I1.515 J0.303
X43.262 Y13.605 Z-6 I-0.704 J1.373
X40.816 Y13.351 Z-6.1 I-1.127 J-1.051
X41.727 Y11.07 Z-6.2 I1.318 J-0.797
X43.671 Y12.568 Z-6.3 I0.406 J1.483
X41.701 Y14.027 Z-6.4 I-1.536 J-0.015
X40.836 Y11.736 Z-6.5 I0.433 J-1.472
X43.273 Y11.53 Z-6.6 I1.296 J0.818
X42.806 Y13.928 Z-6.7 I-1.139 J1.022
X40.63 Y12.825 Z-6.8 I-0.672 J-1.374
X42.283 Y11.035 Z-6.9 I1.503 J-0.271
X43.553 Y13.112 Z-7 I-0.15 J1.518
X41.21 Y13.765 Z-7.1 I-1.418 J-0.558
X41.222 Y11.336 Z-7.2 I0.923 J-1.21
X43.553 Y12.01 Z-7.3 I0.911 J1.217
X42.269 Y14.065 Z-7.4 I-1.418 J0.543
X40.644 Y12.272 Z-7.5 I-0.135 J-1.511
X42.811 Y11.199 Z-7.6 I1.489 J0.283
X43.25 Y13.574 Z-7.7 I-0.678 J1.353
X40.849 Y13.348 Z-7.8 I-1.115 J-1.02
X41.721 Y11.102 Z-7.9 I1.285 J-0.793
X43.641 Y12.553 Z-8 I0.412 J1.451
X40.625 Y12.553 I-1.508 J0
X43.641 Y12.553 I1.508 J0
G1 X43.643 Y12.637 F1000
X43.876 Y13.262
X43.949 Y13.393
X43.998 Y13.535
X44.025 Y13.683
X44.032 Y13.844
X44.017 Y14.02
X43.975 Y14.208
X43.904 Y14.403
X43.8 Y14.601
X43.662 Y14.798
X43.487 Y14.986
X43.277 Y15.16
X43.032 Y15.314
X42.755 Y15.441
X42.448 Y15.535
X42.119 Y15.589
X41.771 Y15.601
X41.413 Y15.565
X41.053 Y15.48
X40.698 Y15.345
X40.357 Y15.161
X40.038 Y14.929
X39.748 Y14.654
X39.494 Y14.339
X39.281 Y13.99
X39.115 Y13.613
X38.999 Y13.215
X38.936 Y12.803
X38.928 Y12.384
X38.975 Y11.967
X39.077 Y11.559
X39.233 Y11.167
X39.438 Y10.799
X39.691 Y10.46
X39.987 Y10.157
X40.32 Y9.895
X40.684 Y9.68
X41.075 Y9.514
X41.483 Y9.401
X41.904 Y9.343
X42.328 Y9.34
X42.749 Y9.394
X43.159 Y9.502
X43.552 Y9.664
X43.92 Y9.875
X44.257 Y10.134
X44.557 Y10.434
X44.814 Y10.772
X45.146 Y11.351
X45.393 Y11.846
X45.411 Y11.892
X45.422 Y11.939
X45.426 Y11.988
Y14.152
X45.424 Y14.304
X45.417 Y14.341
X45.404 Y14.379
X45.388 Y14.417
X45.365 Y14.455
X45.346 Y14.48
X45.308 Y14.517
X45.271 Y14.545
X42.316 Y16.251
X42.271 Y16.275
X42.245 Y16.287
X42.218 Y16.295
X42.164 Y16.305
X42.126 Y16.307
X42.088 Y16.304
X42.05 Y16.296
X42.012 Y16.283
X41.995 Y16.275
X41.73 Y16.124
X39.103 Y14.607
X38.982 Y14.536
X38.941 Y14.503
X38.919 Y14.479
X38.901 Y14.455
X38.878 Y14.417
X38.862 Y14.379
X38.85 Y14.341
X38.842 Y14.304
X38.84 Y14.152
Y10.967
X38.841 Y10.815
X38.846 Y10.777
X38.856 Y10.739
X38.872 Y10.701
X38.894 Y10.663
X38.91 Y10.641
X38.93 Y10.618
X38.982 Y10.573
X39.083 Y10.512
X41.973 Y8.843
X42.012 Y8.824
X42.05 Y8.811
X42.088 Y8.803
X42.126 Y8.8
X42.164 Y8.802
X42.196 Y8.806
X42.229 Y8.815
X42.261 Y8.827
X42.293 Y8.843
X45.271 Y10.562
X45.308 Y10.589
X45.346 Y10.625
X45.375 Y10.663
X45.396 Y10.701
X45.411 Y10.739
X45.421 Y10.777
X45.426 Y10.815
Y11.422
Y11.988
G3 X45.129 Y12.294 I-0.317 J-0.011
G1 X45.109 Z-7.999
X45.056 Y12.281 Z-7.991
X45.004 Y12.268 Z-7.973
X44.957 Y12.256 Z-7.946
X44.922 Y12.225 Z-7.906
X44.892 Y12.199 Z-7.858
X44.871 Y12.18 Z-7.803
X44.857 Y12.168 Z-7.744
X44.853 Y12.165 Z-7.683
Z5
X41.217 Y11.304
Z-7.5
G3 X43.586 Y12.013 Z-7.6 I0.917 J1.25 F500
X42.258 Y14.096 Z-7.7 I-1.451 J0.54
X40.618 Y12.252 Z-7.8 I-0.123 J-1.542
X42.838 Y11.18 Z-7.9 I1.515 J0.303
X43.263 Y13.605 Z-8 I-0.704 J1.373
X40.816 Y13.351 Z-8.1 I-1.127 J-1.051
X41.728 Y11.07 Z-8.2 I1.318 J-0.797
X43.671 Y12.568 Z-8.3 I0.406 J1.483
X41.702 Y14.027 Z-8.4 I-1.536 J-0.015
X40.837 Y11.736 Z-8.5 I0.433 J-1.472
X43.274 Y11.53 Z-8.6 I1.296 J0.818
X42.807 Y13.928 Z-8.7 I-1.139 J1.022
X40.63 Y12.825 Z-8.8 I-0.672 J-1.374
X42.284 Y11.035 Z-8.9 I1.503 J-0.271
X43.553 Y13.112 Z-9 I-0.15 J1.518
X41.211 Y13.765 Z-9.1 I-1.418 J-0.558
X41.222 Y11.336 Z-9.2 I0.923 J-1.21
X43.553 Y12.01 Z-9.3 I0.911 J1.217
X42.27 Y14.065 Z-9.4 I-1.418 J0.543
X40.645 Y12.272 Z-9.5 I-0.135 J-1.511
X42.812 Y11.199 Z-9.6 I1.489 J0.283
X43.251 Y13.574 Z-9.7 I-0.678 J1.353
X40.849 Y13.348 Z-9.8 I-1.115 J-1.02
X41.722 Y11.102 Z-9.9 I1.285 J-0.793
X43.642 Y12.553 Z-10 I0.412 J1.451
X40.625 Y12.553 I-1.508 J0
X43.642 Y12.553 I1.508 J0
G1 X43.644 Y12.637 F1000
X43.876 Y13.262
X43.949 Y13.393
X43.998 Y13.535
X44.025 Y13.683
X44.032 Y13.844
X44.017 Y14.02
X43.976 Y14.208
X43.904 Y14.403
X43.801 Y14.601
X43.662 Y14.798
X43.488 Y14.986
X43.278 Y15.161
X43.033 Y15.314
X42.755 Y15.441
X42.449 Y15.535
X42.119 Y15.589
X41.772 Y15.601
X41.414 Y15.565
X41.054 Y15.48
X40.699 Y15.345
X40.358 Y15.161
X40.039 Y14.929
X39.749 Y14.654
X39.494 Y14.339
X39.281 Y13.99
X39.115 Y13.613
X38.999 Y13.215
X38.937 Y12.803
X38.929 Y12.384
X38.976 Y11.967
X39.078 Y11.559
X39.233 Y11.167
X39.439 Y10.799
X39.692 Y10.46
X39.987 Y10.157
X40.32 Y9.895
X40.685 Y9.68
X41.075 Y9.514
X41.484 Y9.401
X41.904 Y9.343
X42.328 Y9.34
X42.749 Y9.394
X43.16 Y9.502
X43.552 Y9.664
X43.92 Y9.875
X44.257 Y10.134
X44.557 Y10.434
X44.815 Y10.772
X45.147 Y11.351
X45.393 Y11.845
X45.411 Y11.89
X45.422 Y11.938
X45.426 Y11.987
Y14.152
X45.424 Y14.304
X45.417 Y14.341
X45.404 Y14.379
X45.388 Y14.417
X45.365 Y14.455
X45.346 Y14.48
X45.308 Y14.517
X45.271 Y14.545
X42.316 Y16.251
X42.271 Y16.275
X42.245 Y16.287
X42.218 Y16.295
X42.164 Y16.305
X42.126 Y16.307
X42.088 Y16.304
X42.05 Y16.296
X42.012 Y16.283
X41.995 Y16.275
X41.73 Y16.124
X39.103 Y14.607
X38.982 Y14.536
X38.941 Y14.503
X38.919 Y14.479
X38.901 Y14.455
X38.878 Y14.417
X38.862 Y14.379
X38.85 Y14.341
X38.842 Y14.304
X38.84 Y14.152
Y10.967
X38.841 Y10.815
X38.846 Y10.777
X38.856 Y10.739
X38.872 Y10.701
X38.894 Y10.663
X38.91 Y10.641
X38.93 Y10.618
X38.982 Y10.573
X39.083 Y10.512
X41.973 Y8.843
X42.012 Y8.824
X42.05 Y8.811
X42.088 Y8.803
X42.126 Y8.8
X42.164 Y8.802
X42.196 Y8.806
X42.229 Y8.815
X42.261 Y8.827
X42.293 Y8.843
X45.271 Y10.562
X45.308 Y10.589
X45.346 Y10.625
X45.375 Y10.663
X45.396 Y10.701
X45.411 Y10.739
X45.421 Y10.777
X45.426 Y10.815
Y11.422
Y11.987
G3 X45.129 Y12.293 I-0.317 J-0.011
G1 X45.109 Z-9.999
X45.056 Y12.28 Z-9.991
X45.004 Y12.267 Z-9.973
X44.957 Y12.255 Z-9.946
X44.922 Y12.223 Z-9.906
X44.892 Y12.198 Z-9.858
X44.871 Y12.179 Z-9.803
X44.857 Y12.167 Z-9.744
X44.853 Y12.163 Z-9.683
Z5
X53.128 Y11.304
Z0.5
G3 X55.497 Y12.013 Z0.4 I0.917 J1.25 F500
X54.169 Y14.096 Z0.3 I-1.451 J0.54
X52.53 Y12.252 Z0.2 I-0.123 J-1.542
X54.75 Y11.18 Z0.1 I1.515 J0.303
X55.174 Y13.605 Z0 I-0.704 J1.373
X52.728 Y13.351 Z-0.1 I-1.127 J-1.051
X53.639 Y11.07 Z-0.2 I1.318 J-0.797
X55.583 Y12.568 Z-0.3 I0.406 J1.483
X53.613 Y14.027 Z-0.4 I-1.536 J-0.015
X52.748 Y11.736 Z-0.5 I0.433 J-1.472
X55.185 Y11.53 Z-0.6 I1.296 J0.818
X54.718 Y13.928 Z-0.7 I-1.139 J1.022
X52.542 Y12.825 Z-0.8 I-0.672 J-1.374
X54.195 Y11.035 Z-0.9 I1.503 J-0.271
X55.465 Y13.112 Z-1 I-0.15 J1.518
X53.122 Y13.765 Z-1.1 I-1.418 J-0.558
X53.134 Y11.336 Z-1.2 I0.923 J-1.21
X55.465 Y12.01 Z-1.3 I0.911 J1.217
X54.181 Y14.066 Z-1.4 I-1.418 J0.543
X52.556 Y12.272 Z-1.5 I-0.135 J-1.511
X54.723 Y11.2 Z-1.6 I1.489 J0.283
X55.162 Y13.574 Z-1.7 I-0.678 J1.353
X52.761 Y13.348 Z-1.8 I-1.115 J-1.02
X53.633 Y11.102 Z-1.9 I1.285 J-0.793
X55.553 Y12.553 Z-2 I0.412 J1.451
X52.537 Y12.553 I-1.508 J0
X55.553 Y12.553 I1.508 J0
G1 X55.555 Y12.637 F1000
X55.788 Y13.262
X55.861 Y13.393
X55.91 Y13.535
X55.936 Y13.683
X55.944 Y13.844
X55.929 Y14.02
X55.887 Y14.208
X55.816 Y14.403
X55.712 Y14.601
X55.574 Y14.798
X55.399 Y14.986
X55.189 Y15.161
X54.944 Y15.314
X54.667 Y15.441
X54.36 Y15.535
X54.03 Y15.59
X53.683 Y15.601
X53.325 Y15.565
X52.965 Y15.48
X52.61 Y15.345
X52.269 Y15.161
X51.95 Y14.929
X51.66 Y14.654
X51.406 Y14.339
X51.193 Y13.99
X51.027 Y13.613
X50.911 Y13.215
X50.848 Y12.803
X50.84 Y12.384
X50.887 Y11.968
X50.989 Y11.559
X51.145 Y11.167
X51.35 Y10.799
X51.603 Y10.46
X51.899 Y10.157
X52.232 Y9.895
X52.596 Y9.68
X52.987 Y9.514
X53.395 Y9.401
X53.815 Y9.343
X54.24 Y9.34
X54.661 Y9.394
X55.071 Y9.502
X55.464 Y9.664
X55.832 Y9.876
X56.169 Y10.134
X56.469 Y10.435
X56.726 Y10.772
X57.058 Y11.351
X57.304 Y11.845
X57.323 Y11.89
X57.334 Y11.938
X57.338 Y11.987
Y14.152
X57.335 Y14.304
X57.328 Y14.339
X57.318 Y14.374
X57.3 Y14.415
X57.276 Y14.455
X57.252 Y14.486
X57.221 Y14.516
X57.194 Y14.537
X57.166 Y14.554
X54.287 Y16.216
X54.183 Y16.275
X54.135 Y16.294
X54.098 Y16.303
X54.06 Y16.307
X54.022 Y16.306
X53.984 Y16.301
X53.945 Y16.291
X53.906 Y16.275
X53.832 Y16.234
X50.953 Y14.571
X50.883 Y14.526
X50.842 Y14.491
X50.812 Y14.455
X50.802 Y14.44
X50.783 Y14.406
X50.769 Y14.372
X50.759 Y14.338
X50.753 Y14.304
X50.751 Y14.152
Y10.967
X50.752 Y10.815
X50.757 Y10.778
X50.767 Y10.742
X50.781 Y10.705
X50.805 Y10.663
X50.836 Y10.624
X50.879 Y10.584
X50.953 Y10.536
X53.884 Y8.843
X53.934 Y8.82
X53.984 Y8.807
X54.022 Y8.802
X54.06
X54.098 Y8.806
X54.135 Y8.816
X54.17 Y8.828
X54.204 Y8.843
X57.166 Y10.553
X57.194 Y10.572
X57.223 Y10.595
X57.254 Y10.629
X57.279 Y10.663
X57.301 Y10.7
X57.318 Y10.737
X57.329 Y10.776
X57.336 Y10.815
X57.338 Y10.967
Y11.987
G3 X57.04 Y12.292 I-0.317 J-0.011
G1 X57.02 Y12.293 Z-1.999
X56.967 Y12.279 Z-1.991
X56.916 Y12.266 Z-1.973
X56.869 Y12.254 Z-1.946
X56.833 Y12.223 Z-1.906
X56.804 Y12.198 Z-1.858
X56.782 Y12.179 Z-1.803
X56.769 Y12.167 Z-1.744
X56.764 Y12.163 Z-1.683
Z5
X53.127 Y11.304
Z-1.5
G3 X55.497 Y12.013 Z-1.6 I0.917 J1.25 F500
X54.168 Y14.097 Z-1.7 I-1.451 J0.54
X52.529 Y12.252 Z-1.8 I-0.123 J-1.542
X54.749 Y11.18 Z-1.9 I1.515 J0.303
X55.173 Y13.605 Z-2 I-0.704 J1.373
X52.727 Y13.352 Z-2.1 I-1.127 J-1.051
X53.638 Y11.07 Z-2.2 I1.318 J-0.797
X55.582 Y12.568 Z-2.3 I0.406 J1.483
X53.612 Y14.027 Z-2.4 I-1.536 J-0.015
X52.748 Y11.736 Z-2.5 I0.433 J-1.472
X55.184 Y11.531 Z-2.6 I1.296 J0.818
X54.717 Y13.928 Z-2.7 I-1.139 J1.022
X52.541 Y12.825 Z-2.8 I-0.672 J-1.374
X54.194 Y11.035 Z-2.9 I1.503 J-0.271
X55.464 Y13.112 Z-3 I-0.15 J1.518
X53.121 Y13.765 Z-3.1 I-1.418 J-0.558
X53.133 Y11.336 Z-3.2 I0.923 J-1.21
X55.464 Y12.01 Z-3.3 I0.911 J1.217
X54.18 Y14.066 Z-3.4 I-1.418 J0.543
X52.555 Y12.272 Z-3.5 I-0.135 J-1.511
X54.722 Y11.2 Z-3.6 I1.489 J0.283
X55.161 Y13.574 Z-3.7 I-0.678 J1.353
X52.76 Y13.349 Z-3.8 I-1.115 J-1.02
X53.632 Y11.103 Z-3.9 I1.285 J-0.793
X55.552 Y12.553 Z-4 I0.412 J1.451
X52.536 Y12.553 I-1.508 J0
X55.552 Y12.553 I1.508 J0
G1 X55.554 Y12.637 F1000
X55.787 Y13.262
X55.86 Y13.394
X55.909 Y13.535
X55.936 Y13.683
X55.943 Y13.844
X55.928 Y14.02
X55.886 Y14.208
X55.815 Y14.403
X55.711 Y14.602
X55.573 Y14.798
X55.398 Y14.986
X55.188 Y15.161
X54.943 Y15.315
X54.666 Y15.441
X54.36 Y15.535
X54.03 Y15.59
X53.682 Y15.601
X53.324 Y15.565
X52.964 Y15.48
X52.609 Y15.346
X52.268 Y15.161
X51.949 Y14.93
X51.659 Y14.654
X51.405 Y14.339
X51.192 Y13.99
X51.026 Y13.613
X50.91 Y13.215
X50.847 Y12.803
X50.839 Y12.385
X50.887 Y11.968
X50.989 Y11.56
X51.144 Y11.168
X51.349 Y10.799
X51.602 Y10.46
X51.898 Y10.157
X52.231 Y9.896
X52.595 Y9.68
X52.986 Y9.514
X53.394 Y9.401
X53.815 Y9.343
X54.239 Y9.341
X54.66 Y9.394
X55.07 Y9.502
X55.463 Y9.664
X55.831 Y9.876
X56.168 Y10.134
X56.468 Y10.435
X56.726 Y10.772
X57.057 Y11.351
X57.304 Y11.847
X57.323 Y11.892
X57.334 Y11.94
X57.338 Y11.989
Y14.152
X57.335 Y14.304
X57.328 Y14.339
X57.318 Y14.374
X57.3 Y14.415
X57.276 Y14.455
X57.252 Y14.486
X57.221 Y14.516
X57.194 Y14.537
X57.166 Y14.554
X54.287 Y16.216
X54.183 Y16.275
X54.135 Y16.294
X54.098 Y16.303
X54.06 Y16.307
X54.022 Y16.306
X53.984 Y16.301
X53.945 Y16.291
X53.906 Y16.275
X53.832 Y16.234
X50.953 Y14.571
X50.883 Y14.526
X50.842 Y14.491
X50.812 Y14.455
X50.802 Y14.44
X50.783 Y14.406
X50.769 Y14.372
X50.759 Y14.338
X50.753 Y14.304
X50.751 Y14.152
Y10.967
X50.752 Y10.815
X50.757 Y10.778
X50.767 Y10.742
X50.781 Y10.705
X50.805 Y10.663
X50.836 Y10.624
X50.879 Y10.584
X50.953 Y10.536
X53.884 Y8.843
X53.934 Y8.82
X53.984 Y8.807
X54.022 Y8.802
X54.06
X54.098 Y8.806
X54.135 Y8.816
X54.17 Y8.828
X54.204 Y8.843
X57.166 Y10.553
X57.194 Y10.572
X57.223 Y10.595
X57.254 Y10.629
X57.279 Y10.663
X57.301 Y10.7
X57.318 Y10.737
X57.329 Y10.776
X57.336 Y10.815
X57.338 Y10.967
Y11.989
G3 X57.04 Y12.294 I-0.317 J-0.011
G1 X57.02 Y12.295 Z-3.999
X56.967 Y12.281 Z-3.991
X56.916 Y12.268 Z-3.973
X56.869 Y12.256 Z-3.946
X56.833 Y12.225 Z-3.906
X56.804 Y12.2 Z-3.858
X56.782 Y12.181 Z-3.803
X56.769 Y12.169 Z-3.744
X56.764 Y12.165 Z-3.683
Z5
X53.128 Y11.304
Z-3.5
G3 X55.497 Y12.013 Z-3.6 I0.917 J1.25 F500
X54.169 Y14.096 Z-3.7 I-1.451 J0.54
X52.53 Y12.252 Z-3.8 I-0.123 J-1.542
X54.749 Y11.18 Z-3.9 I1.515 J0.303
X55.174 Y13.605 Z-4 I-0.704 J1.373
X52.728 Y13.352 Z-4.1 I-1.127 J-1.051
X53.639 Y11.07 Z-4.2 I1.318 J-0.797
X55.582 Y12.568 Z-4.3 I0.406 J1.483
X53.613 Y14.027 Z-4.4 I-1.536 J-0.015
X52.748 Y11.736 Z-4.5 I0.433 J-1.472
X55.185 Y11.53 Z-4.6 I1.296 J0.818
X54.718 Y13.928 Z-4.7 I-1.139 J1.022
X52.542 Y12.825 Z-4.8 I-0.672 J-1.374
X54.195 Y11.035 Z-4.9 I1.503 J-0.271
X55.464 Y13.112 Z-5 I-0.15 J1.518
X53.122 Y13.765 Z-5.1 I-1.418 J-0.558
X53.134 Y11.336 Z-5.2 I0.923 J-1.21
X55.464 Y12.01 Z-5.3 I0.911 J1.217
X54.181 Y14.066 Z-5.4 I-1.418 J0.543
X52.556 Y12.272 Z-5.5 I-0.135 J-1.511
X54.723 Y11.2 Z-5.6 I1.489 J0.283
X55.162 Y13.574 Z-5.7 I-0.678 J1.353
X52.76 Y13.348 Z-5.8 I-1.115 J-1.02
X53.633 Y11.103 Z-5.9 I1.285 J-0.793
X55.553 Y12.553 Z-6 I0.412 J1.451
X52.536 Y12.553 I-1.508 J0
X55.553 Y12.553 I1.508 J0
G1 X55.555 Y12.637 F1000
X55.788 Y13.262
X55.86 Y13.393
X55.909 Y13.535
X55.936 Y13.683
X55.944 Y13.844
X55.929 Y14.02
X55.887 Y14.208
X55.816 Y14.403
X55.712 Y14.602
X55.573 Y14.798
X55.399 Y14.986
X55.189 Y15.161
X54.944 Y15.315
X54.666 Y15.441
X54.36 Y15.535
X54.03 Y15.59
X53.683 Y15.601
X53.325 Y15.565
X52.965 Y15.48
X52.61 Y15.345
X52.269 Y15.161
X51.95 Y14.93
X51.66 Y14.654
X51.405 Y14.339
X51.193 Y13.99
X51.027 Y13.613
X50.911 Y13.215
X50.848 Y12.803
X50.84 Y12.385
X50.887 Y11.968
X50.989 Y11.56
X51.144 Y11.168
X51.35 Y10.799
X51.603 Y10.46
X51.898 Y10.157
X52.231 Y9.896
X52.596 Y9.68
X52.986 Y9.514
X53.395 Y9.401
X53.815 Y9.343
X54.24 Y9.34
X54.661 Y9.394
X55.071 Y9.502
X55.464 Y9.664
X55.832 Y9.876
X56.168 Y10.134
X56.468 Y10.435
X56.726 Y10.772
X57.058 Y11.351
X57.304 Y11.846
X57.323 Y11.891
X57.334 Y11.938
X57.338 Y11.987
Y14.152
X57.335 Y14.304
X57.328 Y14.339
X57.318 Y14.374
X57.3 Y14.415
X57.276 Y14.455
X57.252 Y14.486
X57.221 Y14.516
X57.194 Y14.537
X57.166 Y14.554
X54.287 Y16.216
X54.183 Y16.275
X54.135 Y16.294
X54.098 Y16.303
X54.06 Y16.307
X54.022 Y16.306
X53.984 Y16.301
X53.945 Y16.291
X53.906 Y16.275
X53.832 Y16.234
X50.953 Y14.571
X50.883 Y14.526
X50.842 Y14.491
X50.812 Y14.455
X50.802 Y14.44
X50.783 Y14.406
X50.769 Y14.372
X50.759 Y14.338
X50.753 Y14.304
X50.751 Y14.152
Y10.967
X50.752 Y10.815
X50.757 Y10.778
X50.767 Y10.742
X50.781 Y10.705
X50.805 Y10.663
X50.836 Y10.624
X50.879 Y10.584
X50.953 Y10.536
X53.884 Y8.843
X53.934 Y8.82
X53.984 Y8.807
X54.022 Y8.802
X54.06
X54.098 Y8.806
X54.135 Y8.816
X54.17 Y8.828
X54.204 Y8.843
X57.166 Y10.553
X57.194 Y10.572
X57.223 Y10.595
X57.254 Y10.629
X57.279 Y10.663
X57.301 Y10.7
X57.318 Y10.737
X57.329 Y10.776
X57.336 Y10.815
X57.338 Y10.967
Y11.987
G3 X57.04 Y12.293 I-0.317 J-0.011
G1 X57.02 Y12.294 Z-5.999
X56.967 Y12.28 Z-5.991
X56.916 Y12.267 Z-5.973
X56.869 Y12.255 Z-5.946
X56.833 Y12.224 Z-5.906
X56.804 Y12.198 Z-5.858
X56.782 Y12.179 Z-5.803
X56.769 Y12.168 Z-5.744
X56.764 Y12.164 Z-5.683
Z5
X53.127 Y11.304
Z-5.5
G3 X55.497 Y12.013 Z-5.6 I0.917 J1.25 F500
X54.169 Y14.096 Z-5.7 I-1.451 J0.54
X52.529 Y12.252 Z-5.8 I-0.123 J-1.542
X54.749 Y11.18 Z-5.9 I1.515 J0.303
X55.174 Y13.605 Z-6 I-0.704 J1.373
X52.727 Y13.352 Z-6.1 I-1.127 J-1.051
X53.638 Y11.07 Z-6.2 I1.318 J-0.797
X55.582 Y12.568 Z-6.3 I0.406 J1.483
X53.612 Y14.027 Z-6.4 I-1.536 J-0.015
X52.748 Y11.736 Z-6.5 I0.433 J-1.472
X55.185 Y11.53 Z-6.6 I1.296 J0.818
X54.718 Y13.928 Z-6.7 I-1.139 J1.022
X52.541 Y12.825 Z-6.8 I-0.672 J-1.374
X54.195 Y11.035 Z-6.9 I1.503 J-0.271
X55.464 Y13.112 Z-7 I-0.15 J1.518
X53.122 Y13.765 Z-7.1 I-1.418 J-0.558
X53.133 Y11.336 Z-7.2 I0.923 J-1.21
X55.464 Y12.01 Z-7.3 I0.911 J1.217
X54.181 Y14.066 Z-7.4 I-1.418 J0.543
X52.556 Y12.272 Z-7.5 I-0.135 J-1.511
X54.722 Y11.2 Z-7.6 I1.489 J0.283
X55.162 Y13.574 Z-7.7 I-0.678 J1.353
X52.76 Y13.348 Z-7.8 I-1.115 J-1.02
X53.632 Y11.102 Z-7.9 I1.285 J-0.793
X55.552 Y12.553 Z-8 I0.412 J1.451
X52.536 Y12.553 I-1.508 J0
X55.552 Y12.553 I1.508 J0
G1 X55.555 Y12.637 F1000
X55.787 Y13.262
X55.86 Y13.393
X55.909 Y13.535
X55.936 Y13.683
X55.943 Y13.844
X55.928 Y14.02
X55.886 Y14.208
X55.815 Y14.403
X55.711 Y14.601
X55.573 Y14.798
X55.399 Y14.986
X55.188 Y15.161
X54.943 Y15.315
X54.666 Y15.441
X54.36 Y15.535
X54.03 Y15.59
X53.682 Y15.601
X53.325 Y15.565
X52.964 Y15.48
X52.61 Y15.345
X52.269 Y15.161
X51.949 Y14.929
X51.659 Y14.654
X51.405 Y14.339
X51.192 Y13.99
X51.026 Y13.613
X50.91 Y13.215
X50.847 Y12.803
X50.839 Y12.385
X50.887 Y11.968
X50.989 Y11.559
X51.144 Y11.168
X51.35 Y10.799
X51.602 Y10.46
X51.898 Y10.157
X52.231 Y9.896
X52.596 Y9.68
X52.986 Y9.514
X53.395 Y9.401
X53.815 Y9.343
X54.239 Y9.34
X54.66 Y9.394
X55.071 Y9.502
X55.463 Y9.664
X55.831 Y9.876
X56.168 Y10.134
X56.468 Y10.435
X56.726 Y10.772
X57.058 Y11.351
X57.304 Y11.847
X57.323 Y11.892
X57.334 Y11.939
X57.338 Y11.988
Y14.152
X57.335 Y14.304
X57.328 Y14.339
X57.318 Y14.374
X57.3 Y14.415
X57.276 Y14.455
X57.252 Y14.486
X57.221 Y14.516
X57.194 Y14.537
X57.166 Y14.554
X54.287 Y16.216
X54.183 Y16.275
X54.135 Y16.294
X54.098 Y16.303
X54.06 Y16.307
X54.022 Y16.306
X53.984 Y16.301
X53.945 Y16.291
X53.906 Y16.275
X53.832 Y16.234
X50.953 Y14.571
X50.883 Y14.526
X50.842 Y14.491
X50.812 Y14.455
X50.802 Y14.44
X50.783 Y14.406
X50.769 Y14.372
X50.759 Y14.338
X50.753 Y14.304
X50.751 Y14.152
Y10.967
X50.752 Y10.815
X50.757 Y10.778
X50.767 Y10.742
X50.781 Y10.705
X50.805 Y10.663
X50.836 Y10.624
X50.879 Y10.584
X50.953 Y10.536
X53.884 Y8.843
X53.934 Y8.82
X53.984 Y8.807
X54.022 Y8.802
X54.06
X54.098 Y8.806
X54.135 Y8.816
X54.17 Y8.828
X54.204 Y8.843
X57.166 Y10.553
X57.194 Y10.572
X57.223 Y10.595
X57.254 Y10.629
X57.279 Y10.663
X57.301 Y10.7
X57.318 Y10.737
X57.329 Y10.776
X57.336 Y10.815
X57.338 Y10.967
Y11.988
G3 X57.04 Y12.294 I-0.317 J-0.011
G1 X57.02 Z-7.999
X56.967 Y12.281 Z-7.991
X56.916 Y12.268 Z-7.973
X56.869 Y12.256 Z-7.946
X56.833 Y12.225 Z-7.906
X56.804 Y12.199 Z-7.858
X56.782 Y12.18 Z-7.803
X56.769 Y12.169 Z-7.744
X56.764 Y12.165 Z-7.683
Z5
X53.127 Y11.303
Z-7.5
G3 X55.496 Y12.013 Z-7.6 I0.917 J1.25 F500
X54.168 Y14.096 Z-7.7 I-1.451 J0.54
X52.528 Y12.252 Z-7.8 I-0.123 J-1.542
X54.748 Y11.179 Z-7.9 I1.515 J0.303
X55.173 Y13.605 Z-8 I-0.704 J1.373
X52.726 Y13.351 Z-8.1 I-1.127 J-1.051
X53.638 Y11.07 Z-8.2 I1.318 J-0.797
X55.581 Y12.568 Z-8.3 I0.406 J1.483
X53.612 Y14.027 Z-8.4 I-1.536 J-0.015
X52.747 Y11.736 Z-8.5 I0.433 J-1.472
X55.184 Y11.53 Z-8.6 I1.296 J0.818
X54.717 Y13.928 Z-8.7 I-1.139 J1.022
X52.54 Y12.825 Z-8.8 I-0.672 J-1.374
X54.194 Y11.035 Z-8.9 I1.503 J-0.271
X55.463 Y13.112 Z-9 I-0.15 J1.518
X53.121 Y13.765 Z-9.1 I-1.418 J-0.558
X53.133 Y11.336 Z-9.2 I0.923 J-1.21
X55.463 Y12.01 Z-9.3 I0.911 J1.217
X54.18 Y14.065 Z-9.4 I-1.418 J0.543
X52.555 Y12.272 Z-9.5 I-0.135 J-1.511
X54.722 Y11.199 Z-9.6 I1.489 J0.283
X55.161 Y13.574 Z-9.7 I-0.678 J1.353
X52.759 Y13.348 Z-9.8 I-1.115 J-1.02
X53.632 Y11.102 Z-9.9 I1.285 J-0.793
X55.552 Y12.553 Z-10 I0.412 J1.451
X52.535 Y12.553 I-1.508 J0
X55.552 Y12.553 I1.508 J0
G1 X55.554 Y12.636 F1000
X55.786 Y13.262
X55.859 Y13.393
X55.908 Y13.535
X55.935 Y13.682
X55.943 Y13.844
X55.927 Y14.02
X55.886 Y14.208
X55.814 Y14.403
X55.711 Y14.601
X55.572 Y14.798
X55.398 Y14.986
X55.188 Y15.16
X54.943 Y15.314
X54.665 Y15.441
X54.359 Y15.535
X54.029 Y15.589
X53.682 Y15.601
X53.324 Y15.565
X52.964 Y15.48
X52.609 Y15.345
X52.268 Y15.161
X51.949 Y14.929
X51.659 Y14.654
X51.404 Y14.339
X51.192 Y13.989
X51.025 Y13.613
X50.91 Y13.214
X50.847 Y12.803
X50.839 Y12.384
X50.886 Y11.967
X50.988 Y11.559
X51.143 Y11.167
X51.349 Y10.799
X51.602 Y10.46
X51.897 Y10.157
X52.23 Y9.895
X52.595 Y9.68
X52.985 Y9.514
X53.394 Y9.401
X53.814 Y9.343
X54.238 Y9.34
X54.659 Y9.394
X55.07 Y9.502
X55.462 Y9.664
X55.83 Y9.875
X56.167 Y10.134
X56.467 Y10.434
X56.725 Y10.772
X57.057 Y11.351
X57.304 Y11.848
X57.323 Y11.893
X57.334 Y11.94
X57.338 Y11.989
Y14.152
X57.335 Y14.304
X57.328 Y14.339
X57.318 Y14.374
X57.3 Y14.415
X57.276 Y14.455
X57.252 Y14.486
X57.221 Y14.516
X57.194 Y14.537
X57.166 Y14.554
X54.287 Y16.216
X54.183 Y16.275
X54.135 Y16.294
X54.098 Y16.303
X54.06 Y16.307
X54.022 Y16.306
X53.984 Y16.301
X53.945 Y16.291
X53.906 Y16.275
X53.832 Y16.234
X50.953 Y14.571
X50.883 Y14.526
X50.842 Y14.491
X50.812 Y14.455
X50.802 Y14.44
X50.783 Y14.406
X50.769 Y14.372
X50.759 Y14.338
X50.753 Y14.304
X50.751 Y14.152
Y10.967
X50.752 Y10.815
X50.757 Y10.778
X50.767 Y10.742
X50.781 Y10.705
X50.805 Y10.663
X50.836 Y10.624
X50.879 Y10.584
X50.953 Y10.536
X53.884 Y8.843
X53.934 Y8.82
X53.984 Y8.807
X54.022 Y8.802
X54.06
X54.098 Y8.806
X54.135 Y8.816
X54.17 Y8.828
X54.204 Y8.843
X57.166 Y10.553
X57.194 Y10.572
X57.223 Y10.595
X57.254 Y10.629
X57.279 Y10.663
X57.301 Y10.7
X57.318 Y10.737
X57.329 Y10.776
X57.336 Y10.815
X57.338 Y10.967
Y11.989
G3 X57.04 Y12.295 I-0.317 J-0.011
G1 X57.02 Y12.296 Z-9.999
X56.967 Y12.282 Z-9.991
X56.916 Y12.269 Z-9.973
X56.869 Y12.257 Z-9.946
X56.833 Y12.226 Z-9.906
X56.804 Y12.2 Z-9.858
X56.782 Y12.181 Z-9.803
X56.769 Y12.17 Z-9.744
X56.764 Y12.166 Z-9.683
Z5
X65.039 Y11.303
Z0.5
G3 X67.408 Y12.012 Z0.4 I0.917 J1.25 F500
X66.08 Y14.096 Z0.3 I-1.451 J0.54
X64.441 Y12.251 Z0.2 I-0.123 J-1.542
X66.66 Y11.179 Z0.1 I1.515 J0.303
X67.085 Y13.604 Z0 I-0.704 J1.373
X64.639 Y13.351 Z-0.1 I-1.127 J-1.051
X65.55 Y11.069 Z-0.2 I1.318 J-0.797
X67.493 Y12.567 Z-0.3 I0.406 J1.483
X65.524 Y14.026 Z-0.4 I-1.536 J-0.015
X64.659 Y11.736 Z-0.5 I0.433 J-1.472
X67.096 Y11.53 Z-0.6 I1.296 J0.818
X66.629 Y13.928 Z-0.7 I-1.139 J1.022
X64.452 Y12.825 Z-0.8 I-0.672 J-1.374
X66.106 Y11.034 Z-0.9 I1.503 J-0.271
X67.375 Y13.111 Z-1 I-0.15 J1.518
X65.033 Y13.764 Z-1.1 I-1.418 J-0.558
X65.045 Y11.336 Z-1.2 I0.923 J-1.21
X67.375 Y12.009 Z-1.3 I0.911 J1.217
X66.092 Y14.065 Z-1.4 I-1.418 J0.543
X64.467 Y12.271 Z-1.5 I-0.135 J-1.511
X66.634 Y11.199 Z-1.6 I1.489 J0.283
X67.073 Y13.574 Z-1.7 I-0.678 J1.353
X64.671 Y13.348 Z-1.8 I-1.115 J-1.02
X65.544 Y11.102 Z-1.9 I1.285 J-0.793
X67.464 Y12.553 Z-2 I0.412 J1.451
X64.447 Y12.553 I-1.508 J0
X67.464 Y12.553 I1.508 J0
G1 X67.466 Y12.636 F1000
X67.698 Y13.262
X67.771 Y13.393
X67.82 Y13.534
X67.847 Y13.682
X67.855 Y13.844
X67.839 Y14.02
X67.798 Y14.207
X67.727 Y14.402
X67.623 Y14.601
X67.484 Y14.797
X67.31 Y14.986
X67.1 Y15.16
X66.855 Y15.314
X66.577 Y15.441
X66.271 Y15.534
X65.941 Y15.589
X65.594 Y15.6
X65.236 Y15.565
X64.876 Y15.48
X64.521 Y15.345
X64.18 Y15.16
X63.861 Y14.929
X63.571 Y14.653
X63.316 Y14.338
X63.104 Y13.989
X62.937 Y13.612
X62.822 Y13.214
X62.759 Y12.802
X62.751 Y12.384
X62.798 Y11.967
X62.9 Y11.559
X63.055 Y11.167
X63.261 Y10.798
X63.514 Y10.459
X63.809 Y10.156
X64.142 Y9.895
X64.507 Y9.679
X64.897 Y9.513
X65.306 Y9.4
X65.726 Y9.342
X66.151 Y9.34
X66.572 Y9.393
X66.982 Y9.502
X67.375 Y9.663
X67.742 Y9.875
X68.079 Y10.133
X68.379 Y10.434
X68.637 Y10.771
X68.969 Y11.35
X69.216 Y11.846
X69.234 Y11.891
X69.245 Y11.938
X69.249 Y11.987
Y14.152
X69.247 Y14.304
X69.241 Y14.341
X69.23 Y14.379
X69.213 Y14.417
X69.19 Y14.455
X69.167 Y14.484
X69.138 Y14.512
X69.1 Y14.54
X68.985 Y14.607
X66.107 Y16.269
X66.094 Y16.275
X66.059 Y16.29
X66.025 Y16.299
X65.99 Y16.305
X65.955 Y16.307
X65.921 Y16.305
X65.886 Y16.299
X65.852 Y16.29
X65.817 Y16.275
X65.804 Y16.268
X62.811 Y14.54
X62.773 Y14.512
X62.745 Y14.483
X62.722 Y14.455
X62.699 Y14.417
X62.683 Y14.379
X62.672 Y14.341
X62.665 Y14.304
X62.662 Y14.152
Y10.967
X62.664 Y10.815
X62.67 Y10.777
X62.682 Y10.739
X62.698 Y10.701
X62.721 Y10.663
X62.743 Y10.631
X62.773 Y10.599
X62.806 Y10.571
X62.839 Y10.55
X65.804 Y8.839
X65.842 Y8.822
X65.88 Y8.811
X65.917 Y8.805
X65.955 Y8.803
X65.993 Y8.806
X66.031 Y8.813
X66.069 Y8.823
X66.107 Y8.839
X66.713 Y9.188
X69.072 Y10.55
X69.105 Y10.571
X69.138 Y10.596
X69.171 Y10.63
X69.197 Y10.663
X69.218 Y10.701
X69.233 Y10.739
X69.243 Y10.777
X69.248 Y10.815
X69.249 Y11.118
Y11.987
G3 X68.951 Y12.293 I-0.317 J-0.011
G1 X68.931 Y12.294 Z-1.999
X68.878 Y12.28 Z-1.991
X68.827 Y12.267 Z-1.973
X68.78 Y12.255 Z-1.946
X68.744 Y12.224 Z-1.906
X68.715 Y12.198 Z-1.858
X68.693 Y12.179 Z-1.803
X68.68 Y12.168 Z-1.744
X68.676 Y12.164 Z-1.683
Z5
X65.039 Y11.304
Z-1.5
G3 X67.409 Y12.013 Z-1.6 I0.917 J1.25 F500
X66.081 Y14.096 Z-1.7 I-1.451 J0.54
X64.441 Y12.252 Z-1.8 I-0.123 J-1.542
X66.661 Y11.18 Z-1.9 I1.515 J0.303
X67.086 Y13.605 Z-2 I-0.704 J1.373
X64.639 Y13.351 Z-2.1 I-1.127 J-1.051
X65.55 Y11.07 Z-2.2 I1.318 J-0.797
X67.494 Y12.568 Z-2.3 I0.406 J1.483
X65.524 Y14.027 Z-2.4 I-1.536 J-0.015
X64.66 Y11.736 Z-2.5 I0.433 J-1.472
X67.097 Y11.53 Z-2.6 I1.296 J0.818
X66.63 Y13.928 Z-2.7 I-1.139 J1.022
X64.453 Y12.825 Z-2.8 I-0.672 J-1.374
X66.107 Y11.035 Z-2.9 I1.503 J-0.271
X67.376 Y13.112 Z-3 I-0.15 J1.518
X65.034 Y13.765 Z-3.1 I-1.418 J-0.558
X65.045 Y11.336 Z-3.2 I0.923 J-1.21
X67.376 Y12.01 Z-3.3 I0.911 J1.217
X66.093 Y14.066 Z-3.4 I-1.418 J0.543
X64.468 Y12.272 Z-3.5 I-0.135 J-1.511
X66.634 Y11.2 Z-3.6 I1.489 J0.283
X67.074 Y13.574 Z-3.7 I-0.678 J1.353
X64.672 Y13.348 Z-3.8 I-1.115 J-1.02
X65.544 Y11.102 Z-3.9 I1.285 J-0.793
X67.464 Y12.553 Z-4 I0.412 J1.451
X64.448 Y12.553 I-1.508 J0
X67.464 Y12.553 I1.508 J0
G1 X67.467 Y12.637 F1000
X67.699 Y13.262
X67.772 Y13.393
X67.821 Y13.535
X67.848 Y13.683
X67.855 Y13.844
X67.84 Y14.02
X67.799 Y14.208
X67.727 Y14.403
X67.623 Y14.601
X67.485 Y14.798
X67.311 Y14.986
X67.101 Y15.161
X66.855 Y15.314
X66.578 Y15.441
X66.272 Y15.535
X65.942 Y15.589
X65.594 Y15.601
X65.237 Y15.565
X64.876 Y15.48
X64.522 Y15.345
X64.181 Y15.161
X63.861 Y14.929
X63.571 Y14.654
X63.317 Y14.339
X63.104 Y13.99
X62.938 Y13.613
X62.822 Y13.215
X62.76 Y12.803
X62.752 Y12.384
X62.799 Y11.967
X62.901 Y11.559
X63.056 Y11.167
X63.262 Y10.799
X63.514 Y10.46
X63.81 Y10.157
X64.143 Y9.895
X64.508 Y9.68
X64.898 Y9.514
X65.307 Y9.401
X65.727 Y9.343
X66.151 Y9.34
X66.572 Y9.394
X66.983 Y9.502
X67.375 Y9.664
X67.743 Y9.876
X68.08 Y10.134
X68.38 Y10.434
X68.638 Y10.772
X68.97 Y11.351
X69.216 Y11.845
X69.234 Y11.89
X69.245 Y11.938
X69.249 Y11.986
Y14.152
X69.247 Y14.304
X69.241 Y14.341
X69.23 Y14.379
X69.213 Y14.417
X69.19 Y14.455
X69.167 Y14.484
X69.138 Y14.512
X69.1 Y14.54
X68.985 Y14.607
X66.107 Y16.269
X66.094 Y16.275
X66.059 Y16.29
X66.025 Y16.299
X65.99 Y16.305
X65.955 Y16.307
X65.921 Y16.305
X65.886 Y16.299
X65.852 Y16.29
X65.817 Y16.275
X65.804 Y16.268
X62.811 Y14.54
X62.773 Y14.512
X62.745 Y14.483
X62.722 Y14.455
X62.699 Y14.417
X62.683 Y14.379
X62.672 Y14.341
X62.665 Y14.304
X62.662 Y14.152
Y10.967
X62.664 Y10.815
X62.67 Y10.777
X62.682 Y10.739
X62.698 Y10.701
X62.721 Y10.663
X62.743 Y10.631
X62.773 Y10.599
X62.806 Y10.571
X62.839 Y10.55
X65.804 Y8.839
X65.842 Y8.822
X65.88 Y8.811
X65.917 Y8.805
X65.955 Y8.803
X65.993 Y8.806
X66.031 Y8.813
X66.069 Y8.823
X66.107 Y8.839
X66.713 Y9.188
X69.072 Y10.55
X69.105 Y10.571
X69.138 Y10.596
X69.171 Y10.63
X69.197 Y10.663
X69.218 Y10.701
X69.233 Y10.739
X69.243 Y10.777
X69.248 Y10.815
X69.249 Y11.118
Y11.986
G3 X68.951 Y12.292 I-0.317 J-0.011
G1 X68.931 Y12.293 Z-3.999
X68.878 Y12.279 Z-3.991
X68.827 Y12.266 Z-3.973
X68.78 Y12.254 Z-3.946
X68.744 Y12.223 Z-3.906
X68.715 Y12.198 Z-3.858
X68.693 Y12.179 Z-3.803
X68.68 Y12.167 Z-3.744
X68.676 Y12.163 Z-3.683
Z5
X65.038 Y11.304
Z-3.5
G3 X67.408 Y12.013 Z-3.6 I0.917 J1.25 F500
X66.08 Y14.096 Z-3.7 I-1.451 J0.54
X64.44 Y12.252 Z-3.8 I-0.123 J-1.542
X66.66 Y11.18 Z-3.9 I1.515 J0.303
X67.085 Y13.605 Z-4 I-0.704 J1.373
X64.638 Y13.351 Z-4.1 I-1.127 J-1.051
X65.549 Y11.07 Z-4.2 I1.318 J-0.797
X67.493 Y12.568 Z-4.3 I0.406 J1.483
X65.524 Y14.027 Z-4.4 I-1.536 J-0.015
X64.659 Y11.736 Z-4.5 I0.433 J-1.472
X67.096 Y11.53 Z-4.6 I1.296 J0.818
X66.629 Y13.928 Z-4.7 I-1.139 J1.022
X64.452 Y12.825 Z-4.8 I-0.672 J-1.374
X66.106 Y11.035 Z-4.9 I1.503 J-0.271
X67.375 Y13.112 Z-5 I-0.15 J1.518
X65.033 Y13.765 Z-5.1 I-1.418 J-0.558
X65.044 Y11.336 Z-5.2 I0.923 J-1.21
X67.375 Y12.01 Z-5.3 I0.911 J1.217
X66.092 Y14.065 Z-5.4 I-1.418 J0.543
X64.467 Y12.272 Z-5.5 I-0.135 J-1.511
X66.634 Y11.199 Z-5.6 I1.489 J0.283
X67.073 Y13.574 Z-5.7 I-0.678 J1.353
X64.671 Y13.348 Z-5.8 I-1.115 J-1.02
X65.543 Y11.102 Z-5.9 I1.285 J-0.793
X67.464 Y12.553 Z-6 I0.412 J1.451
X64.447 Y12.553 I-1.508 J0
X67.464 Y12.553 I1.508 J0
G1 X67.466 Y12.636 F1000
X67.698 Y13.262
X67.771 Y13.393
X67.82 Y13.535
X67.847 Y13.683
X67.854 Y13.844
X67.839 Y14.02
X67.798 Y14.208
X67.726 Y14.403
X67.623 Y14.601
X67.484 Y14.798
X67.31 Y14.986
X67.1 Y15.16
X66.855 Y15.314
X66.577 Y15.441
X66.271 Y15.535
X65.941 Y15.589
X65.594 Y15.601
X65.236 Y15.565
X64.876 Y15.48
X64.521 Y15.345
X64.18 Y15.161
X63.861 Y14.929
X63.57 Y14.654
X63.316 Y14.339
X63.103 Y13.99
X62.937 Y13.613
X62.821 Y13.214
X62.759 Y12.803
X62.751 Y12.384
X62.798 Y11.967
X62.9 Y11.559
X63.055 Y11.167
X63.261 Y10.799
X63.514 Y10.46
X63.809 Y10.157
X64.142 Y9.895
X64.507 Y9.68
X64.897 Y9.514
X65.306 Y9.401
X65.726 Y9.343
X66.15 Y9.34
X66.571 Y9.394
X66.982 Y9.502
X67.374 Y9.664
X67.742 Y9.875
X68.079 Y10.134
X68.379 Y10.434
X68.637 Y10.772
X68.969 Y11.351
X69.216 Y11.847
X69.234 Y11.892
X69.245 Y11.939
X69.249 Y11.988
Y14.152
X69.247 Y14.304
X69.241 Y14.341
X69.23 Y14.379
X69.213 Y14.417
X69.19 Y14.455
X69.167 Y14.484
X69.138 Y14.512
X69.1 Y14.54
X68.985 Y14.607
X66.107 Y16.269
X66.094 Y16.275
X66.059 Y16.29
X66.025 Y16.299
X65.99 Y16.305
X65.955 Y16.307
X65.921 Y16.305
X65.886 Y16.299
X65.852 Y16.29
X65.817 Y16.275
X65.804 Y16.268
X62.811 Y14.54
X62.773 Y14.512
X62.745 Y14.483
X62.722 Y14.455
X62.699 Y14.417
X62.683 Y14.379
X62.672 Y14.341
X62.665 Y14.304
X62.662 Y14.152
Y10.967
X62.664 Y10.815
X62.67 Y10.777
X62.682 Y10.739
X62.698 Y10.701
X62.721 Y10.663
X62.743 Y10.631
X62.773 Y10.599
X62.806 Y10.571
X62.839 Y10.55
X65.804 Y8.839
X65.842 Y8.822
X65.88 Y8.811
X65.917 Y8.805
X65.955 Y8.803
X65.993 Y8.806
X66.031 Y8.813
X66.069 Y8.823
X66.107 Y8.839
X66.713 Y9.188
X69.072 Y10.55
X69.105 Y10.571
X69.138 Y10.596
X69.171 Y10.63
X69.197 Y10.663
X69.218 Y10.701
X69.233 Y10.739
X69.243 Y10.777
X69.248 Y10.815
X69.249 Y11.118
Y11.988
G3 X68.951 Y12.294 I-0.317 J-0.011
G1 X68.931 Z-5.999
X68.878 Y12.281 Z-5.991
X68.827 Y12.268 Z-5.973
X68.78 Y12.256 Z-5.946
X68.744 Y12.225 Z-5.906
X68.715 Y12.199 Z-5.858
X68.693 Y12.18 Z-5.803
X68.68 Y12.169 Z-5.744
X68.676 Y12.165 Z-5.683
Z5
X65.039 Y11.304
Z-5.5
G3 X67.409 Y12.013 Z-5.6 I0.917 J1.25 F500
X66.081 Y14.097 Z-5.7 I-1.451 J0.54
X64.441 Y12.252 Z-5.8 I-0.123 J-1.542
X66.661 Y11.18 Z-5.9 I1.515 J0.303
X67.086 Y13.605 Z-6 I-0.704 J1.373
X64.639 Y13.352 Z-6.1 I-1.127 J-1.051
X65.55 Y11.07 Z-6.2 I1.318 J-0.797
X67.494 Y12.568 Z-6.3 I0.406 J1.483
X65.524 Y14.027 Z-6.4 I-1.536 J-0.015
X64.66 Y11.737 Z-6.5 I0.433 J-1.472
X67.097 Y11.531 Z-6.6 I1.296 J0.818
X66.63 Y13.928 Z-6.7 I-1.139 J1.022
X64.453 Y12.826 Z-6.8 I-0.672 J-1.374
X66.107 Y11.035 Z-6.9 I1.503 J-0.271
X67.376 Y13.112 Z-7 I-0.15 J1.518
X65.034 Y13.765 Z-7.1 I-1.418 J-0.558
X65.045 Y11.337 Z-7.2 I0.923 J-1.21
X67.376 Y12.01 Z-7.3 I0.911 J1.217
X66.093 Y14.066 Z-7.4 I-1.418 J0.543
X64.468 Y12.272 Z-7.5 I-0.135 J-1.511
X66.635 Y11.2 Z-7.6 I1.489 J0.283
X67.074 Y13.575 Z-7.7 I-0.678 J1.353
X64.672 Y13.349 Z-7.8 I-1.115 J-1.02
X65.544 Y11.103 Z-7.9 I1.285 J-0.793
X67.464 Y12.554 Z-8 I0.412 J1.451
X64.448 Y12.554 I-1.508 J0
X67.464 Y12.554 I1.508 J0
G1 X67.467 Y12.637 F1000
X67.699 Y13.263
X67.772 Y13.394
X67.821 Y13.535
X67.848 Y13.683
X67.855 Y13.845
X67.84 Y14.021
X67.799 Y14.208
X67.727 Y14.403
X67.623 Y14.602
X67.485 Y14.798
X67.311 Y14.987
X67.101 Y15.161
X66.856 Y15.315
X66.578 Y15.442
X66.272 Y15.535
X65.942 Y15.59
X65.595 Y15.601
X65.237 Y15.566
X64.876 Y15.481
X64.522 Y15.346
X64.181 Y15.161
X63.862 Y14.93
X63.571 Y14.654
X63.317 Y14.339
X63.104 Y13.99
X62.938 Y13.613
X62.822 Y13.215
X62.76 Y12.803
X62.752 Y12.385
X62.799 Y11.968
X62.901 Y11.56
X63.056 Y11.168
X63.262 Y10.799
X63.515 Y10.46
X63.81 Y10.157
X64.143 Y9.896
X64.508 Y9.68
X64.898 Y9.514
X65.307 Y9.401
X65.727 Y9.343
X66.151 Y9.341
X66.572 Y9.394
X66.983 Y9.503
X67.375 Y9.664
X67.743 Y9.876
X68.08 Y10.134
X68.38 Y10.435
X68.638 Y10.772
X68.97 Y11.351
X69.216 Y11.845
X69.234 Y11.89
X69.245 Y11.938
X69.249 Y11.987
Y14.152
X69.247 Y14.304
X69.241 Y14.341
X69.23 Y14.379
X69.213 Y14.417
X69.19 Y14.455
X69.167 Y14.484
X69.138 Y14.512
X69.1 Y14.54
X68.985 Y14.607
X66.107 Y16.269
X66.094 Y16.275
X66.059 Y16.29
X66.025 Y16.299
X65.99 Y16.305
X65.955 Y16.307
X65.921 Y16.305
X65.886 Y16.299
X65.852 Y16.29
X65.817 Y16.275
X65.804 Y16.268
X62.811 Y14.54
X62.773 Y14.512
X62.745 Y14.483
X62.722 Y14.455
X62.699 Y14.417
X62.683 Y14.379
X62.672 Y14.341
X62.665 Y14.304
X62.662 Y14.152
Y10.967
X62.664 Y10.815
X62.67 Y10.777
X62.682 Y10.739
X62.698 Y10.701
X62.721 Y10.663
X62.743 Y10.631
X62.773 Y10.599
X62.806 Y10.571
X62.839 Y10.55
X65.804 Y8.839
X65.842 Y8.822
X65.88 Y8.811
X65.917 Y8.805
X65.955 Y8.803
X65.993 Y8.806
X66.031 Y8.813
X66.069 Y8.823
X66.107 Y8.839
X66.713 Y9.188
X69.072 Y10.55
X69.105 Y10.571
X69.138 Y10.596
X69.171 Y10.63
X69.197 Y10.663
X69.218 Y10.701
X69.233 Y10.739
X69.243 Y10.777
X69.248 Y10.815
X69.249 Y11.118
Y11.987
G3 X68.951 Y12.292 I-0.317 J-0.011
G1 X68.931 Y12.293 Z-7.999
X68.878 Y12.28 Z-7.991
X68.827 Y12.267 Z-7.973
X68.78 Y12.255 Z-7.946
X68.744 Y12.223 Z-7.906
X68.715 Y12.198 Z-7.858
X68.693 Y12.179 Z-7.803
X68.68 Y12.167 Z-7.744
X68.676 Y12.163 Z-7.683
Z5
X65.039 Y11.304
Z-7.5
G3 X67.409 Y12.013 Z-7.6 I0.917 J1.25 F500
X66.081 Y14.097 Z-7.7 I-1.451 J0.54
X64.441 Y12.252 Z-7.8 I-0.123 J-1.542
X66.661 Y11.18 Z-7.9 I1.515 J0.303
X67.085 Y13.605 Z-8 I-0.704 J1.373
X64.639 Y13.352 Z-8.1 I-1.127 J-1.051
X65.55 Y11.07 Z-8.2 I1.318 J-0.797
X67.494 Y12.568 Z-8.3 I0.406 J1.483
X65.524 Y14.027 Z-8.4 I-1.536 J-0.015
X64.66 Y11.736 Z-8.5 I0.433 J-1.472
X67.097 Y11.531 Z-8.6 I1.296 J0.818
X66.63 Y13.928 Z-8.7 I-1.139 J1.022
X64.453 Y12.825 Z-8.8 I-0.672 J-1.374
X66.107 Y11.035 Z-8.9 I1.503 J-0.271
X67.376 Y13.112 Z-9 I-0.15 J1.518
X65.034 Y13.765 Z-9.1 I-1.418 J-0.558
X65.045 Y11.336 Z-9.2 I0.923 J-1.21
X67.376 Y12.01 Z-9.3 I0.911 J1.217
X66.093 Y14.066 Z-9.4 I-1.418 J0.543
X64.467 Y12.272 Z-9.5 I-0.135 J-1.511
X66.634 Y11.2 Z-9.6 I1.489 J0.283
X67.073 Y13.574 Z-9.7 I-0.678 J1.353
X64.672 Y13.349 Z-9.8 I-1.115 J-1.02
X65.544 Y11.103 Z-9.9 I1.285 J-0.793
X67.464 Y12.553 Z-10 I0.412 J1.451
X64.448 Y12.553 I-1.508 J0
X67.464 Y12.553 I1.508 J0
G1 X67.466 Y12.637 F1000
X67.699 Y13.262
X67.772 Y13.394
X67.821 Y13.535
X67.848 Y13.683
X67.855 Y13.844
X67.84 Y14.02
X67.798 Y14.208
X67.727 Y14.403
X67.623 Y14.602
X67.485 Y14.798
X67.311 Y14.986
X67.1 Y15.161
X66.855 Y15.315
X66.578 Y15.441
X66.272 Y15.535
X65.942 Y15.59
X65.594 Y15.601
X65.237 Y15.565
X64.876 Y15.48
X64.522 Y15.345
X64.181 Y15.161
X63.861 Y14.93
X63.571 Y14.654
X63.317 Y14.339
X63.104 Y13.99
X62.938 Y13.613
X62.822 Y13.215
X62.759 Y12.803
X62.751 Y12.385
X62.799 Y11.968
X62.901 Y11.56
X63.056 Y11.168
X63.262 Y10.799
X63.514 Y10.46
X63.81 Y10.157
X64.143 Y9.896
X64.508 Y9.68
X64.898 Y9.514
X65.307 Y9.401
X65.727 Y9.343
X66.151 Y9.341
X66.572 Y9.394
X66.982 Y9.502
X67.375 Y9.664
X67.743 Y9.876
X68.08 Y10.134
X68.38 Y10.435
X68.638 Y10.772
X68.969 Y11.351
X69.216 Y11.845
X69.234 Y11.891
X69.245 Y11.938
X69.249 Y11.987
Y14.152
X69.247 Y14.304
X69.241 Y14.341
X69.23 Y14.379
X69.213 Y14.417
X69.19 Y14.455
X69.167 Y14.484
X69.138 Y14.512
X69.1 Y14.54
X68.985 Y14.607
X66.107 Y16.269
X66.094 Y16.275
X66.059 Y16.29
X66.025 Y16.299
X65.99 Y16.305
X65.955 Y16.307
X65.921 Y16.305
X65.886 Y16.299
X65.852 Y16.29
X65.817 Y16.275
X65.804 Y16.268
X62.811 Y14.54
X62.773 Y14.512
X62.745 Y14.483
X62.722 Y14.455
X62.699 Y14.417
X62.683 Y14.379
X62.672 Y14.341
X62.665 Y14.304
X62.662 Y14.152
Y10.967
X62.664 Y10.815
X62.67 Y10.777
X62.682 Y10.739
X62.698 Y10.701
X62.721 Y10.663
X62.743 Y10.631
X62.773 Y10.599
X62.806 Y10.571
X62.839 Y10.55
X65.804 Y8.839
X65.842 Y8.822
X65.88 Y8.811
X65.917 Y8.805
X65.955 Y8.803
X65.993 Y8.806
X66.031 Y8.813
X66.069 Y8.823
X66.107 Y8.839
X66.713 Y9.188
X69.072 Y10.55
X69.105 Y10.571
X69.138 Y10.596
X69.171 Y10.63
X69.197 Y10.663
X69.218 Y10.701
X69.233 Y10.739
X69.243 Y10.777
X69.248 Y10.815
X69.249 Y11.118
Y11.987
G3 X68.951 Y12.293 I-0.317 J-0.011
G1 X68.931 Z-9.999
X68.878 Y12.28 Z-9.991
X68.827 Y12.267 Z-9.973
X68.78 Y12.255 Z-9.946
X68.744 Y12.224 Z-9.906
X68.715 Y12.198 Z-9.858
X68.693 Y12.179 Z-9.803
X68.68 Y12.168 Z-9.744
X68.676 Y12.164 Z-9.683
Z5
X76.95 Y11.304
Z0.5
G3 X79.319 Y12.013 Z0.4 I0.917 J1.25 F500
X77.991 Y14.097 Z0.3 I-1.451 J0.54
X76.352 Y12.252 Z0.2 I-0.123 J-1.542
X78.571 Y11.18 Z0.1 I1.515 J0.303
X78.996 Y13.605 Z0 I-0.704 J1.373
X76.549 Y13.352 Z-0.1 I-1.127 J-1.051
X77.461 Y11.07 Z-0.2 I1.318 J-0.797
X79.404 Y12.568 Z-0.3 I0.406 J1.483
X77.435 Y14.027 Z-0.4 I-1.536 J-0.015
X76.57 Y11.737 Z-0.5 I0.433 J-1.472
X79.007 Y11.531 Z-0.6 I1.296 J0.818
X78.54 Y13.928 Z-0.7 I-1.139 J1.022
X76.363 Y12.826 Z-0.8 I-0.672 J-1.374
X78.017 Y11.035 Z-0.9 I1.503 J-0.271
X79.286 Y13.112 Z-1 I-0.15 J1.518
X76.944 Y13.765 Z-1.1 I-1.418 J-0.558
X76.956 Y11.337 Z-1.2 I0.923 J-1.21
X79.286 Y12.01 Z-1.3 I0.911 J1.217
X78.003 Y14.066 Z-1.4 I-1.418 J0.543
X76.378 Y12.272 Z-1.5 I-0.135 J-1.511
X78.545 Y11.2 Z-1.6 I1.489 J0.283
X78.984 Y13.575 Z-1.7 I-0.678 J1.353
X76.582 Y13.349 Z-1.8 I-1.115 J-1.02
X77.455 Y11.103 Z-1.9 I1.285 J-0.793
X79.375 Y12.554 Z-2 I0.412 J1.451
X76.358 Y12.554 I-1.508 J0
X79.375 Y12.554 I1.508 J0
G1 X79.377 Y12.637 F1000
X79.609 Y13.262
X79.682 Y13.394
X79.731 Y13.535
X79.758 Y13.683
X79.766 Y13.844
X79.75 Y14.021
X79.709 Y14.208
X79.638 Y14.403
X79.534 Y14.602
X79.395 Y14.798
X79.221 Y14.987
X79.011 Y15.161
X78.766 Y15.315
X78.488 Y15.442
X78.182 Y15.535
X77.852 Y15.59
X77.505 Y15.601
X77.147 Y15.565
X76.787 Y15.481
X76.432 Y15.346
X76.091 Y15.161
X75.772 Y14.93
X75.482 Y14.654
X75.227 Y14.339
X75.015 Y13.99
X74.848 Y13.613
X74.733 Y13.215
X74.67 Y12.803
X74.662 Y12.385
X74.709 Y11.968
X74.811 Y11.56
X74.966 Y11.168
X75.172 Y10.799
X75.425 Y10.46
X75.72 Y10.157
X76.053 Y9.896
X76.418 Y9.68
X76.808 Y9.514
X77.217 Y9.401
X77.637 Y9.343
X78.061 Y9.341
X78.482 Y9.394
X78.893 Y9.503
X79.285 Y9.664
X79.653 Y9.876
X79.99 Y10.134
X80.29 Y10.435
X80.548 Y10.772
X80.88 Y11.351
X81.127 Y11.847
X81.145 Y11.893
X81.156 Y11.94
X81.16 Y11.989
Y14.152
X81.158 Y14.304
X81.151 Y14.338
X81.141 Y14.372
X81.127 Y14.406
X81.109 Y14.44
X81.099 Y14.455
X81.069 Y14.492
X81.028 Y14.528
X80.958 Y14.572
X78.078 Y16.234
X78.005 Y16.275
X77.966 Y16.29
X77.927 Y16.3
X77.889 Y16.304
X77.851
X77.813 Y16.299
X77.775 Y16.29
X77.733 Y16.275
X77.624 Y16.216
X74.745 Y14.553
X74.717 Y14.537
X74.69 Y14.516
X74.659 Y14.485
X74.635 Y14.455
X74.611 Y14.414
X74.593 Y14.372
X74.583 Y14.338
X74.576 Y14.304
X74.574 Y14.152
Y10.967
X74.575 Y10.815
X74.58 Y10.771
X74.593 Y10.728
X74.607 Y10.696
X74.625 Y10.663
X74.651 Y10.629
X74.685 Y10.595
X74.745 Y10.554
X77.707 Y8.843
X77.741 Y8.827
X77.775 Y8.816
X77.813 Y8.808
X77.851 Y8.805
X77.889
X77.927 Y8.809
X77.977 Y8.821
X78.027 Y8.843
X80.958 Y10.535
X81.032 Y10.584
X81.075 Y10.624
X81.109 Y10.667
X81.13 Y10.704
X81.144 Y10.741
X81.154 Y10.778
X81.159 Y10.815
X81.16 Y11.118
Y11.989
G3 X80.863 Y12.295 I-0.317 J-0.011
G1 X80.843 Z-1.999
X80.789 Y12.282 Z-1.991
X80.738 Y12.269 Z-1.973
X80.691 Y12.257 Z-1.946
X80.656 Y12.226 Z-1.906
X80.626 Y12.2 Z-1.858
X80.605 Y12.181 Z-1.803
X80.591 Y12.169 Z-1.744
X80.587 Y12.166 Z-1.683
Z5
X76.95 Y11.303
Z-1.5
G3 X79.32 Y12.013 Z-1.6 I0.917 J1.25 F500
X77.991 Y14.096 Z-1.7 I-1.451 J0.54
X76.352 Y12.251 Z-1.8 I-0.123 J-1.542
X78.572 Y11.179 Z-1.9 I1.515 J0.303
X78.996 Y13.605 Z-2 I-0.704 J1.373
X76.55 Y13.351 Z-2.1 I-1.127 J-1.051
X77.461 Y11.07 Z-2.2 I1.318 J-0.797
X79.405 Y12.567 Z-2.3 I0.406 J1.483
X77.435 Y14.026 Z-2.4 I-1.536 J-0.015
X76.571 Y11.736 Z-2.5 I0.433 J-1.472
X79.007 Y11.53 Z-2.6 I1.296 J0.818
X78.54 Y13.928 Z-2.7 I-1.139 J1.022
X76.364 Y12.825 Z-2.8 I-0.672 J-1.374
X78.017 Y11.034 Z-2.9 I1.503 J-0.271
X79.287 Y13.112 Z-3 I-0.15 J1.518
X76.944 Y13.765 Z-3.1 I-1.418 J-0.558
X76.956 Y11.336 Z-3.2 I0.923 J-1.21
X79.287 Y12.01 Z-3.3 I0.911 J1.217
X78.003 Y14.065 Z-3.4 I-1.418 J0.543
X76.378 Y12.271 Z-3.5 I-0.135 J-1.511
X78.545 Y11.199 Z-3.6 I1.489 J0.283
X78.984 Y13.574 Z-3.7 I-0.678 J1.353
X76.583 Y13.348 Z-3.8 I-1.115 J-1.02
X77.455 Y11.102 Z-3.9 I1.285 J-0.793
X79.375 Y12.553 Z-4 I0.412 J1.451
X76.359 Y12.553 I-1.508 J0
X79.375 Y12.553 I1.508 J0
G1 X79.377 Y12.636 F1000
X79.61 Y13.262
X79.683 Y13.393
X79.732 Y13.535
X79.759 Y13.682
X79.766 Y13.844
X79.751 Y14.02
X79.709 Y14.207
X79.638 Y14.403
X79.534 Y14.601
X79.396 Y14.797
X79.221 Y14.986
X79.011 Y15.16
X78.766 Y15.314
X78.489 Y15.441
X78.183 Y15.534
X77.853 Y15.589
X77.505 Y15.6
X77.147 Y15.565
X76.787 Y15.48
X76.432 Y15.345
X76.091 Y15.161
X75.772 Y14.929
X75.482 Y14.653
X75.228 Y14.338
X75.015 Y13.989
X74.849 Y13.612
X74.733 Y13.214
X74.67 Y12.802
X74.662 Y12.384
X74.71 Y11.967
X74.812 Y11.559
X74.967 Y11.167
X75.172 Y10.798
X75.425 Y10.46
X75.721 Y10.157
X76.054 Y9.895
X76.418 Y9.679
X76.809 Y9.514
X77.217 Y9.401
X77.638 Y9.342
X78.062 Y9.34
X78.483 Y9.393
X78.893 Y9.502
X79.286 Y9.663
X79.654 Y9.875
X79.991 Y10.134
X80.291 Y10.434
X80.549 Y10.772
X80.88 Y11.351
X81.127 Y11.846
X81.145 Y11.891
X81.156 Y11.938
X81.16 Y11.987
Y14.152
X81.158 Y14.304
X81.151 Y14.338
X81.141 Y14.372
X81.127 Y14.406
X81.109 Y14.44
X81.099 Y14.455
X81.069 Y14.492
X81.028 Y14.528
X80.958 Y14.572
X78.078 Y16.234
X78.005 Y16.275
X77.966 Y16.29
X77.927 Y16.3
X77.889 Y16.304
X77.851
X77.813 Y16.299
X77.775 Y16.29
X77.733 Y16.275
X77.624 Y16.216
X74.745 Y14.553
X74.717 Y14.537
X74.69 Y14.516
X74.659 Y14.485
X74.635 Y14.455
X74.611 Y14.414
X74.593 Y14.372
X74.583 Y14.338
X74.576 Y14.304
X74.574 Y14.152
Y10.967
X74.575 Y10.815
X74.58 Y10.771
X74.593 Y10.728
X74.607 Y10.696
X74.625 Y10.663
X74.651 Y10.629
X74.685 Y10.595
X74.745 Y10.554
X77.707 Y8.843
X77.741 Y8.827
X77.775 Y8.816
X77.813 Y8.808
X77.851 Y8.805
X77.889
X77.927 Y8.809
X77.977 Y8.821
X78.027 Y8.843
X80.958 Y10.535
X81.032 Y10.584
X81.075 Y10.624
X81.109 Y10.667
X81.13 Y10.704
X81.144 Y10.741
X81.154 Y10.778
X81.159 Y10.815
X81.16 Y11.118
Y11.987
G3 X80.863 Y12.293 I-0.317 J-0.011
G1 X80.843 Y12.294 Z-3.999
X80.789 Y12.28 Z-3.991
X80.738 Y12.267 Z-3.973
X80.691 Y12.255 Z-3.946
X80.656 Y12.224 Z-3.906
X80.626 Y12.198 Z-3.858
X80.605 Y12.179 Z-3.803
X80.591 Y12.168 Z-3.744
X80.587 Y12.164 Z-3.683
Z5
X76.951 Y11.304
Z-3.5
G3 X79.32 Y12.013 Z-3.6 I0.917 J1.25 F500
X77.992 Y14.097 Z-3.7 I-1.451 J0.54
X76.353 Y12.252 Z-3.8 I-0.123 J-1.542
X78.572 Y11.18 Z-3.9 I1.515 J0.303
X78.997 Y13.605 Z-4 I-0.704 J1.373
X76.551 Y13.352 Z-4.1 I-1.127 J-1.051
X77.462 Y11.07 Z-4.2 I1.318 J-0.797
X79.405 Y12.568 Z-4.3 I0.406 J1.483
X77.436 Y14.027 Z-4.4 I-1.536 J-0.015
X76.571 Y11.736 Z-4.5 I0.433 J-1.472
X79.008 Y11.53 Z-4.6 I1.296 J0.818
X78.541 Y13.928 Z-4.7 I-1.139 J1.022
X76.365 Y12.825 Z-4.8 I-0.672 J-1.374
X78.018 Y11.035 Z-4.9 I1.503 J-0.271
X79.287 Y13.112 Z-5 I-0.15 J1.518
X76.945 Y13.765 Z-5.1 I-1.418 J-0.558
X76.957 Y11.336 Z-5.2 I0.923 J-1.21
X79.287 Y12.01 Z-5.3 I0.911 J1.217
X78.004 Y14.066 Z-5.4 I-1.418 J0.543
X76.379 Y12.272 Z-5.5 I-0.135 J-1.511
X78.546 Y11.2 Z-5.6 I1.489 J0.283
X78.985 Y13.574 Z-5.7 I-0.678 J1.353
X76.584 Y13.348 Z-5.8 I-1.115 J-1.02
X77.456 Y11.103 Z-5.9 I1.285 J-0.793
X79.376 Y12.553 Z-6 I0.412 J1.451
X76.36 Y12.553 I-1.508 J0
X79.376 Y12.553 I1.508 J0
G1 X79.378 Y12.637 F1000
X79.611 Y13.262
X79.683 Y13.393
X79.732 Y13.535
X79.759 Y13.683
X79.767 Y13.844
X79.752 Y14.02
X79.71 Y14.208
X79.639 Y14.403
X79.535 Y14.602
X79.396 Y14.798
X79.222 Y14.986
X79.012 Y15.161
X78.767 Y15.315
X78.489 Y15.441
X78.183 Y15.535
X77.853 Y15.59
X77.506 Y15.601
X77.148 Y15.565
X76.788 Y15.48
X76.433 Y15.345
X76.092 Y15.161
X75.773 Y14.93
X75.483 Y14.654
X75.228 Y14.339
X75.016 Y13.99
X74.85 Y13.613
X74.734 Y13.215
X74.671 Y12.803
X74.663 Y12.385
X74.71 Y11.968
X74.812 Y11.56
X74.967 Y11.168
X75.173 Y10.799
X75.426 Y10.46
X75.721 Y10.157
X76.054 Y9.896
X76.419 Y9.68
X76.809 Y9.514
X77.218 Y9.401
X77.638 Y9.343
X78.063 Y9.34
X78.484 Y9.394
X78.894 Y9.502
X79.287 Y9.664
X79.655 Y9.876
X79.991 Y10.134
X80.291 Y10.435
X80.549 Y10.772
X80.881 Y11.351
X81.127 Y11.845
X81.145 Y11.89
X81.156 Y11.938
X81.16 Y11.986
Y14.152
X81.158 Y14.304
X81.151 Y14.338
X81.141 Y14.372
X81.127 Y14.406
X81.109 Y14.44
X81.099 Y14.455
X81.069 Y14.492
X81.028 Y14.528
X80.958 Y14.572
X78.078 Y16.234
X78.005 Y16.275
X77.966 Y16.29
X77.927 Y16.3
X77.889 Y16.304
X77.851
X77.813 Y16.299
X77.775 Y16.29
X77.733 Y16.275
X77.624 Y16.216
X74.745 Y14.553
X74.717 Y14.537
X74.69 Y14.516
X74.659 Y14.485
X74.635 Y14.455
X74.611 Y14.414
X74.593 Y14.372
X74.583 Y14.338
X74.576 Y14.304
X74.574 Y14.152
Y10.967
X74.575 Y10.815
X74.58 Y10.771
X74.593 Y10.728
X74.607 Y10.696
X74.625 Y10.663
X74.651 Y10.629
X74.685 Y10.595
X74.745 Y10.554
X77.707 Y8.843
X77.741 Y8.827
X77.775 Y8.816
X77.813 Y8.808
X77.851 Y8.805
X77.889
X77.927 Y8.809
X77.977 Y8.821
X78.027 Y8.843
X80.958 Y10.535
X81.032 Y10.584
X81.075 Y10.624
X81.109 Y10.667
X81.13 Y10.704
X81.144 Y10.741
X81.154 Y10.778
X81.159 Y10.815
X81.16 Y11.118
Y11.986
G3 X80.863 Y12.292 I-0.317 J-0.011
G1 X80.843 Y12.293 Z-5.999
X80.789 Y12.279 Z-5.991
X80.738 Y12.266 Z-5.973
X80.691 Y12.254 Z-5.946
X80.656 Y12.223 Z-5.906
X80.626 Y12.198 Z-5.858
X80.605 Y12.179 Z-5.803
X80.591 Y12.167 Z-5.744
X80.587 Y12.163 Z-5.683
Z5
X76.95 Y11.303
Z-5.5
G3 X79.319 Y12.013 Z-5.6 I0.917 J1.25 F500
X77.991 Y14.096 Z-5.7 I-1.451 J0.54
X76.352 Y12.251 Z-5.8 I-0.123 J-1.542
X78.572 Y11.179 Z-5.9 I1.515 J0.303
X78.996 Y13.605 Z-6 I-0.704 J1.373
X76.55 Y13.351 Z-6.1 I-1.127 J-1.051
X77.461 Y11.069 Z-6.2 I1.318 J-0.797
X79.405 Y12.567 Z-6.3 I0.406 J1.483
X77.435 Y14.026 Z-6.4 I-1.536 J-0.015
X76.57 Y11.736 Z-6.5 I0.433 J-1.472
X79.007 Y11.53 Z-6.6 I1.296 J0.818
X78.54 Y13.928 Z-6.7 I-1.139 J1.022
X76.364 Y12.825 Z-6.8 I-0.672 J-1.374
X78.017 Y11.034 Z-6.9 I1.503 J-0.271
X79.287 Y13.111 Z-7 I-0.15 J1.518
X76.944 Y13.765 Z-7.1 I-1.418 J-0.558
X76.956 Y11.336 Z-7.2 I0.923 J-1.21
X79.287 Y12.009 Z-7.3 I0.911 J1.217
X78.003 Y14.065 Z-7.4 I-1.418 J0.543
X76.378 Y12.271 Z-7.5 I-0.135 J-1.511
X78.545 Y11.199 Z-7.6 I1.489 J0.283
X78.984 Y13.574 Z-7.7 I-0.678 J1.353
X76.583 Y13.348 Z-7.8 I-1.115 J-1.02
X77.455 Y11.102 Z-7.9 I1.285 J-0.793
X79.375 Y12.553 Z-8 I0.412 J1.451
X76.359 Y12.553 I-1.508 J0
X79.375 Y12.553 I1.508 J0
G1 X79.377 Y12.636 F1000
X79.61 Y13.262
X79.683 Y13.393
X79.732 Y13.535
X79.759 Y13.682
X79.766 Y13.844
X79.751 Y14.02
X79.709 Y14.207
X79.638 Y14.402
X79.534 Y14.601
X79.396 Y14.797
X79.221 Y14.986
X79.011 Y15.16
X78.766 Y15.314
X78.489 Y15.441
X78.182 Y15.534
X77.853 Y15.589
X77.505 Y15.6
X77.147 Y15.565
X76.787 Y15.48
X76.432 Y15.345
X76.091 Y15.16
X75.772 Y14.929
X75.482 Y14.653
X75.228 Y14.338
X75.015 Y13.989
X74.849 Y13.612
X74.733 Y13.214
X74.67 Y12.802
X74.662 Y12.384
X74.709 Y11.967
X74.811 Y11.559
X74.967 Y11.167
X75.172 Y10.798
X75.425 Y10.459
X75.721 Y10.157
X76.054 Y9.895
X76.418 Y9.679
X76.809 Y9.514
X77.217 Y9.401
X77.638 Y9.342
X78.062 Y9.34
X78.483 Y9.393
X78.893 Y9.502
X79.286 Y9.663
X79.654 Y9.875
X79.991 Y10.133
X80.291 Y10.434
X80.548 Y10.771
X80.88 Y11.35
X81.127 Y11.846
X81.145 Y11.891
X81.156 Y11.938
X81.16 Y11.987
Y14.152
X81.158 Y14.304
X81.151 Y14.338
X81.141 Y14.372
X81.127 Y14.406
X81.109 Y14.44
X81.099 Y14.455
X81.069 Y14.492
X81.028 Y14.528
X80.958 Y14.572
X78.078 Y16.234
X78.005 Y16.275
X77.966 Y16.29
X77.927 Y16.3
X77.889 Y16.304
X77.851
X77.813 Y16.299
X77.775 Y16.29
X77.733 Y16.275
X77.624 Y16.216
X74.745 Y14.553
X74.717 Y14.537
X74.69 Y14.516
X74.659 Y14.485
X74.635 Y14.455
X74.611 Y14.414
X74.593 Y14.372
X74.583 Y14.338
X74.576 Y14.304
X74.574 Y14.152
Y10.967
X74.575 Y10.815
X74.58 Y10.771
X74.593 Y10.728
X74.607 Y10.696
X74.625 Y10.663
X74.651 Y10.629
X74.685 Y10.595
X74.745 Y10.554
X77.707 Y8.843
X77.741 Y8.827
X77.775 Y8.816
X77.813 Y8.808
X77.851 Y8.805
X77.889
X77.927 Y8.809
X77.977 Y8.821
X78.027 Y8.843
X80.958 Y10.535
X81.032 Y10.584
X81.075 Y10.624
X81.109 Y10.667
X81.13 Y10.704
X81.144 Y10.741
X81.154 Y10.778
X81.159 Y10.815
X81.16 Y11.118
Y11.987
G3 X80.863 Y12.293 I-0.317 J-0.011
G1 X80.843 Y12.294 Z-7.999
X80.789 Y12.28 Z-7.991
X80.738 Y12.267 Z-7.973
X80.691 Y12.255 Z-7.946
X80.656 Y12.224 Z-7.906
X80.626 Y12.198 Z-7.858
X80.605 Y12.18 Z-7.803
X80.591 Y12.168 Z-7.744
X80.587 Y12.164 Z-7.683
Z5
X76.951 Y11.303
Z-7.5
G3 X79.32 Y12.013 Z-7.6 I0.917 J1.25 F500
X77.992 Y14.096 Z-7.7 I-1.451 J0.54
X76.352 Y12.252 Z-7.8 I-0.123 J-1.542
X78.572 Y11.179 Z-7.9 I1.515 J0.303
X78.997 Y13.605 Z-8 I-0.704 J1.373
X76.55 Y13.351 Z-8.1 I-1.127 J-1.051
X77.462 Y11.07 Z-8.2 I1.318 J-0.797
X79.405 Y12.568 Z-8.3 I0.406 J1.483
X77.436 Y14.027 Z-8.4 I-1.536 J-0.015
X76.571 Y11.736 Z-8.5 I0.433 J-1.472
X79.008 Y11.53 Z-8.6 I1.296 J0.818
X78.541 Y13.928 Z-8.7 I-1.139 J1.022
X76.364 Y12.825 Z-8.8 I-0.672 J-1.374
X78.018 Y11.035 Z-8.9 I1.503 J-0.271
X79.287 Y13.112 Z-9 I-0.15 J1.518
X76.945 Y13.765 Z-9.1 I-1.418 J-0.558
X76.956 Y11.336 Z-9.2 I0.923 J-1.21
X79.287 Y12.01 Z-9.3 I0.911 J1.217
X78.004 Y14.065 Z-9.4 I-1.418 J0.543
X76.379 Y12.272 Z-9.5 I-0.135 J-1.511
X78.546 Y11.199 Z-9.6 I1.489 J0.283
X78.985 Y13.574 Z-9.7 I-0.678 J1.353
X76.583 Y13.348 Z-9.8 I-1.115 J-1.02
X77.456 Y11.102 Z-9.9 I1.285 J-0.793
X79.376 Y12.553 Z-10 I0.412 J1.451
X76.359 Y12.553 I-1.508 J0
X79.376 Y12.553 I1.508 J0
G1 X79.378 Y12.636 F1000
X79.61 Y13.262
X79.683 Y13.393
X79.732 Y13.535
X79.759 Y13.682
X79.766 Y13.844
X79.751 Y14.02
X79.71 Y14.208
X79.638 Y14.403
X79.535 Y14.601
X79.396 Y14.797
X79.222 Y14.986
X79.012 Y15.16
X78.767 Y15.314
X78.489 Y15.441
X78.183 Y15.535
X77.853 Y15.589
X77.506 Y15.601
X77.148 Y15.565
X76.788 Y15.48
X76.433 Y15.345
X76.092 Y15.161
X75.773 Y14.929
X75.483 Y14.654
X75.228 Y14.339
X75.015 Y13.989
X74.849 Y13.612
X74.733 Y13.214
X74.671 Y12.803
X74.663 Y12.384
X74.71 Y11.967
X74.812 Y11.559
X74.967 Y11.167
X75.173 Y10.799
X75.426 Y10.46
X75.721 Y10.157
X76.054 Y9.895
X76.419 Y9.68
X76.809 Y9.514
X77.218 Y9.401
X77.638 Y9.343
X78.062 Y9.34
X78.483 Y9.394
X78.894 Y9.502
X79.286 Y9.664
X79.654 Y9.875
X79.991 Y10.134
X80.291 Y10.434
X80.549 Y10.772
X80.881 Y11.351
X81.127 Y11.845
X81.145 Y11.89
X81.156 Y11.938
X81.16 Y11.986
Y14.152
X81.158 Y14.304
X81.151 Y14.338
X81.141 Y14.372
X81.127 Y14.406
X81.109 Y14.44
X81.099 Y14.455
X81.069 Y14.492
X81.028 Y14.528
X80.958 Y14.572
X78.078 Y16.234
X78.005 Y16.275
X77.966 Y16.29
X77.927 Y16.3
X77.889 Y16.304
X77.851
X77.813 Y16.299
X77.775 Y16.29
X77.733 Y16.275
X77.624 Y16.216
X74.745 Y14.553
X74.717 Y14.537
X74.69 Y14.516
X74.659 Y14.485
X74.635 Y14.455
X74.611 Y14.414
X74.593 Y14.372
X74.583 Y14.338
X74.576 Y14.304
X74.574 Y14.152
Y10.967
X74.575 Y10.815
X74.58 Y10.771
X74.593 Y10.728
X74.607 Y10.696
X74.625 Y10.663
X74.651 Y10.629
X74.685 Y10.595
X74.745 Y10.554
X77.707 Y8.843
X77.741 Y8.827
X77.775 Y8.816
X77.813 Y8.808
X77.851 Y8.805
X77.889
X77.927 Y8.809
X77.977 Y8.821
X78.027 Y8.843
X80.958 Y10.535
X81.032 Y10.584
X81.075 Y10.624
X81.109 Y10.667
X81.13 Y10.704
X81.144 Y10.741
X81.154 Y10.778
X81.159 Y10.815
X81.16 Y11.118
Y11.986
G3 X80.863 Y12.292 I-0.317 J-0.011
G1 X80.843 Y12.293 Z-9.999
X80.789 Y12.279 Z-9.991
X80.738 Y12.266 Z-9.973
X80.691 Y12.254 Z-9.946
X80.656 Y12.223 Z-9.906
X80.626 Y12.198 Z-9.858
X80.605 Y12.179 Z-9.803
X80.591 Y12.167 Z-9.744
X80.587 Y12.163 Z-9.683
Z5
X88.862 Y11.304
Z0.5
G3 X91.231 Y12.013 Z0.4 I0.917 J1.25 F500
X89.903 Y14.097 Z0.3 I-1.451 J0.54
X88.264 Y12.252 Z0.2 I-0.123 J-1.542
X90.483 Y11.18 Z0.1 I1.515 J0.303
X90.908 Y13.605 Z0 I-0.704 J1.373
X88.462 Y13.352 Z-0.1 I-1.127 J-1.051
X89.373 Y11.07 Z-0.2 I1.318 J-0.797
X91.316 Y12.568 Z-0.3 I0.406 J1.483
X89.347 Y14.027 Z-0.4 I-1.536 J-0.015
X88.482 Y11.736 Z-0.5 I0.433 J-1.472
X90.919 Y11.531 Z-0.6 I1.296 J0.818
X90.452 Y13.928 Z-0.7 I-1.139 J1.022
X88.276 Y12.825 Z-0.8 I-0.672 J-1.374
X89.929 Y11.035 Z-0.9 I1.503 J-0.271
X91.198 Y13.112 Z-1 I-0.15 J1.518
X88.856 Y13.765 Z-1.1 I-1.418 J-0.558
X88.868 Y11.336 Z-1.2 I0.923 J-1.21
X91.198 Y12.01 Z-1.3 I0.911 J1.217
X89.915 Y14.066 Z-1.4 I-1.418 J0.543
X88.29 Y12.272 Z-1.5 I-0.135 J-1.511
X90.457 Y11.2 Z-1.6 I1.489 J0.283
X90.896 Y13.574 Z-1.7 I-0.678 J1.353
X88.494 Y13.349 Z-1.8 I-1.115 J-1.02
X89.367 Y11.103 Z-1.9 I1.285 J-0.793
X91.287 Y12.553 Z-2 I0.412 J1.451
X88.27 Y12.553 I-1.508 J0
X91.287 Y12.553 I1.508 J0
G1 X91.289 Y12.637 F1000
X91.521 Y13.262
X91.594 Y13.394
X91.643 Y13.535
X91.67 Y13.683
X91.678 Y13.844
X91.662 Y14.02
X91.621 Y14.208
X91.55 Y14.403
X91.446 Y14.602
X91.307 Y14.798
X91.133 Y14.986
X90.923 Y15.161
X90.678 Y15.315
X90.4 Y15.441
X90.094 Y15.535
X89.764 Y15.59
X89.417 Y15.601
X89.059 Y15.565
X88.699 Y15.48
X88.344 Y15.345
X88.003 Y15.161
X87.684 Y14.93
X87.394 Y14.654
X87.139 Y14.339
X86.927 Y13.99
X86.76 Y13.613
X86.645 Y13.215
X86.582 Y12.803
X86.574 Y12.385
X86.621 Y11.968
X86.723 Y11.56
X86.878 Y11.168
X87.084 Y10.799
X87.337 Y10.46
X87.632 Y10.157
X87.965 Y9.896
X88.33 Y9.68
X88.72 Y9.514
X89.129 Y9.401
X89.549 Y9.343
X89.974 Y9.341
X90.395 Y9.394
X90.805 Y9.502
X91.198 Y9.664
X91.566 Y9.876
X91.902 Y10.134
X92.202 Y10.435
X92.46 Y10.772
X92.792 Y11.351
X93.038 Y11.846
X93.056 Y11.891
X93.068 Y11.938
X93.071 Y11.987
Y14.152
X93.07 Y14.304
X93.063 Y14.341
X93.052 Y14.379
X93.035 Y14.417
X93.012 Y14.455
X92.993 Y14.479
X92.97 Y14.502
X92.929 Y14.535
X92.777 Y14.625
X90.05 Y16.199
X89.917 Y16.275
X89.898 Y16.284
X89.86 Y16.296
X89.822 Y16.304
X89.785 Y16.307
X89.747 Y16.305
X89.693 Y16.295
X89.667 Y16.287
X89.64 Y16.275
X89.595 Y16.25
X86.64 Y14.544
X86.602 Y14.517
X86.564 Y14.48
X86.544 Y14.455
X86.521 Y14.417
X86.504 Y14.379
X86.493 Y14.341
X86.487 Y14.304
X86.485 Y14.152
Y10.967
X86.486 Y10.815
X86.492 Y10.777
X86.501 Y10.739
X86.516 Y10.701
X86.537 Y10.663
X86.564 Y10.627
X86.602 Y10.59
X86.64 Y10.563
X89.619 Y8.843
X89.651 Y8.829
X89.683 Y8.818
X89.747 Y8.805
X89.785 Y8.803
X89.822 Y8.805
X89.86 Y8.812
X89.898 Y8.824
X89.938 Y8.843
X92.828 Y10.512
X92.929 Y10.571
X92.957 Y10.591
X92.984 Y10.617
X93.004 Y10.64
X93.02 Y10.663
X93.041 Y10.701
X93.056 Y10.739
X93.066 Y10.777
X93.07 Y10.815
X93.071 Y10.967
Y11.987
G3 X92.774 Y12.293 I-0.317 J-0.011
G1 X92.754 Y12.294 Z-1.999
X92.701 Y12.28 Z-1.991
X92.65 Y12.267 Z-1.973
X92.602 Y12.255 Z-1.946
X92.567 Y12.224 Z-1.906
X92.538 Y12.198 Z-1.858
X92.516 Y12.179 Z-1.803
X92.503 Y12.168 Z-1.744
X92.498 Y12.164 Z-1.683
Z5
X88.862 Y11.303
Z-1.5
G3 X91.231 Y12.013 Z-1.6 I0.917 J1.25 F500
X89.903 Y14.096 Z-1.7 I-1.451 J0.54
X88.263 Y12.251 Z-1.8 I-0.123 J-1.542
X90.483 Y11.179 Z-1.9 I1.515 J0.303
X90.908 Y13.605 Z-2 I-0.704 J1.373
X88.461 Y13.351 Z-2.1 I-1.127 J-1.051
X89.373 Y11.069 Z-2.2 I1.318 J-0.797
X91.316 Y12.567 Z-2.3 I0.406 J1.483
X89.347 Y14.026 Z-2.4 I-1.536 J-0.015
X88.482 Y11.736 Z-2.5 I0.433 J-1.472
X90.919 Y11.53 Z-2.6 I1.296 J0.818
X90.452 Y13.928 Z-2.7 I-1.139 J1.022
X88.275 Y12.825 Z-2.8 I-0.672 J-1.374
X89.929 Y11.034 Z-2.9 I1.503 J-0.271
X91.198 Y13.112 Z-3 I-0.15 J1.518
X88.856 Y13.765 Z-3.1 I-1.418 J-0.558
X88.867 Y11.336 Z-3.2 I0.923 J-1.21
X91.198 Y12.009 Z-3.3 I0.911 J1.217
X89.915 Y14.065 Z-3.4 I-1.418 J0.543
X88.29 Y12.271 Z-3.5 I-0.135 J-1.511
X90.457 Y11.199 Z-3.6 I1.489 J0.283
X90.896 Y13.574 Z-3.7 I-0.678 J1.353
X88.494 Y13.348 Z-3.8 I-1.115 J-1.02
X89.367 Y11.102 Z-3.9 I1.285 J-0.793
X91.287 Y12.553 Z-4 I0.412 J1.451
X88.27 Y12.553 I-1.508 J0
X91.287 Y12.553 I1.508 J0
G1 X91.289 Y12.636 F1000
X91.521 Y13.262
X91.594 Y13.393
X91.643 Y13.535
X91.67 Y13.682
X91.677 Y13.844
X91.662 Y14.02
X91.621 Y14.207
X91.549 Y14.403
X91.446 Y14.601
X91.307 Y14.797
X91.133 Y14.986
X90.923 Y15.16
X90.678 Y15.314
X90.4 Y15.441
X90.094 Y15.534
X89.764 Y15.589
X89.417 Y15.6
X89.059 Y15.565
X88.699 Y15.48
X88.344 Y15.345
X88.003 Y15.161
X87.684 Y14.929
X87.394 Y14.653
X87.139 Y14.338
X86.926 Y13.989
X86.76 Y13.612
X86.644 Y13.214
X86.582 Y12.802
X86.574 Y12.384
X86.621 Y11.967
X86.723 Y11.559
X86.878 Y11.167
X87.084 Y10.798
X87.337 Y10.459
X87.632 Y10.157
X87.965 Y9.895
X88.33 Y9.679
X88.72 Y9.514
X89.129 Y9.401
X89.549 Y9.342
X89.973 Y9.34
X90.394 Y9.393
