(1002)
(Machine)
(  vendor: Makera)
(  model: Carvera 3-axis)
(  description: Makera Carvera 3-axis)
(T1  D=3.175 CR=0 - ZMIN=-10 - flat end mill)
G90 G94
G17
G21
(When using Fusion 360 for Personal Use, the feedrate of)
(rapid moves is reduced to match the feedrate of cutting)
(moves, which can increase machining time. Unrestricted rapid)
(moves are available with a Fusion 360 Subscription.)

(2D Adaptive1)
T1 M6
S10000 M3
G54
G0 X13.976 Y13.077
Z15
G1 Z5 F1000
Z2.5
G3 X11.379 Y13.621 Z2.39 I-1.476 J-0.577 F500
X11.921 Y11.027 Z2.28 I1.119 J-1.12
X14.078 Y12.561 Z2.171 I0.577 J1.472
X11.811 Y13.921 Z2.061 I-1.578 J-0.062
X11.474 Y11.302 Z1.951 I0.688 J-1.419
X14.005 Y12.042 Z1.841 I1.023 J1.198
X12.315 Y14.062 Z1.732 I-1.506 J0.457
X11.143 Y11.707 Z1.622 I0.184 J-1.561
X13.767 Y11.577 Z1.512 I1.354 J0.793
X12.835 Y14.03 Z1.402 I-1.268 J0.922
X10.964 Y12.196 Z1.293 I-0.336 J-1.529
X13.391 Y11.217 Z1.183 I1.534 J0.305
X13.315 Y13.831 Z1.073 I-0.893 J1.282
X10.954 Y12.715 Z0.963 I-0.815 J-1.33
X12.92 Y11.001 Z0.854 I1.543 J-0.214
X13.701 Y13.486 Z0.744 I-0.422 J1.498
X11.115 Y13.206 Z0.634 I-1.202 J-0.986
X12.406 Y10.952 Z0.524 I1.383 J-0.705
X13.953 Y13.036 Z0.415 I0.092 J1.548
X11.427 Y13.616 Z0.305 I-1.453 J-0.536
X11.906 Y11.073 Z0.195 I1.072 J-1.115
X14.042 Y12.53 Z0.085 I0.591 J1.427
X11.854 Y13.901 Z-0.024 I-1.542 J-0.03
X11.475 Y11.35 Z-0.134 I0.645 J-1.399
X13.961 Y12.024 Z-0.244 I1.022 J1.15
X12.349 Y14.029 Z-0.354 I-1.462 J0.475
X11.16 Y11.751 Z-0.463 I0.15 J-1.528
X13.72 Y11.575 Z-0.573 I1.338 J0.749
X12.857 Y13.988 Z-0.683 I-1.221 J0.924
X10.994 Y12.232 Z-0.793 I-0.357 J-1.487
X13.346 Y11.231 Z-0.902 I1.504 J0.268
X13.321 Y13.784 Z-1.012 I-0.847 J1.268
X10.995 Y12.739 Z-1.122 I-0.822 J-1.283
X12.882 Y11.029 Z-1.232 I1.503 J-0.238
X13.692 Y13.44 Z-1.341 I-0.384 J1.471
X11.161 Y13.216 Z-1.451 I-1.192 J-0.94
X12.379 Y10.99 Z-1.561 I1.337 J-0.715
X13.928 Y12.995 Z-1.671 I0.119 J1.509
X11.473 Y13.61 Z-1.78 I-1.429 J-0.495
X11.893 Y11.118 Z-1.89 I1.025 J-1.109
X14.006 Y12.5 Z-2 I0.604 J1.382
X10.989 Y12.5 I-1.508 J0
X14.006 Y12.5 I1.508 J0
G1 X14.008 Y12.58 F1000
X14.224 Y13.184
X14.302 Y13.313
X14.355 Y13.453
X14.386 Y13.6
X14.398 Y13.758
X14.387 Y13.932
X14.351 Y14.117
X14.285 Y14.312
X14.188 Y14.51
X14.056 Y14.707
X13.889 Y14.898
X13.685 Y15.075
X13.447 Y15.234
X13.175 Y15.366
X12.874 Y15.466
X12.548 Y15.529
X12.203 Y15.549
X11.847 Y15.522
X11.486 Y15.447
X11.13 Y15.321
X10.786 Y15.146
X10.462 Y14.923
X10.165 Y14.656
X9.904 Y14.348
X9.683 Y14.005
X9.507 Y13.633
X9.382 Y13.238
X9.309 Y12.828
X9.29 Y12.411
X9.327 Y11.993
X9.419 Y11.582
X9.564 Y11.187
X9.76 Y10.813
X10.004 Y10.468
X10.292 Y10.158
X10.618 Y9.888
X10.978 Y9.663
X11.363 Y9.488
X11.769 Y9.365
X12.188 Y9.296
X12.612 Y9.283
X13.034 Y9.326
X13.447 Y9.424
X13.844 Y9.575
X14.217 Y9.778
X14.56 Y10.028
X14.867 Y10.321
X15.134 Y10.651
X15.467 Y11.2
X15.756 Y11.774
X15.989 Y12.343
X16.125 Y12.866
X16.187 Y13.364
X16.183 Y13.846
X16.117 Y14.318
X15.989 Y14.777
X15.8 Y15.219
X15.551 Y15.639
X15.243 Y16.028
X14.88 Y16.381
X14.463 Y16.69
X13.996 Y16.949
X13.486 Y17.15
X12.94 Y17.285
X12.367 Y17.349
X11.779 Y17.336
X11.187 Y17.245
X10.601 Y17.073
X10.035 Y16.822
X9.5 Y16.494
X9.007 Y16.094
X8.567 Y15.629
X8.192 Y15.108
X7.887 Y14.543
X7.658 Y13.943
X7.509 Y13.318
X7.442 Y12.679
X7.456 Y12.037
X7.553 Y11.403
X7.73 Y10.785
X7.984 Y10.196
X8.312 Y9.643
X8.706 Y9.136
X9.162 Y8.684
X9.672 Y8.293
X10.226 Y7.97
X10.818 Y7.719
X11.436 Y7.545
X12.071 Y7.451
X12.713 Y7.437
X13.352 Y7.505
X13.976 Y7.653
X14.578 Y7.879
X15.146 Y8.179
X15.671 Y8.548
X16.146 Y8.981
X16.568 Y9.465
X16.94 Y9.988
X17.267 Y10.541
X17.548 Y11.118
X17.775 Y11.719
X17.941 Y12.339
X18.04 Y12.974
X18.067 Y13.615
X18.02 Y14.256
X17.925 Y14.75
X17.916 Y14.781
X17.874 Y14.901
X17.821 Y15.046
X17.811 Y15.069
X17.736 Y15.192
X17.141 Y16.138
X17.116 Y16.174
X17.083 Y16.211
X16.21 Y17.084
X16.174 Y17.116
X16.138 Y17.141
X15.192 Y17.736
X15.069 Y17.811
X15.046 Y17.821
X14.901 Y17.874
X13.832 Y18.248
X13.737 Y18.263
X12.573 Y18.394
X12.5 Y18.4
X12.417 Y18.393
X11.263 Y18.263
X11.168 Y18.248
X10.099 Y17.874
X9.954 Y17.821
X9.931 Y17.811
X9.808 Y17.736
X8.862 Y17.141
X8.826 Y17.116
X8.789 Y17.083
X7.916 Y16.21
X7.884 Y16.174
X7.859 Y16.138
X7.264 Y15.192
X7.189 Y15.069
X7.179 Y15.046
X7.126 Y14.901
X6.77 Y13.882
X6.752 Y13.832
X6.737 Y13.737
X6.606 Y12.573
X6.6 Y12.5
X6.607 Y12.417
X6.737 Y11.263
X6.752 Y11.168
X7.075 Y10.245
X7.126 Y10.099
X7.179 Y9.954
X7.189 Y9.931
X7.264 Y9.808
X7.859 Y8.862
X7.884 Y8.826
X7.917 Y8.789
X8.79 Y7.916
X8.826 Y7.884
X8.862 Y7.859
X9.808 Y7.264
X9.931 Y7.189
X9.954 Y7.179
X10.099 Y7.126
X11.118 Y6.77
X11.168 Y6.752
X11.263 Y6.737
X12.427 Y6.606
X12.5 Y6.6
X12.583 Y6.607
X13.737 Y6.737
X13.832 Y6.752
X14.755 Y7.075
X14.901 Y7.126
X15.046 Y7.179
X15.069 Y7.189
X15.192 Y7.264
X16.138 Y7.859
X16.174 Y7.884
X16.211 Y7.917
X17.084 Y8.79
X17.116 Y8.826
X17.141 Y8.862
X17.736 Y9.808
X17.811 Y9.931
X17.821 Y9.954
X17.874 Y10.099
X18.248 Y11.168
X18.263 Y11.263
X18.394 Y12.427
X18.4 Y12.5
X18.393 Y12.583
X18.263 Y13.737
X18.248 Y13.832
X17.916 Y14.781
G3 X17.621 Y14.983 I-0.296 J-0.115
G1 X17.62
X17.577 Y14.98
X17.534 Y14.971
X17.487 Y14.944 Z-1.995
X17.442 Y14.917 Z-1.981
X17.399 Y14.893 Z-1.958
X17.373 Y14.851 Z-1.922
X17.351 Y14.815 Z-1.878
X17.334 Y14.788 Z-1.827
X17.323 Y14.769 Z-1.771
X17.317 Y14.759 Z-1.711
Y14.758 Z-1.683
Z5
X13.976 Y13.077
Z0.5
G3 X11.38 Y13.621 Z0.39 I-1.476 J-0.577 F500
X11.921 Y11.028 Z0.28 I1.119 J-1.12
X14.078 Y12.561 Z0.171 I0.577 J1.472
X11.811 Y13.921 Z0.061 I-1.578 J-0.062
X11.474 Y11.302 Z-0.049 I0.688 J-1.419
X14.005 Y12.042 Z-0.159 I1.023 J1.198
X12.315 Y14.062 Z-0.268 I-1.506 J0.457
X11.143 Y11.707 Z-0.378 I0.184 J-1.561
X13.767 Y11.578 Z-0.488 I1.354 J0.793
X12.836 Y14.03 Z-0.598 I-1.268 J0.922
X10.964 Y12.196 Z-0.707 I-0.336 J-1.529
X13.392 Y11.218 Z-0.817 I1.534 J0.305
X13.315 Y13.831 Z-0.927 I-0.893 J1.282
X10.955 Y12.715 Z-1.037 I-0.815 J-1.33
X12.921 Y11.001 Z-1.146 I1.543 J-0.214
X13.702 Y13.486 Z-1.256 I-0.422 J1.498
X11.115 Y13.206 Z-1.366 I-1.202 J-0.986
X12.407 Y10.952 Z-1.476 I1.383 J-0.705
X13.953 Y13.036 Z-1.585 I0.092 J1.548
X11.427 Y13.616 Z-1.695 I-1.453 J-0.536
X11.907 Y11.073 Z-1.805 I1.072 J-1.115
X14.042 Y12.53 Z-1.915 I0.591 J1.427
X11.854 Y13.901 Z-2.024 I-1.542 J-0.03
X11.475 Y11.35 Z-2.134 I0.645 J-1.399
X13.961 Y12.024 Z-2.244 I1.022 J1.15
X12.349 Y14.029 Z-2.354 I-1.462 J0.475
X11.16 Y11.751 Z-2.463 I0.15 J-1.528
X13.72 Y11.575 Z-2.573 I1.338 J0.749
X12.857 Y13.988 Z-2.683 I-1.221 J0.924
X10.994 Y12.232 Z-2.793 I-0.357 J-1.487
X13.346 Y11.231 Z-2.902 I1.504 J0.268
X13.321 Y13.784 Z-3.012 I-0.847 J1.268
X10.995 Y12.739 Z-3.122 I-0.822 J-1.283
X12.882 Y11.029 Z-3.232 I1.503 J-0.238
X13.692 Y13.44 Z-3.341 I-0.384 J1.471
X11.161 Y13.216 Z-3.451 I-1.192 J-0.94
X12.379 Y10.99 Z-3.561 I1.337 J-0.715
X13.929 Y12.995 Z-3.671 I0.119 J1.509
X11.474 Y13.61 Z-3.78 I-1.429 J-0.495
X11.893 Y11.118 Z-3.89 I1.025 J-1.109
X14.006 Y12.5 Z-4 I0.604 J1.382
X10.99 Y12.5 I-1.508 J0
X14.006 Y12.5 I1.508 J0
G1 X14.008 Y12.58 F1000
X14.224 Y13.185
X14.302 Y13.313
X14.356 Y13.453
X14.387 Y13.6
X14.398 Y13.758
X14.387 Y13.932
X14.351 Y14.118
X14.286 Y14.312
X14.188 Y14.51
X14.056 Y14.707
X13.889 Y14.898
X13.685 Y15.075
X13.447 Y15.234
X13.175 Y15.366
X12.874 Y15.466
X12.548 Y15.529
X12.204 Y15.549
X11.847 Y15.522
X11.487 Y15.447
X11.13 Y15.321
X10.786 Y15.146
X10.462 Y14.924
X10.166 Y14.656
X9.904 Y14.348
X9.683 Y14.005
X9.508 Y13.633
X9.382 Y13.238
X9.309 Y12.828
X9.29 Y12.411
X9.327 Y11.993
X9.419 Y11.583
X9.564 Y11.187
X9.76 Y10.813
X10.004 Y10.468
X10.292 Y10.158
X10.618 Y9.888
X10.978 Y9.664
X11.364 Y9.488
X11.769 Y9.365
X12.188 Y9.296
X12.612 Y9.283
X13.034 Y9.326
X13.447 Y9.424
X13.844 Y9.575
X14.217 Y9.778
X14.56 Y10.028
X14.868 Y10.321
X15.134 Y10.652
X15.467 Y11.2
X15.756 Y11.774
X15.989 Y12.343
X16.126 Y12.866
X16.188 Y13.364
X16.184 Y13.846
X16.117 Y14.318
X15.989 Y14.777
X15.8 Y15.22
X15.551 Y15.639
X15.244 Y16.028
X14.88 Y16.381
X14.463 Y16.691
X13.996 Y16.95
X13.486 Y17.15
X12.94 Y17.285
X12.368 Y17.349
X11.78 Y17.336
X11.187 Y17.245
X10.601 Y17.073
X10.035 Y16.822
X9.5 Y16.494
X9.007 Y16.094
X8.568 Y15.629
X8.192 Y15.108
X7.887 Y14.543
X7.659 Y13.943
X7.509 Y13.318
X7.442 Y12.68
X7.457 Y12.038
X7.553 Y11.403
X7.73 Y10.785
X7.985 Y10.196
X8.312 Y9.643
X8.707 Y9.137
X9.162 Y8.684
X9.672 Y8.293
X10.226 Y7.97
X10.818 Y7.719
X11.436 Y7.545
X12.071 Y7.451
X12.713 Y7.437
X13.352 Y7.505
X13.977 Y7.653
X14.578 Y7.879
X15.146 Y8.179
X15.671 Y8.548
X16.146 Y8.981
X16.568 Y9.465
X16.94 Y9.988
X17.267 Y10.541
X17.548 Y11.118
X17.775 Y11.719
X17.942 Y12.339
X18.04 Y12.974
X18.067 Y13.616
X18.02 Y14.256
X17.925 Y14.749
X17.917 Y14.779
X17.874 Y14.901
X17.821 Y15.046
X17.811 Y15.069
X17.736 Y15.192
X17.141 Y16.138
X17.116 Y16.174
X17.083 Y16.211
X16.21 Y17.084
X16.174 Y17.116
X16.138 Y17.141
X15.192 Y17.736
X15.069 Y17.811
X15.046 Y17.821
X14.901 Y17.874
X13.832 Y18.248
X13.737 Y18.263
X12.573 Y18.394
X12.5 Y18.4
X12.417 Y18.393
X11.263 Y18.263
X11.168 Y18.248
X10.099 Y17.874
X9.954 Y17.821
X9.931 Y17.811
X9.808 Y17.736
X8.862 Y17.141
X8.826 Y17.116
X8.789 Y17.083
X7.916 Y16.21
X7.884 Y16.174
X7.859 Y16.138
X7.264 Y15.192
X7.189 Y15.069
X7.179 Y15.046
X7.126 Y14.901
X6.77 Y13.882
X6.752 Y13.832
X6.737 Y13.737
X6.606 Y12.573
X6.6 Y12.5
X6.607 Y12.417
X6.737 Y11.263
X6.752 Y11.168
X7.075 Y10.245
X7.126 Y10.099
X7.179 Y9.954
X7.189 Y9.931
X7.264 Y9.808
X7.859 Y8.862
X7.884 Y8.826
X7.917 Y8.789
X8.79 Y7.916
X8.826 Y7.884
X8.862 Y7.859
X9.808 Y7.264
X9.931 Y7.189
X9.954 Y7.179
X10.099 Y7.126
X11.118 Y6.77
X11.168 Y6.752
X11.263 Y6.737
X12.427 Y6.606
X12.5 Y6.6
X12.583 Y6.607
X13.737 Y6.737
X13.832 Y6.752
X14.755 Y7.075
X14.901 Y7.126
X15.046 Y7.179
X15.069 Y7.189
X15.192 Y7.264
X16.138 Y7.859
X16.174 Y7.884
X16.211 Y7.917
X17.084 Y8.79
X17.116 Y8.826
X17.141 Y8.862
X17.736 Y9.808
X17.811 Y9.931
X17.821 Y9.954
X17.874 Y10.099
X18.248 Y11.168
X18.263 Y11.263
X18.394 Y12.427
X18.4 Y12.5
X18.393 Y12.583
X18.263 Y13.737
X18.248 Y13.832
X17.917 Y14.779
G3 X17.621 Y14.981 I-0.296 J-0.115
G1 X17.577 Y14.978
X17.535 Y14.97
X17.488 Y14.942 Z-3.995
X17.442 Y14.916 Z-3.981
X17.399 Y14.891 Z-3.958
X17.373 Y14.849 Z-3.922
X17.352 Y14.814 Z-3.878
X17.335 Y14.786 Z-3.827
X17.323 Y14.767 Z-3.771
X17.317 Y14.758 Z-3.711
Y14.757 Z-3.683
Z5
X13.976 Y13.077
Z-1.5
G3 X11.38 Y13.621 Z-1.61 I-1.476 J-0.577 F500
X11.921 Y11.028 Z-1.72 I1.119 J-1.12
X14.078 Y12.561 Z-1.829 I0.577 J1.472
X11.811 Y13.921 Z-1.939 I-1.578 J-0.062
X11.474 Y11.302 Z-2.049 I0.688 J-1.419
X14.005 Y12.042 Z-2.159 I1.023 J1.198
X12.315 Y14.062 Z-2.268 I-1.506 J0.457
X11.143 Y11.707 Z-2.378 I0.184 J-1.561
X13.767 Y11.578 Z-2.488 I1.354 J0.793
X12.836 Y14.03 Z-2.598 I-1.268 J0.922
X10.964 Y12.196 Z-2.707 I-0.336 J-1.529
X13.392 Y11.218 Z-2.817 I1.534 J0.305
X13.315 Y13.831 Z-2.927 I-0.893 J1.282
X10.955 Y12.715 Z-3.037 I-0.815 J-1.33
X12.921 Y11.001 Z-3.146 I1.543 J-0.214
X13.702 Y13.486 Z-3.256 I-0.422 J1.498
X11.115 Y13.206 Z-3.366 I-1.202 J-0.986
X12.407 Y10.952 Z-3.476 I1.383 J-0.705
X13.953 Y13.036 Z-3.585 I0.092 J1.548
X11.427 Y13.616 Z-3.695 I-1.453 J-0.536
X11.907 Y11.073 Z-3.805 I1.072 J-1.115
X14.042 Y12.53 Z-3.915 I0.591 J1.427
X11.854 Y13.901 Z-4.024 I-1.542 J-0.03
X11.475 Y11.35 Z-4.134 I0.645 J-1.399
X13.961 Y12.024 Z-4.244 I1.022 J1.15
X12.349 Y14.029 Z-4.354 I-1.462 J0.475
X11.16 Y11.751 Z-4.463 I0.15 J-1.528
X13.72 Y11.575 Z-4.573 I1.338 J0.749
X12.857 Y13.988 Z-4.683 I-1.221 J0.924
X10.994 Y12.232 Z-4.793 I-0.357 J-1.487
X13.346 Y11.231 Z-4.902 I1.504 J0.268
X13.321 Y13.784 Z-5.012 I-0.847 J1.268
X10.995 Y12.739 Z-5.122 I-0.822 J-1.283
X12.882 Y11.029 Z-5.232 I1.503 J-0.238
X13.692 Y13.44 Z-5.341 I-0.384 J1.471
X11.161 Y13.216 Z-5.451 I-1.192 J-0.94
X12.379 Y10.99 Z-5.561 I1.337 J-0.715
X13.929 Y12.995 Z-5.671 I0.119 J1.509
X11.474 Y13.61 Z-5.78 I-1.429 J-0.495
X11.893 Y11.118 Z-5.89 I1.025 J-1.109
X14.006 Y12.5 Z-6 I0.604 J1.382
X10.99 Y12.5 I-1.508 J0
X14.006 Y12.5 I1.508 J0
G1 X14.008 Y12.58 F1000
X14.224 Y13.185
X14.302 Y13.313
X14.355 Y13.453
X14.387 Y13.6
X14.398 Y13.758
X14.387 Y13.932
X14.351 Y14.118
X14.286 Y14.312
X14.188 Y14.51
X14.056 Y14.707
X13.889 Y14.898
X13.685 Y15.075
X13.447 Y15.234
X13.175 Y15.366
X12.874 Y15.466
X12.548 Y15.529
X12.203 Y15.549
X11.847 Y15.522
X11.487 Y15.447
X11.13 Y15.321
X10.786 Y15.146
X10.462 Y14.924
X10.166 Y14.656
X9.904 Y14.348
X9.683 Y14.005
X9.507 Y13.633
X9.382 Y13.238
X9.309 Y12.828
X9.29 Y12.411
X9.327 Y11.993
X9.419 Y11.583
X9.564 Y11.187
X9.76 Y10.813
X10.004 Y10.468
X10.292 Y10.158
X10.618 Y9.888
X10.978 Y9.664
X11.364 Y9.488
X11.769 Y9.365
X12.188 Y9.296
X12.612 Y9.283
X13.034 Y9.326
X13.447 Y9.424
X13.844 Y9.575
X14.217 Y9.778
X14.56 Y10.028
X14.868 Y10.321
X15.134 Y10.652
X15.467 Y11.2
X15.756 Y11.774
X15.989 Y12.343
X16.126 Y12.866
X16.188 Y13.364
X16.184 Y13.846
X16.117 Y14.318
X15.989 Y14.777
X15.8 Y15.22
X15.551 Y15.639
X15.244 Y16.028
X14.88 Y16.381
X14.463 Y16.69
X13.996 Y16.95
X13.486 Y17.15
X12.94 Y17.285
X12.368 Y17.349
X11.78 Y17.336
X11.187 Y17.245
X10.601 Y17.073
X10.035 Y16.822
X9.5 Y16.494
X9.007 Y16.094
X8.568 Y15.629
X8.192 Y15.108
X7.887 Y14.543
X7.659 Y13.943
X7.509 Y13.318
X7.442 Y12.68
X7.457 Y12.038
X7.553 Y11.403
X7.73 Y10.785
X7.985 Y10.196
X8.312 Y9.643
X8.706 Y9.137
X9.162 Y8.684
X9.672 Y8.293
X10.226 Y7.97
X10.818 Y7.719
X11.436 Y7.545
X12.071 Y7.451
X12.713 Y7.437
X13.352 Y7.505
X13.977 Y7.653
X14.578 Y7.879
X15.146 Y8.179
X15.671 Y8.548
X16.146 Y8.981
X16.568 Y9.465
X16.94 Y9.988
X17.267 Y10.541
X17.548 Y11.118
X17.775 Y11.719
X17.941 Y12.339
X18.04 Y12.974
X18.067 Y13.616
X18.02 Y14.256
X17.925 Y14.749
X17.916 Y14.779
X17.874 Y14.901
X17.821 Y15.046
X17.811 Y15.069
X17.736 Y15.192
X17.141 Y16.138
X17.116 Y16.174
X17.083 Y16.211
X16.21 Y17.084
X16.174 Y17.116
X16.138 Y17.141
X15.192 Y17.736
X15.069 Y17.811
X15.046 Y17.821
X14.901 Y17.874
X13.832 Y18.248
X13.737 Y18.263
X12.573 Y18.394
X12.5 Y18.4
X12.417 Y18.393
X11.263 Y18.263
X11.168 Y18.248
X10.099 Y17.874
X9.954 Y17.821
X9.931 Y17.811
X9.808 Y17.736
X8.862 Y17.141
X8.826 Y17.116
X8.789 Y17.083
X7.916 Y16.21
X7.884 Y16.174
X7.859 Y16.138
X7.264 Y15.192
X7.189 Y15.069
X7.179 Y15.046
X7.126 Y14.901
X6.77 Y13.882
X6.752 Y13.832
X6.737 Y13.737
X6.606 Y12.573
X6.6 Y12.5
X6.607 Y12.417
X6.737 Y11.263
X6.752 Y11.168
X7.075 Y10.245
X7.126 Y10.099
X7.179 Y9.954
X7.189 Y9.931
X7.264 Y9.808
X7.859 Y8.862
X7.884 Y8.826
X7.917 Y8.789
X8.79 Y7.916
X8.826 Y7.884
X8.862 Y7.859
X9.808 Y7.264
X9.931 Y7.189
X9.954 Y7.179
X10.099 Y7.126
X11.118 Y6.77
X11.168 Y6.752
X11.263 Y6.737
X12.427 Y6.606
X12.5 Y6.6
X12.583 Y6.607
X13.737 Y6.737
X13.832 Y6.752
X14.755 Y7.075
X14.901 Y7.126
X15.046 Y7.179
X15.069 Y7.189
X15.192 Y7.264
X16.138 Y7.859
X16.174 Y7.884
X16.211 Y7.917
X17.084 Y8.79
X17.116 Y8.826
X17.141 Y8.862
X17.736 Y9.808
X17.811 Y9.931
X17.821 Y9.954
X17.874 Y10.099
X18.248 Y11.168
X18.263 Y11.263
X18.394 Y12.427
X18.4 Y12.5
X18.393 Y12.583
X18.263 Y13.737
X18.248 Y13.832
X17.916 Y14.779
G3 X17.621 Y14.982 I-0.296 J-0.115
G1 X17.577 Y14.979
X17.535 Y14.97
X17.488 Y14.943 Z-5.995
X17.442 Y14.916 Z-5.981
X17.399 Y14.892 Z-5.958
X17.373 Y14.85 Z-5.922
X17.352 Y14.814 Z-5.878
X17.335 Y14.786 Z-5.827
X17.323 Y14.768 Z-5.771
X17.317 Y14.758 Z-5.711
Y14.757 Z-5.682
Z5
X13.976 Y13.077
Z-3.5
G3 X11.38 Y13.621 Z-3.61 I-1.476 J-0.577 F500
X11.921 Y11.027 Z-3.72 I1.119 J-1.12
X14.078 Y12.561 Z-3.829 I0.577 J1.472
X11.811 Y13.921 Z-3.939 I-1.578 J-0.062
X11.475 Y11.302 Z-4.049 I0.688 J-1.419
X14.005 Y12.042 Z-4.159 I1.023 J1.198
X12.315 Y14.062 Z-4.268 I-1.506 J0.457
X11.144 Y11.707 Z-4.378 I0.184 J-1.561
X13.767 Y11.577 Z-4.488 I1.354 J0.793
X12.836 Y14.03 Z-4.598 I-1.268 J0.922
X10.964 Y12.196 Z-4.707 I-0.336 J-1.529
X13.392 Y11.218 Z-4.817 I1.534 J0.305
X13.315 Y13.831 Z-4.927 I-0.893 J1.282
X10.955 Y12.715 Z-5.037 I-0.815 J-1.33
X12.921 Y11.001 Z-5.146 I1.543 J-0.214
X13.702 Y13.486 Z-5.256 I-0.422 J1.498
X11.115 Y13.206 Z-5.366 I-1.202 J-0.986
X12.407 Y10.952 Z-5.476 I1.383 J-0.705
X13.953 Y13.036 Z-5.585 I0.092 J1.548
X11.427 Y13.616 Z-5.695 I-1.453 J-0.536
X11.907 Y11.073 Z-5.805 I1.072 J-1.115
X14.042 Y12.53 Z-5.915 I0.591 J1.427
X11.854 Y13.901 Z-6.024 I-1.542 J-0.03
X11.476 Y11.35 Z-6.134 I0.645 J-1.399
X13.961 Y12.024 Z-6.244 I1.022 J1.15
X12.349 Y14.029 Z-6.354 I-1.462 J0.475
X11.16 Y11.751 Z-6.463 I0.15 J-1.528
X13.72 Y11.575 Z-6.573 I1.338 J0.749
X12.857 Y13.988 Z-6.683 I-1.221 J0.924
X10.994 Y12.232 Z-6.793 I-0.357 J-1.487
X13.346 Y11.231 Z-6.902 I1.504 J0.268
X13.322 Y13.784 Z-7.012 I-0.847 J1.268
X10.995 Y12.739 Z-7.122 I-0.822 J-1.283
X12.882 Y11.029 Z-7.232 I1.503 J-0.238
X13.692 Y13.44 Z-7.341 I-0.384 J1.471
X11.162 Y13.216 Z-7.451 I-1.192 J-0.94
X12.38 Y10.99 Z-7.561 I1.337 J-0.715
X13.929 Y12.995 Z-7.671 I0.119 J1.509
X11.474 Y13.61 Z-7.78 I-1.429 J-0.495
X11.894 Y11.118 Z-7.89 I1.025 J-1.109
X14.006 Y12.5 Z-8 I0.604 J1.382
X10.99 Y12.5 I-1.508 J0
X14.006 Y12.5 I1.508 J0
G1 X14.008 Y12.58 F1000
X14.225 Y13.185
X14.302 Y13.313
X14.356 Y13.453
X14.387 Y13.6
X14.398 Y13.758
X14.388 Y13.932
X14.351 Y14.118
X14.286 Y14.312
X14.188 Y14.51
X14.057 Y14.707
X13.889 Y14.898
X13.686 Y15.075
X13.447 Y15.234
X13.175 Y15.366
X12.874 Y15.466
X12.548 Y15.529
X12.204 Y15.549
X11.847 Y15.522
X11.487 Y15.447
X11.13 Y15.321
X10.786 Y15.146
X10.462 Y14.924
X10.166 Y14.656
X9.904 Y14.348
X9.683 Y14.005
X9.508 Y13.633
X9.382 Y13.238
X9.309 Y12.828
X9.291 Y12.411
X9.327 Y11.993
X9.419 Y11.582
X9.564 Y11.187
X9.761 Y10.813
X10.005 Y10.468
X10.292 Y10.158
X10.619 Y9.888
X10.978 Y9.664
X11.364 Y9.488
X11.77 Y9.365
X12.188 Y9.296
X12.612 Y9.283
X13.034 Y9.326
X13.447 Y9.424
X13.844 Y9.575
X14.217 Y9.778
X14.56 Y10.028
X14.868 Y10.321
X15.134 Y10.651
X15.467 Y11.2
X15.756 Y11.774
X15.989 Y12.343
X16.126 Y12.866
X16.188 Y13.364
X16.184 Y13.846
X16.117 Y14.318
X15.989 Y14.777
X15.8 Y15.219
X15.551 Y15.639
X15.244 Y16.028
X14.881 Y16.381
X14.463 Y16.69
X13.996 Y16.95
X13.486 Y17.15
X12.94 Y17.285
X12.368 Y17.349
X11.78 Y17.336
X11.187 Y17.245
X10.602 Y17.073
X10.035 Y16.822
X9.5 Y16.494
X9.008 Y16.094
X8.568 Y15.629
X8.192 Y15.108
X7.887 Y14.543
X7.659 Y13.943
X7.51 Y13.318
X7.442 Y12.68
X7.457 Y12.038
X7.554 Y11.403
X7.731 Y10.785
X7.985 Y10.196
X8.312 Y9.643
X8.707 Y9.136
X9.163 Y8.684
X9.672 Y8.293
X10.227 Y7.97
X10.818 Y7.719
X11.436 Y7.545
X12.071 Y7.451
X12.713 Y7.437
X13.352 Y7.505
X13.977 Y7.653
X14.578 Y7.879
X15.146 Y8.179
X15.671 Y8.548
X16.146 Y8.981
X16.568 Y9.465
X16.94 Y9.988
X17.267 Y10.541
X17.548 Y11.118
X17.775 Y11.719
X17.942 Y12.339
X18.04 Y12.974
X18.067 Y13.615
X18.02 Y14.256
X17.926 Y14.748
X17.917 Y14.778
X17.874 Y14.901
X17.821 Y15.046
X17.811 Y15.069
X17.736 Y15.192
X17.141 Y16.138
X17.116 Y16.174
X17.083 Y16.211
X16.21 Y17.084
X16.174 Y17.116
X16.138 Y17.141
X15.192 Y17.736
X15.069 Y17.811
X15.046 Y17.821
X14.901 Y17.874
X13.832 Y18.248
X13.737 Y18.263
X12.573 Y18.394
X12.5 Y18.4
X12.417 Y18.393
X11.263 Y18.263
X11.168 Y18.248
X10.099 Y17.874
X9.954 Y17.821
X9.931 Y17.811
X9.808 Y17.736
X8.862 Y17.141
X8.826 Y17.116
X8.789 Y17.083
X7.916 Y16.21
X7.884 Y16.174
X7.859 Y16.138
X7.264 Y15.192
X7.189 Y15.069
X7.179 Y15.046
X7.126 Y14.901
X6.77 Y13.882
X6.752 Y13.832
X6.737 Y13.737
X6.606 Y12.573
X6.6 Y12.5
X6.607 Y12.417
X6.737 Y11.263
X6.752 Y11.168
X7.075 Y10.245
X7.126 Y10.099
X7.179 Y9.954
X7.189 Y9.931
X7.264 Y9.808
X7.859 Y8.862
X7.884 Y8.826
X7.917 Y8.789
X8.79 Y7.916
X8.826 Y7.884
X8.862 Y7.859
X9.808 Y7.264
X9.931 Y7.189
X9.954 Y7.179
X10.099 Y7.126
X11.118 Y6.77
X11.168 Y6.752
X11.263 Y6.737
X12.427 Y6.606
X12.5 Y6.6
X12.583 Y6.607
X13.737 Y6.737
X13.832 Y6.752
X14.755 Y7.075
X14.901 Y7.126
X15.046 Y7.179
X15.069 Y7.189
X15.192 Y7.264
X16.138 Y7.859
X16.174 Y7.884
X16.211 Y7.917
X17.084 Y8.79
X17.116 Y8.826
X17.141 Y8.862
X17.736 Y9.808
X17.811 Y9.931
X17.821 Y9.954
X17.874 Y10.099
X18.248 Y11.168
X18.263 Y11.263
X18.394 Y12.427
X18.4 Y12.5
X18.393 Y12.583
X18.263 Y13.737
X18.248 Y13.832
X17.917 Y14.778
G3 X17.622 Y14.98 I-0.296 J-0.115
G1 X17.621
X17.578 Y14.977
X17.535 Y14.968
X17.488 Y14.941 Z-7.995
X17.442 Y14.915 Z-7.981
X17.4 Y14.89 Z-7.958
X17.374 Y14.848 Z-7.922
X17.352 Y14.813 Z-7.878
X17.335 Y14.785 Z-7.827
X17.324 Y14.766 Z-7.771
X17.318 Y14.757 Z-7.711
X17.317 Y14.755 Z-7.682
Z5
X13.976 Y13.077
Z-5.5
G3 X11.38 Y13.621 Z-5.61 I-1.476 J-0.577 F500
X11.921 Y11.028 Z-5.72 I1.119 J-1.12
X14.078 Y12.561 Z-5.829 I0.577 J1.472
X11.811 Y13.921 Z-5.939 I-1.578 J-0.062
X11.475 Y11.303 Z-6.049 I0.688 J-1.419
X14.005 Y12.043 Z-6.159 I1.023 J1.198
X12.315 Y14.062 Z-6.268 I-1.506 J0.457
X11.144 Y11.707 Z-6.378 I0.184 J-1.561
X13.767 Y11.578 Z-6.488 I1.354 J0.793
X12.836 Y14.031 Z-6.598 I-1.268 J0.922
X10.964 Y12.196 Z-6.707 I-0.336 J-1.529
X13.392 Y11.218 Z-6.817 I1.534 J0.305
X13.315 Y13.831 Z-6.927 I-0.893 J1.282
X10.955 Y12.715 Z-7.037 I-0.815 J-1.33
X12.921 Y11.002 Z-7.146 I1.543 J-0.214
X13.702 Y13.486 Z-7.256 I-0.422 J1.498
X11.115 Y13.207 Z-7.366 I-1.202 J-0.986
X12.407 Y10.952 Z-7.476 I1.383 J-0.705
X13.953 Y13.036 Z-7.585 I0.092 J1.548
X11.427 Y13.617 Z-7.695 I-1.453 J-0.536
X11.907 Y11.073 Z-7.805 I1.072 J-1.115
X14.042 Y12.53 Z-7.915 I0.591 J1.427
X11.854 Y13.901 Z-8.024 I-1.542 J-0.03
X11.476 Y11.35 Z-8.134 I0.645 J-1.399
X13.961 Y12.025 Z-8.244 I1.022 J1.15
X12.349 Y14.029 Z-8.354 I-1.462 J0.475
X11.16 Y11.752 Z-8.463 I0.15 J-1.528
X13.72 Y11.575 Z-8.573 I1.338 J0.749
X12.857 Y13.988 Z-8.683 I-1.221 J0.924
X10.994 Y12.233 Z-8.793 I-0.357 J-1.487
X13.346 Y11.231 Z-8.902 I1.504 J0.268
X13.322 Y13.784 Z-9.012 I-0.847 J1.268
X10.995 Y12.739 Z-9.122 I-0.822 J-1.283
X12.882 Y11.029 Z-9.232 I1.503 J-0.238
X13.692 Y13.44 Z-9.341 I-0.384 J1.471
X11.162 Y13.216 Z-9.451 I-1.192 J-0.94
X12.38 Y10.99 Z-9.561 I1.337 J-0.715
X13.929 Y12.996 Z-9.671 I0.119 J1.509
X11.474 Y13.611 Z-9.78 I-1.429 J-0.495
X11.894 Y11.118 Z-9.89 I1.025 J-1.109
X14.006 Y12.5 Z-10 I0.604 J1.382
X10.99 Y12.5 I-1.508 J0
X14.006 Y12.5 I1.508 J0
G1 X14.008 Y12.58 F1000
X14.225 Y13.185
X14.302 Y13.313
X14.356 Y13.453
X14.387 Y13.6
X14.398 Y13.759
X14.387 Y13.932
X14.351 Y14.118
X14.286 Y14.312
X14.188 Y14.51
X14.057 Y14.707
X13.889 Y14.898
X13.686 Y15.076
X13.447 Y15.234
X13.175 Y15.366
X12.874 Y15.467
X12.548 Y15.529
X12.204 Y15.549
X11.847 Y15.523
X11.487 Y15.447
X11.13 Y15.322
X10.786 Y15.147
X10.462 Y14.924
X10.166 Y14.656
X9.904 Y14.348
X9.683 Y14.005
X9.508 Y13.633
X9.382 Y13.238
X9.309 Y12.829
X9.291 Y12.411
X9.327 Y11.993
X9.419 Y11.583
X9.564 Y11.187
X9.761 Y10.814
X10.005 Y10.469
X10.292 Y10.158
X10.619 Y9.888
X10.978 Y9.664
X11.364 Y9.488
X11.77 Y9.365
X12.188 Y9.296
X12.612 Y9.283
X13.034 Y9.326
X13.447 Y9.424
X13.844 Y9.576
X14.217 Y9.778
X14.56 Y10.028
X14.868 Y10.321
X15.134 Y10.652
X15.467 Y11.201
X15.756 Y11.774
X15.989 Y12.344
X16.126 Y12.866
X16.188 Y13.364
X16.184 Y13.847
X16.117 Y14.318
X15.989 Y14.778
X15.8 Y15.22
X15.551 Y15.639
X15.244 Y16.028
X14.881 Y16.381
X14.463 Y16.691
X13.996 Y16.95
X13.486 Y17.151
X12.94 Y17.286
X12.368 Y17.349
X11.78 Y17.337
X11.187 Y17.245
X10.602 Y17.073
X10.035 Y16.822
X9.5 Y16.494
X9.008 Y16.095
X8.568 Y15.629
X8.192 Y15.109
X7.887 Y14.543
X7.659 Y13.943
X7.51 Y13.318
X7.442 Y12.68
X7.457 Y12.038
X7.554 Y11.403
X7.731 Y10.786
X7.985 Y10.196
X8.312 Y9.643
X8.707 Y9.137
X9.162 Y8.684
X9.672 Y8.293
X10.227 Y7.97
X10.818 Y7.719
X11.436 Y7.545
X12.071 Y7.451
X12.713 Y7.438
X13.352 Y7.506
X13.977 Y7.654
X14.578 Y7.879
X15.146 Y8.179
X15.671 Y8.549
X16.146 Y8.981
X16.568 Y9.465
X16.94 Y9.988
X17.267 Y10.541
X17.548 Y11.119
X17.775 Y11.719
X17.942 Y12.34
X18.04 Y12.974
X18.067 Y13.616
X18.02 Y14.256
X17.926 Y14.748
X17.917 Y14.778
X17.874 Y14.901
X17.821 Y15.046
X17.811 Y15.069
X17.736 Y15.192
X17.141 Y16.138
X17.116 Y16.174
X17.083 Y16.211
X16.21 Y17.084
X16.174 Y17.116
X16.138 Y17.141
X15.192 Y17.736
X15.069 Y17.811
X15.046 Y17.821
X14.901 Y17.874
X13.832 Y18.248
X13.737 Y18.263
X12.573 Y18.394
X12.5 Y18.4
X12.417 Y18.393
X11.263 Y18.263
X11.168 Y18.248
X10.099 Y17.874
X9.954 Y17.821
X9.931 Y17.811
X9.808 Y17.736
X8.862 Y17.141
X8.826 Y17.116
X8.789 Y17.083
X7.916 Y16.21
X7.884 Y16.174
X7.859 Y16.138
X7.264 Y15.192
X7.189 Y15.069
X7.179 Y15.046
X7.126 Y14.901
X6.77 Y13.882
X6.752 Y13.832
X6.737 Y13.737
X6.606 Y12.573
X6.6 Y12.5
X6.607 Y12.417
X6.737 Y11.263
X6.752 Y11.168
X7.075 Y10.245
X7.126 Y10.099
X7.179 Y9.954
X7.189 Y9.931
X7.264 Y9.808
X7.859 Y8.862
X7.884 Y8.826
X7.917 Y8.789
X8.79 Y7.916
X8.826 Y7.884
X8.862 Y7.859
X9.808 Y7.264
X9.931 Y7.189
X9.954 Y7.179
X10.099 Y7.126
X11.118 Y6.77
X11.168 Y6.752
X11.263 Y6.737
X12.427 Y6.606
X12.5 Y6.6
X12.583 Y6.607
X13.737 Y6.737
X13.832 Y6.752
X14.755 Y7.075
X14.901 Y7.126
X15.046 Y7.179
X15.069 Y7.189
X15.192 Y7.264
X16.138 Y7.859
X16.174 Y7.884
X16.211 Y7.917
X17.084 Y8.79
X17.116 Y8.826
X17.141 Y8.862
X17.736 Y9.808
X17.811 Y9.931
X17.821 Y9.954
X17.874 Y10.099
X18.248 Y11.168
X18.263 Y11.263
X18.394 Y12.427
X18.4 Y12.5
X18.393 Y12.583
X18.263 Y13.737
X18.248 Y13.832
X17.917 Y14.778
G3 X17.622 Y14.98 I-0.296 J-0.115
G1 X17.621
G3 X17.318 Y14.755 I0 J-0.318
G1 X17.297 Y14.688 Z-9.992
X17.277 Y14.623 Z-9.969
X17.26 Y14.566 Z-9.931
X17.245 Y14.518 Z-9.88
X17.234 Y14.482 Z-9.82
X17.227 Y14.459 Z-9.753
X17.225 Y14.452 Z-9.682
Z15
M5
G28
M30
