(1001)
(Machine)
(  vendor: Makera)
(  model: Carvera 3-axis)
(  description: Makera Carvera 3-axis)
(T2  D=2.5 CR=0 - ZMIN=-12 - flat end mill)
G90 G94
G17
G21
(When using Fusion 360 for Personal Use, the feedrate of)
(rapid moves is reduced to match the feedrate of cutting)
(moves, which can increase machining time. Unrestricted rapid)
(moves are available with a Fusion 360 Subscription.)

(2D Cntr fh-p1)
T2 M6
S10000 M3
G54
G0 X61.286 Y40.772
Z15
G1 Z5 F600
Z2.1 F300
Z-0.85
X61.289 Y40.767 Z-0.906 F600
X61.299 Y40.751 Z-0.958
X61.314 Y40.725 Z-1.006
X61.333 Y40.691 Z-1.045
X61.357 Y40.649 Z-1.075
X61.383 Y40.604 Z-1.094
X61.411 Y40.556 Z-1.1
X61.536 Y40.339
G3 X61.878 Y40.248 I0.217 J0.125
G1 X63.756 Y41.332
Y45.668
X60 Y47.837
X56.244 Y45.668
Y41.332
X60 Y39.163
X61.878 Y40.248
G3 X61.969 Y40.589 I-0.125 J0.217
G1 X61.844 Y40.806
X61.816 Y40.854 Z-1.094
X61.79 Y40.899 Z-1.075
X61.766 Y40.941 Z-1.045
X61.747 Y40.975 Z-1.006
X61.732 Y41.001 Z-0.958
X61.722 Y41.017 Z-0.906
X61.719 Y41.022 Z-0.85
Z5
X61.286 Y40.772
Z1 F300
Z-1.95
X61.289 Y40.767 Z-2.006 F600
X61.299 Y40.751 Z-2.058
X61.314 Y40.725 Z-2.106
X61.333 Y40.691 Z-2.145
X61.357 Y40.649 Z-2.175
X61.383 Y40.604 Z-2.194
X61.411 Y40.556 Z-2.2
X61.536 Y40.339
G3 X61.878 Y40.248 I0.217 J0.125
G1 X63.756 Y41.332
Y45.668
X60 Y47.837
X56.244 Y45.668
Y41.332
X60 Y39.163
X61.878 Y40.248
G3 X61.969 Y40.589 I-0.125 J0.217
G1 X61.844 Y40.806
X61.816 Y40.854 Z-2.194
X61.79 Y40.899 Z-2.175
X61.766 Y40.941 Z-2.145
X61.747 Y40.975 Z-2.106
X61.732 Y41.001 Z-2.058
X61.722 Y41.017 Z-2.006
X61.719 Y41.022 Z-1.95
Z5
X61.286 Y40.772
Z-0.1 F300
Z-3.05
X61.289 Y40.767 Z-3.106 F600
X61.299 Y40.751 Z-3.158
X61.314 Y40.725 Z-3.206
X61.333 Y40.691 Z-3.245
X61.357 Y40.649 Z-3.275
X61.383 Y40.604 Z-3.294
X61.411 Y40.556 Z-3.3
X61.536 Y40.339
G3 X61.878 Y40.248 I0.217 J0.125
G1 X63.756 Y41.332
Y45.668
X60 Y47.837
X56.244 Y45.668
Y41.332
X60 Y39.163
X61.878 Y40.248
G3 X61.969 Y40.589 I-0.125 J0.217
G1 X61.844 Y40.806
X61.816 Y40.854 Z-3.294
X61.79 Y40.899 Z-3.275
X61.766 Y40.941 Z-3.245
X61.747 Y40.975 Z-3.206
X61.732 Y41.001 Z-3.158
X61.722 Y41.017 Z-3.106
X61.719 Y41.022 Z-3.05
Z5
X61.286 Y40.772
Z-1.2 F300
Z-4.15
X61.289 Y40.767 Z-4.206 F600
X61.299 Y40.751 Z-4.258
X61.314 Y40.725 Z-4.306
X61.333 Y40.691 Z-4.345
X61.357 Y40.649 Z-4.375
X61.383 Y40.604 Z-4.394
X61.411 Y40.556 Z-4.4
X61.536 Y40.339
G3 X61.878 Y40.248 I0.217 J0.125
G1 X63.756 Y41.332
Y45.668
X60 Y47.837
X56.244 Y45.668
Y41.332
X60 Y39.163
X61.878 Y40.248
G3 X61.969 Y40.589 I-0.125 J0.217
G1 X61.844 Y40.806
X61.816 Y40.854 Z-4.394
X61.79 Y40.899 Z-4.375
X61.766 Y40.941 Z-4.345
X61.747 Y40.975 Z-4.306
X61.732 Y41.001 Z-4.258
X61.722 Y41.017 Z-4.206
X61.719 Y41.022 Z-4.15
Z5
X61.286 Y40.772
Z-2.3 F300
Z-5.25
X61.289 Y40.767 Z-5.306 F600
X61.299 Y40.751 Z-5.358
X61.314 Y40.725 Z-5.406
X61.333 Y40.691 Z-5.445
X61.357 Y40.649 Z-5.475
X61.383 Y40.604 Z-5.494
X61.411 Y40.556 Z-5.5
X61.536 Y40.339
G3 X61.878 Y40.248 I0.217 J0.125
G1 X63.756 Y41.332
Y45.668
X60 Y47.837
X56.244 Y45.668
Y41.332
X60 Y39.163
X61.878 Y40.248
G3 X61.969 Y40.589 I-0.125 J0.217
G1 X61.844 Y40.806
X61.816 Y40.854 Z-5.494
X61.79 Y40.899 Z-5.475
X61.766 Y40.941 Z-5.445
X61.747 Y40.975 Z-5.406
X61.732 Y41.001 Z-5.358
X61.722 Y41.017 Z-5.306
X61.719 Y41.022 Z-5.25
Z5
X61.286 Y40.772
Z-3.4 F300
Z-6.35
X61.289 Y40.767 Z-6.406 F600
X61.299 Y40.751 Z-6.458
X61.314 Y40.725 Z-6.506
X61.333 Y40.691 Z-6.545
X61.357 Y40.649 Z-6.575
X61.383 Y40.604 Z-6.594
X61.411 Y40.556 Z-6.6
X61.536 Y40.339
G3 X61.878 Y40.248 I0.217 J0.125
G1 X63.756 Y41.332
Y45.668
X60 Y47.837
X56.244 Y45.668
Y41.332
X60 Y39.163
X61.878 Y40.248
G3 X61.969 Y40.589 I-0.125 J0.217
G1 X61.844 Y40.806
X61.816 Y40.854 Z-6.594
X61.79 Y40.899 Z-6.575
X61.766 Y40.941 Z-6.545
X61.747 Y40.975 Z-6.506
X61.732 Y41.001 Z-6.458
X61.722 Y41.017 Z-6.406
X61.719 Y41.022 Z-6.35
Z5
X61.286 Y40.772
Z-4.5 F300
Z-7.45
X61.289 Y40.767 Z-7.506 F600
X61.299 Y40.751 Z-7.558
X61.314 Y40.725 Z-7.606
X61.333 Y40.691 Z-7.645
X61.357 Y40.649 Z-7.675
X61.383 Y40.604 Z-7.694
X61.411 Y40.556 Z-7.7
X61.536 Y40.339
G3 X61.878 Y40.248 I0.217 J0.125
G1 X63.756 Y41.332
Y45.668
X60 Y47.837
X56.244 Y45.668
Y41.332
X60 Y39.163
X61.878 Y40.248
G3 X61.969 Y40.589 I-0.125 J0.217
G1 X61.844 Y40.806
X61.816 Y40.854 Z-7.694
X61.79 Y40.899 Z-7.675
X61.766 Y40.941 Z-7.645
X61.747 Y40.975 Z-7.606
X61.732 Y41.001 Z-7.558
X61.722 Y41.017 Z-7.506
X61.719 Y41.022 Z-7.45
Z5
X61.286 Y40.772
Z-5.6 F300
Z-8.55
X61.289 Y40.767 Z-8.606 F600
X61.299 Y40.751 Z-8.658
X61.314 Y40.725 Z-8.706
X61.333 Y40.691 Z-8.745
X61.357 Y40.649 Z-8.775
X61.383 Y40.604 Z-8.794
X61.411 Y40.556 Z-8.8
X61.536 Y40.339
G3 X61.878 Y40.248 I0.217 J0.125
G1 X63.756 Y41.332
Y45.668
X60 Y47.837
X56.244 Y45.668
Y41.332
X60 Y39.163
X61.878 Y40.248
G3 X61.969 Y40.589 I-0.125 J0.217
G1 X61.844 Y40.806
X61.816 Y40.854 Z-8.794
X61.79 Y40.899 Z-8.775
X61.766 Y40.941 Z-8.745
X61.747 Y40.975 Z-8.706
X61.732 Y41.001 Z-8.658
X61.722 Y41.017 Z-8.606
X61.719 Y41.022 Z-8.55
Z5
X61.286 Y40.772
Z-6.7 F300
Z-9.65
X61.289 Y40.767 Z-9.706 F600
X61.299 Y40.751 Z-9.758
X61.314 Y40.725 Z-9.806
X61.333 Y40.691 Z-9.845
X61.357 Y40.649 Z-9.875
X61.383 Y40.604 Z-9.894
X61.411 Y40.556 Z-9.9
X61.536 Y40.339
G3 X61.878 Y40.248 I0.217 J0.125
G1 X63.756 Y41.332
Y45.668
X60 Y47.837
X56.244 Y45.668
Y41.332
X60 Y39.163
X61.878 Y40.248
G3 X61.969 Y40.589 I-0.125 J0.217
G1 X61.844 Y40.806
X61.816 Y40.854 Z-9.894
X61.79 Y40.899 Z-9.875
X61.766 Y40.941 Z-9.845
X61.747 Y40.975 Z-9.806
X61.732 Y41.001 Z-9.758
X61.722 Y41.017 Z-9.706
X61.719 Y41.022 Z-9.65
Z5
X61.286 Y40.772
Z-7.8 F300
Z-10.75
X61.289 Y40.767 Z-10.806 F600
X61.299 Y40.751 Z-10.858
X61.314 Y40.725 Z-10.906
X61.333 Y40.691 Z-10.945
X61.357 Y40.649 Z-10.975
X61.383 Y40.604 Z-10.994
X61.411 Y40.556 Z-11
X61.536 Y40.339
G3 X61.878 Y40.248 I0.217 J0.125
G1 X63.756 Y41.332
Y45.668
X60 Y47.837
X56.244 Y45.668
Y41.332
X60 Y39.163
X61.878 Y40.248
G3 X61.969 Y40.589 I-0.125 J0.217
G1 X61.844 Y40.806
X61.816 Y40.854 Z-10.994
X61.79 Y40.899 Z-10.975
X61.766 Y40.941 Z-10.945
X61.747 Y40.975 Z-10.906
X61.732 Y41.001 Z-10.858
X61.722 Y41.017 Z-10.806
X61.719 Y41.022 Z-10.75
Z5
X61.286 Y40.772
Z-8.9 F300
Z-11.75
X61.289 Y40.767 Z-11.806 F600
X61.299 Y40.751 Z-11.858
X61.314 Y40.725 Z-11.906
X61.333 Y40.691 Z-11.945
X61.357 Y40.649 Z-11.975
X61.383 Y40.604 Z-11.994
X61.411 Y40.556 Z-12
X61.536 Y40.339
G3 X61.878 Y40.248 I0.217 J0.125
G1 X63.756 Y41.332
Y45.668
X60 Y47.837
X56.244 Y45.668
Y41.332
X60 Y39.163
X61.878 Y40.248
G3 X61.969 Y40.589 I-0.125 J0.217
G1 X61.844 Y40.806
X61.816 Y40.854 Z-11.994
X61.79 Y40.899 Z-11.975
X61.766 Y40.941 Z-11.945
X61.747 Y40.975 Z-11.906
X61.732 Y41.001 Z-11.858
X61.722 Y41.017 Z-11.806
X61.719 Y41.022 Z-11.75
Z5
X68.961 Y32.935
Z2.1 F300
Z-0.85
G18 G2 X69.211 Z-1.1 I0.25 K0 F600
G1 X69.461
G17 G3 X69.711 Y33.185 I0 J0.25
G1 Y35.353
X65.956 Y37.521
X62.2 Y35.353
Y31.016
X65.956 Y28.848
X69.711 Y31.016
Y33.185
G3 X69.461 Y33.435 I-0.25 J0
G1 X69.211
G18 G3 X68.961 Z-0.85 I0 K0.25
G1 Z5
Y32.935
Z1 F300
Z-1.95
G2 X69.211 Z-2.2 I0.25 K0 F600
G1 X69.461
G17 G3 X69.711 Y33.185 I0 J0.25
G1 Y35.353
X65.956 Y37.521
X62.2 Y35.353
Y31.016
X65.956 Y28.848
X69.711 Y31.016
Y33.185
G3 X69.461 Y33.435 I-0.25 J0
G1 X69.211
G18 G3 X68.961 Z-1.95 I0 K0.25
G1 Z5
Y32.935
Z-0.1 F300
Z-3.05
G2 X69.211 Z-3.3 I0.25 K0 F600
G1 X69.461
G17 G3 X69.711 Y33.185 I0 J0.25
G1 Y35.353
X65.956 Y37.521
X62.2 Y35.353
Y31.016
X65.956 Y28.848
X69.711 Y31.016
Y33.185
G3 X69.461 Y33.435 I-0.25 J0
G1 X69.211
G18 G3 X68.961 Z-3.05 I0 K0.25
G1 Z5
Y32.935
Z-1.2 F300
Z-4.15
G2 X69.211 Z-4.4 I0.25 K0 F600
G1 X69.461
G17 G3 X69.711 Y33.185 I0 J0.25
G1 Y35.353
X65.956 Y37.521
X62.2 Y35.353
Y31.016
X65.956 Y28.848
X69.711 Y31.016
Y33.185
G3 X69.461 Y33.435 I-0.25 J0
G1 X69.211
G18 G3 X68.961 Z-4.15 I0 K0.25
G1 Z5
Y32.935
Z-2.3 F300
Z-5.25
G2 X69.211 Z-5.5 I0.25 K0 F600
G1 X69.461
G17 G3 X69.711 Y33.185 I0 J0.25
G1 Y35.353
X65.956 Y37.521
X62.2 Y35.353
Y31.016
X65.956 Y28.848
X69.711 Y31.016
Y33.185
G3 X69.461 Y33.435 I-0.25 J0
G1 X69.211
G18 G3 X68.961 Z-5.25 I0 K0.25
G1 Z5
Y32.935
Z-3.4 F300
Z-6.35
G2 X69.211 Z-6.6 I0.25 K0 F600
G1 X69.461
G17 G3 X69.711 Y33.185 I0 J0.25
G1 Y35.353
X65.956 Y37.521
X62.2 Y35.353
Y31.016
X65.956 Y28.848
X69.711 Y31.016
Y33.185
G3 X69.461 Y33.435 I-0.25 J0
G1 X69.211
G18 G3 X68.961 Z-6.35 I0 K0.25
G1 Z5
Y32.935
Z-4.5 F300
Z-7.45
G2 X69.211 Z-7.7 I0.25 K0 F600
G1 X69.461
G17 G3 X69.711 Y33.185 I0 J0.25
G1 Y35.353
X65.956 Y37.521
X62.2 Y35.353
Y31.016
X65.956 Y28.848
X69.711 Y31.016
Y33.185
G3 X69.461 Y33.435 I-0.25 J0
G1 X69.211
G18 G3 X68.961 Z-7.45 I0 K0.25
G1 Z5
Y32.935
Z-5.6 F300
Z-8.55
G2 X69.211 Z-8.8 I0.25 K0 F600
G1 X69.461
G17 G3 X69.711 Y33.185 I0 J0.25
G1 Y35.353
X65.956 Y37.521
X62.2 Y35.353
Y31.016
X65.956 Y28.848
X69.711 Y31.016
Y33.185
G3 X69.461 Y33.435 I-0.25 J0
G1 X69.211
G18 G3 X68.961 Z-8.55 I0 K0.25
G1 Z5
Y32.935
Z-6.7 F300
Z-9.65
G2 X69.211 Z-9.9 I0.25 K0 F600
G1 X69.461
G17 G3 X69.711 Y33.185 I0 J0.25
G1 Y35.353
X65.956 Y37.521
X62.2 Y35.353
Y31.016
X65.956 Y28.848
X69.711 Y31.016
Y33.185
G3 X69.461 Y33.435 I-0.25 J0
G1 X69.211
G18 G3 X68.961 Z-9.65 I0 K0.25
G1 Z5
Y32.935
Z-7.8 F300
Z-10.75
G2 X69.211 Z-11 I0.25 K0 F600
G1 X69.461
G17 G3 X69.711 Y33.185 I0 J0.25
G1 Y35.353
X65.956 Y37.521
X62.2 Y35.353
Y31.016
X65.956 Y28.848
X69.711 Y31.016
Y33.185
G3 X69.461 Y33.435 I-0.25 J0
G1 X69.211
G18 G3 X68.961 Z-10.75 I0 K0.25
G1 Z5
Y32.935
Z-8.9 F300
Z-11.75
G2 X69.211 Z-12 I0.25 K0 F600
G1 X69.461
G17 G3 X69.711 Y33.185 I0 J0.25
G1 Y35.353
X65.956 Y37.521
X62.2 Y35.353
Y31.016
X65.956 Y28.848
X69.711 Y31.016
Y33.185
G3 X69.461 Y33.435 I-0.25 J0
G1 X69.211
G18 G3 X68.961 Z-11.75 I0 K0.25
G1 Z5
X80.873 Y32.935
Z2.1 F300
Z-0.85
G2 X81.123 Z-1.1 I0.25 K0 F600
G1 X81.373
G17 G3 X81.623 Y33.185 I0 J0.25
G1 Y35.353
X77.867 Y37.521
X74.111 Y35.353
Y31.016
X77.867 Y28.848
X81.623 Y31.016
Y33.185
G3 X81.373 Y33.435 I-0.25 J0
G1 X81.123
G18 G3 X80.873 Z-0.85 I0 K0.25
G1 Z5
Y32.935
Z1 F300
Z-1.95
G2 X81.123 Z-2.2 I0.25 K0 F600
G1 X81.373
G17 G3 X81.623 Y33.185 I0 J0.25
G1 Y35.353
X77.867 Y37.521
X74.111 Y35.353
Y31.016
X77.867 Y28.848
X81.623 Y31.016
Y33.185
G3 X81.373 Y33.435 I-0.25 J0
G1 X81.123
G18 G3 X80.873 Z-1.95 I0 K0.25
G1 Z5
Y32.935
Z-0.1 F300
Z-3.05
G2 X81.123 Z-3.3 I0.25 K0 F600
G1 X81.373
G17 G3 X81.623 Y33.185 I0 J0.25
G1 Y35.353
X77.867 Y37.521
X74.111 Y35.353
Y31.016
X77.867 Y28.848
X81.623 Y31.016
Y33.185
G3 X81.373 Y33.435 I-0.25 J0
G1 X81.123
G18 G3 X80.873 Z-3.05 I0 K0.25
G1 Z5
Y32.935
Z-1.2 F300
Z-4.15
G2 X81.123 Z-4.4 I0.25 K0 F600
G1 X81.373
G17 G3 X81.623 Y33.185 I0 J0.25
G1 Y35.353
X77.867 Y37.521
X74.111 Y35.353
Y31.016
X77.867 Y28.848
X81.623 Y31.016
Y33.185
G3 X81.373 Y33.435 I-0.25 J0
G1 X81.123
G18 G3 X80.873 Z-4.15 I0 K0.25
G1 Z5
Y32.935
Z-2.3 F300
Z-5.25
G2 X81.123 Z-5.5 I0.25 K0 F600
G1 X81.373
G17 G3 X81.623 Y33.185 I0 J0.25
G1 Y35.353
X77.867 Y37.521
X74.111 Y35.353
Y31.016
X77.867 Y28.848
X81.623 Y31.016
Y33.185
G3 X81.373 Y33.435 I-0.25 J0
G1 X81.123
G18 G3 X80.873 Z-5.25 I0 K0.25
G1 Z5
Y32.935
Z-3.4 F300
Z-6.35
G2 X81.123 Z-6.6 I0.25 K0 F600
G1 X81.373
G17 G3 X81.623 Y33.185 I0 J0.25
G1 Y35.353
X77.867 Y37.521
X74.111 Y35.353
Y31.016
X77.867 Y28.848
X81.623 Y31.016
Y33.185
G3 X81.373 Y33.435 I-0.25 J0
G1 X81.123
G18 G3 X80.873 Z-6.35 I0 K0.25
G1 Z5
Y32.935
Z-4.5 F300
Z-7.45
G2 X81.123 Z-7.7 I0.25 K0 F600
G1 X81.373
G17 G3 X81.623 Y33.185 I0 J0.25
G1 Y35.353
X77.867 Y37.521
X74.111 Y35.353
Y31.016
X77.867 Y28.848
X81.623 Y31.016
Y33.185
G3 X81.373 Y33.435 I-0.25 J0
G1 X81.123
G18 G3 X80.873 Z-7.45 I0 K0.25
G1 Z5
Y32.935
Z-5.6 F300
Z-8.55
G2 X81.123 Z-8.8 I0.25 K0 F600
G1 X81.373
G17 G3 X81.623 Y33.185 I0 J0.25
G1 Y35.353
X77.867 Y37.521
X74.111 Y35.353
Y31.016
X77.867 Y28.848
X81.623 Y31.016
Y33.185
G3 X81.373 Y33.435 I-0.25 J0
G1 X81.123
G18 G3 X80.873 Z-8.55 I0 K0.25
G1 Z5
Y32.935
Z-6.7 F300
Z-9.65
G2 X81.123 Z-9.9 I0.25 K0 F600
G1 X81.373
G17 G3 X81.623 Y33.185 I0 J0.25
G1 Y35.353
X77.867 Y37.521
X74.111 Y35.353
Y31.016
X77.867 Y28.848
X81.623 Y31.016
Y33.185
G3 X81.373 Y33.435 I-0.25 J0
G1 X81.123
G18 G3 X80.873 Z-9.65 I0 K0.25
G1 Z5
Y32.935
Z-7.8 F300
Z-10.75
G2 X81.123 Z-11 I0.25 K0 F600
G1 X81.373
G17 G3 X81.623 Y33.185 I0 J0.25
G1 Y35.353
X77.867 Y37.521
X74.111 Y35.353
Y31.016
X77.867 Y28.848
X81.623 Y31.016
Y33.185
G3 X81.373 Y33.435 I-0.25 J0
G1 X81.123
G18 G3 X80.873 Z-10.75 I0 K0.25
G1 Z5
Y32.935
Z-8.9 F300
Z-11.75
G2 X81.123 Z-12 I0.25 K0 F600
G1 X81.373
G17 G3 X81.623 Y33.185 I0 J0.25
G1 Y35.353
X77.867 Y37.521
X74.111 Y35.353
Y31.016
X77.867 Y28.848
X81.623 Y31.016
Y33.185
G3 X81.373 Y33.435 I-0.25 J0
G1 X81.123
G18 G3 X80.873 Z-11.75 I0 K0.25
G1 Z5
X92.784 Y32.935
Z2.1 F300
Z-0.85
G2 X93.034 Z-1.1 I0.25 K0 F600
G1 X93.284
G17 G3 X93.534 Y33.185 I0 J0.25
G1 Y35.353
X89.778 Y37.521
X86.023 Y35.353
Y31.016
X89.778 Y28.848
X93.534 Y31.016
Y33.185
G3 X93.284 Y33.435 I-0.25 J0
G1 X93.034
G18 G3 X92.784 Z-0.85 I0 K0.25
G1 Z5
Y32.935
Z1 F300
Z-1.95
G2 X93.034 Z-2.2 I0.25 K0 F600
G1 X93.284
G17 G3 X93.534 Y33.185 I0 J0.25
G1 Y35.353
X89.778 Y37.521
X86.023 Y35.353
Y31.016
X89.778 Y28.848
X93.534 Y31.016
Y33.185
G3 X93.284 Y33.435 I-0.25 J0
G1 X93.034
G18 G3 X92.784 Z-1.95 I0 K0.25
G1 Z5
Y32.935
Z-0.1 F300
Z-3.05
G2 X93.034 Z-3.3 I0.25 K0 F600
G1 X93.284
G17 G3 X93.534 Y33.185 I0 J0.25
G1 Y35.353
X89.778 Y37.521
X86.023 Y35.353
Y31.016
X89.778 Y28.848
X93.534 Y31.016
Y33.185
G3 X93.284 Y33.435 I-0.25 J0
G1 X93.034
G18 G3 X92.784 Z-3.05 I0 K0.25
G1 Z5
Y32.935
Z-1.2 F300
Z-4.15
G2 X93.034 Z-4.4 I0.25 K0 F600
G1 X93.284
G17 G3 X93.534 Y33.185 I0 J0.25
G1 Y35.353
X89.778 Y37.521
X86.023 Y35.353
Y31.016
X89.778 Y28.848
X93.534 Y31.016
Y33.185
G3 X93.284 Y33.435 I-0.25 J0
G1 X93.034
G18 G3 X92.784 Z-4.15 I0 K0.25
G1 Z5
Y32.935
Z-2.3 F300
Z-5.25
G2 X93.034 Z-5.5 I0.25 K0 F600
G1 X93.284
G17 G3 X93.534 Y33.185 I0 J0.25
G1 Y35.353
X89.778 Y37.521
X86.023 Y35.353
Y31.016
X89.778 Y28.848
X93.534 Y31.016
Y33.185
G3 X93.284 Y33.435 I-0.25 J0
G1 X93.034
G18 G3 X92.784 Z-5.25 I0 K0.25
G1 Z5
Y32.935
Z-3.4 F300
Z-6.35
G2 X93.034 Z-6.6 I0.25 K0 F600
G1 X93.284
G17 G3 X93.534 Y33.185 I0 J0.25
G1 Y35.353
X89.778 Y37.521
X86.023 Y35.353
Y31.016
X89.778 Y28.848
X93.534 Y31.016
Y33.185
G3 X93.284 Y33.435 I-0.25 J0
G1 X93.034
G18 G3 X92.784 Z-6.35 I0 K0.25
G1 Z5
Y32.935
Z-4.5 F300
Z-7.45
G2 X93.034 Z-7.7 I0.25 K0 F600
G1 X93.284
G17 G3 X93.534 Y33.185 I0 J0.25
G1 Y35.353
X89.778 Y37.521
X86.023 Y35.353
Y31.016
X89.778 Y28.848
X93.534 Y31.016
Y33.185
G3 X93.284 Y33.435 I-0.25 J0
G1 X93.034
G18 G3 X92.784 Z-7.45 I0 K0.25
G1 Z5
Y32.935
Z-5.6 F300
Z-8.55
G2 X93.034 Z-8.8 I0.25 K0 F600
G1 X93.284
G17 G3 X93.534 Y33.185 I0 J0.25
G1 Y35.353
X89.778 Y37.521
X86.023 Y35.353
Y31.016
X89.778 Y28.848
X93.534 Y31.016
Y33.185
G3 X93.284 Y33.435 I-0.25 J0
G1 X93.034
G18 G3 X92.784 Z-8.55 I0 K0.25
G1 Z5
Y32.935
Z-6.7 F300
Z-9.65
G2 X93.034 Z-9.9 I0.25 K0 F600
G1 X93.284
G17 G3 X93.534 Y33.185 I0 J0.25
G1 Y35.353
X89.778 Y37.521
X86.023 Y35.353
Y31.016
X89.778 Y28.848
X93.534 Y31.016
Y33.185
G3 X93.284 Y33.435 I-0.25 J0
G1 X93.034
G18 G3 X92.784 Z-9.65 I0 K0.25
G1 Z5
Y32.935
Z-7.8 F300
Z-10.75
G2 X93.034 Z-11 I0.25 K0 F600
G1 X93.284
G17 G3 X93.534 Y33.185 I0 J0.25
G1 Y35.353
X89.778 Y37.521
X86.023 Y35.353
Y31.016
X89.778 Y28.848
X93.534 Y31.016
Y33.185
G3 X93.284 Y33.435 I-0.25 J0
G1 X93.034
G18 G3 X92.784 Z-10.75 I0 K0.25
G1 Z5
Y32.935
Z-8.9 F300
Z-11.75
G2 X93.034 Z-12 I0.25 K0 F600
G1 X93.284
G17 G3 X93.534 Y33.185 I0 J0.25
G1 Y35.353
X89.778 Y37.521
X86.023 Y35.353
Y31.016
X89.778 Y28.848
X93.534 Y31.016
Y33.185
G3 X93.284 Y33.435 I-0.25 J0
G1 X93.034
G18 G3 X92.784 Z-11.75 I0 K0.25
G1 Z5
X104.695 Y32.935
Z2.1 F300
Z-0.85
G2 X104.945 Z-1.1 I0.25 K0 F600
G1 X105.195
G17 G3 X105.445 Y33.185 I0 J0.25
G1 Y35.353
X101.69 Y37.521
X97.934 Y35.353
Y31.016
X101.69 Y28.848
X105.445 Y31.016
Y33.185
G3 X105.195 Y33.435 I-0.25 J0
G1 X104.945
G18 G3 X104.695 Z-0.85 I0 K0.25
G1 Z5
Y32.935
Z1 F300
Z-1.95
G2 X104.945 Z-2.2 I0.25 K0 F600
G1 X105.195
G17 G3 X105.445 Y33.185 I0 J0.25
G1 Y35.353
X101.69 Y37.521
X97.934 Y35.353
Y31.016
X101.69 Y28.848
X105.445 Y31.016
Y33.185
G3 X105.195 Y33.435 I-0.25 J0
G1 X104.945
G18 G3 X104.695 Z-1.95 I0 K0.25
G1 Z5
Y32.935
Z-0.1 F300
Z-3.05
G2 X104.945 Z-3.3 I0.25 K0 F600
G1 X105.195
G17 G3 X105.445 Y33.185 I0 J0.25
G1 Y35.353
X101.69 Y37.521
X97.934 Y35.353
Y31.016
X101.69 Y28.848
X105.445 Y31.016
Y33.185
G3 X105.195 Y33.435 I-0.25 J0
G1 X104.945
G18 G3 X104.695 Z-3.05 I0 K0.25
G1 Z5
Y32.935
Z-1.2 F300
Z-4.15
G2 X104.945 Z-4.4 I0.25 K0 F600
G1 X105.195
G17 G3 X105.445 Y33.185 I0 J0.25
G1 Y35.353
X101.69 Y37.521
X97.934 Y35.353
Y31.016
X101.69 Y28.848
X105.445 Y31.016
Y33.185
G3 X105.195 Y33.435 I-0.25 J0
G1 X104.945
G18 G3 X104.695 Z-4.15 I0 K0.25
G1 Z5
Y32.935
Z-2.3 F300
Z-5.25
G2 X104.945 Z-5.5 I0.25 K0 F600
G1 X105.195
G17 G3 X105.445 Y33.185 I0 J0.25
G1 Y35.353
X101.69 Y37.521
X97.934 Y35.353
Y31.016
X101.69 Y28.848
X105.445 Y31.016
Y33.185
G3 X105.195 Y33.435 I-0.25 J0
G1 X104.945
G18 G3 X104.695 Z-5.25 I0 K0.25
G1 Z5
Y32.935
Z-3.4 F300
Z-6.35
G2 X104.945 Z-6.6 I0.25 K0 F600
G1 X105.195
G17 G3 X105.445 Y33.185 I0 J0.25
G1 Y35.353
X101.69 Y37.521
X97.934 Y35.353
Y31.016
X101.69 Y28.848
X105.445 Y31.016
Y33.185
G3 X105.195 Y33.435 I-0.25 J0
G1 X104.945
G18 G3 X104.695 Z-6.35 I0 K0.25
G1 Z5
Y32.935
Z-4.5 F300
Z-7.45
G2 X104.945 Z-7.7 I0.25 K0 F600
G1 X105.195
G17 G3 X105.445 Y33.185 I0 J0.25
G1 Y35.353
X101.69 Y37.521
X97.934 Y35.353
Y31.016
X101.69 Y28.848
X105.445 Y31.016
Y33.185
G3 X105.195 Y33.435 I-0.25 J0
G1 X104.945
G18 G3 X104.695 Z-7.45 I0 K0.25
G1 Z5
Y32.935
Z-5.6 F300
Z-8.55
G2 X104.945 Z-8.8 I0.25 K0 F600
G1 X105.195
G17 G3 X105.445 Y33.185 I0 J0.25
G1 Y35.353
X101.69 Y37.521
X97.934 Y35.353
Y31.016
X101.69 Y28.848
X105.445 Y31.016
Y33.185
G3 X105.195 Y33.435 I-0.25 J0
G1 X104.945
G18 G3 X104.695 Z-8.55 I0 K0.25
G1 Z5
Y32.935
Z-6.7 F300
Z-9.65
G2 X104.945 Z-9.9 I0.25 K0 F600
G1 X105.195
G17 G3 X105.445 Y33.185 I0 J0.25
G1 Y35.353
X101.69 Y37.521
X97.934 Y35.353
Y31.016
X101.69 Y28.848
X105.445 Y31.016
Y33.185
G3 X105.195 Y33.435 I-0.25 J0
G1 X104.945
G18 G3 X104.695 Z-9.65 I0 K0.25
G1 Z5
Y32.935
Z-7.8 F300
Z-10.75
G2 X104.945 Z-11 I0.25 K0 F600
G1 X105.195
G17 G3 X105.445 Y33.185 I0 J0.25
G1 Y35.353
X101.69 Y37.521
X97.934 Y35.353
Y31.016
X101.69 Y28.848
X105.445 Y31.016
Y33.185
G3 X105.195 Y33.435 I-0.25 J0
G1 X104.945
G18 G3 X104.695 Z-10.75 I0 K0.25
G1 Z5
Y32.935
Z-8.9 F300
Z-11.75
G2 X104.945 Z-12 I0.25 K0 F600
G1 X105.195
G17 G3 X105.445 Y33.185 I0 J0.25
G1 Y35.353
X101.69 Y37.521
X97.934 Y35.353
Y31.016
X101.69 Y28.848
X105.445 Y31.016
Y33.185
G3 X105.195 Y33.435 I-0.25 J0
G1 X104.945
G18 G3 X104.695 Z-11.75 I0 K0.25
G1 Z5
X97.02 Y40.772
Z2.1 F300
Z-0.85
X97.023 Y40.767 Z-0.906 F600
X97.033 Y40.751 Z-0.958
X97.048 Y40.725 Z-1.006
X97.067 Y40.69 Z-1.045
X97.091 Y40.649 Z-1.075
X97.117 Y40.604 Z-1.094
X97.145 Y40.555 Z-1.1
X97.27 Y40.339
G17 G3 X97.612 Y40.247 I0.217 J0.125
G1 X99.49 Y41.332
Y45.668
X95.734 Y47.837
X91.978 Y45.668
Y41.332
X95.734 Y39.163
X97.612 Y40.247
G3 X97.703 Y40.589 I-0.125 J0.217
G1 X97.578 Y40.805
X97.55 Y40.854 Z-1.094
X97.524 Y40.899 Z-1.075
X97.5 Y40.94 Z-1.045
X97.481 Y40.975 Z-1.006
X97.466 Y41 Z-0.958
X97.456 Y41.017 Z-0.906
X97.453 Y41.022 Z-0.85
Z5
X97.02 Y40.772
Z1 F300
Z-1.95
X97.023 Y40.767 Z-2.006 F600
X97.033 Y40.751 Z-2.058
X97.048 Y40.725 Z-2.106
X97.067 Y40.69 Z-2.145
X97.091 Y40.649 Z-2.175
X97.117 Y40.604 Z-2.194
X97.145 Y40.555 Z-2.2
X97.27 Y40.339
G3 X97.612 Y40.247 I0.217 J0.125
G1 X99.49 Y41.332
Y45.668
X95.734 Y47.837
X91.978 Y45.668
Y41.332
X95.734 Y39.163
X97.612 Y40.247
G3 X97.703 Y40.589 I-0.125 J0.217
G1 X97.578 Y40.805
X97.55 Y40.854 Z-2.194
X97.524 Y40.899 Z-2.175
X97.5 Y40.94 Z-2.145
X97.481 Y40.975 Z-2.106
X97.466 Y41 Z-2.058
X97.456 Y41.017 Z-2.006
X97.453 Y41.022 Z-1.95
Z5
X97.02 Y40.772
Z-0.1 F300
Z-3.05
X97.023 Y40.767 Z-3.106 F600
X97.033 Y40.751 Z-3.158
X97.048 Y40.725 Z-3.206
X97.067 Y40.69 Z-3.245
X97.091 Y40.649 Z-3.275
X97.117 Y40.604 Z-3.294
X97.145 Y40.555 Z-3.3
X97.27 Y40.339
G3 X97.612 Y40.247 I0.217 J0.125
G1 X99.49 Y41.332
Y45.668
X95.734 Y47.837
X91.978 Y45.668
Y41.332
X95.734 Y39.163
X97.612 Y40.247
G3 X97.703 Y40.589 I-0.125 J0.217
G1 X97.578 Y40.805
X97.55 Y40.854 Z-3.294
X97.524 Y40.899 Z-3.275
X97.5 Y40.94 Z-3.245
X97.481 Y40.975 Z-3.206
X97.466 Y41 Z-3.158
X97.456 Y41.017 Z-3.106
X97.453 Y41.022 Z-3.05
Z5
X97.02 Y40.772
Z-1.2 F300
Z-4.15
X97.023 Y40.767 Z-4.206 F600
X97.033 Y40.751 Z-4.258
X97.048 Y40.725 Z-4.306
X97.067 Y40.69 Z-4.345
X97.091 Y40.649 Z-4.375
X97.117 Y40.604 Z-4.394
X97.145 Y40.555 Z-4.4
X97.27 Y40.339
G3 X97.612 Y40.247 I0.217 J0.125
G1 X99.49 Y41.332
Y45.668
X95.734 Y47.837
X91.978 Y45.668
Y41.332
X95.734 Y39.163
X97.612 Y40.247
G3 X97.703 Y40.589 I-0.125 J0.217
G1 X97.578 Y40.805
X97.55 Y40.854 Z-4.394
X97.524 Y40.899 Z-4.375
X97.5 Y40.94 Z-4.345
X97.481 Y40.975 Z-4.306
X97.466 Y41 Z-4.258
X97.456 Y41.017 Z-4.206
X97.453 Y41.022 Z-4.15
Z5
X97.02 Y40.772
Z-2.3 F300
Z-5.25
X97.023 Y40.767 Z-5.306 F600
X97.033 Y40.751 Z-5.358
X97.048 Y40.725 Z-5.406
X97.067 Y40.69 Z-5.445
X97.091 Y40.649 Z-5.475
X97.117 Y40.604 Z-5.494
X97.145 Y40.555 Z-5.5
X97.27 Y40.339
G3 X97.612 Y40.247 I0.217 J0.125
G1 X99.49 Y41.332
Y45.668
X95.734 Y47.837
X91.978 Y45.668
Y41.332
X95.734 Y39.163
X97.612 Y40.247
G3 X97.703 Y40.589 I-0.125 J0.217
G1 X97.578 Y40.805
X97.55 Y40.854 Z-5.494
X97.524 Y40.899 Z-5.475
X97.5 Y40.94 Z-5.445
X97.481 Y40.975 Z-5.406
X97.466 Y41 Z-5.358
X97.456 Y41.017 Z-5.306
X97.453 Y41.022 Z-5.25
Z5
X97.02 Y40.772
Z-3.4 F300
Z-6.35
X97.023 Y40.767 Z-6.406 F600
X97.033 Y40.751 Z-6.458
X97.048 Y40.725 Z-6.506
X97.067 Y40.69 Z-6.545
X97.091 Y40.649 Z-6.575
X97.117 Y40.604 Z-6.594
X97.145 Y40.555 Z-6.6
X97.27 Y40.339
G3 X97.612 Y40.247 I0.217 J0.125
G1 X99.49 Y41.332
Y45.668
X95.734 Y47.837
X91.978 Y45.668
Y41.332
X95.734 Y39.163
X97.612 Y40.247
G3 X97.703 Y40.589 I-0.125 J0.217
G1 X97.578 Y40.805
X97.55 Y40.854 Z-6.594
X97.524 Y40.899 Z-6.575
X97.5 Y40.94 Z-6.545
X97.481 Y40.975 Z-6.506
X97.466 Y41 Z-6.458
X97.456 Y41.017 Z-6.406
X97.453 Y41.022 Z-6.35
Z5
X97.02 Y40.772
Z-4.5 F300
Z-7.45
X97.023 Y40.767 Z-7.506 F600
X97.033 Y40.751 Z-7.558
X97.048 Y40.725 Z-7.606
X97.067 Y40.69 Z-7.645
X97.091 Y40.649 Z-7.675
X97.117 Y40.604 Z-7.694
X97.145 Y40.555 Z-7.7
X97.27 Y40.339
G3 X97.612 Y40.247 I0.217 J0.125
G1 X99.49 Y41.332
Y45.668
X95.734 Y47.837
X91.978 Y45.668
Y41.332
X95.734 Y39.163
X97.612 Y40.247
G3 X97.703 Y40.589 I-0.125 J0.217
G1 X97.578 Y40.805
X97.55 Y40.854 Z-7.694
X97.524 Y40.899 Z-7.675
X97.5 Y40.94 Z-7.645
X97.481 Y40.975 Z-7.606
X97.466 Y41 Z-7.558
X97.456 Y41.017 Z-7.506
X97.453 Y41.022 Z-7.45
Z5
X97.02 Y40.772
Z-5.6 F300
Z-8.55
X97.023 Y40.767 Z-8.606 F600
X97.033 Y40.751 Z-8.658
X97.048 Y40.725 Z-8.706
X97.067 Y40.69 Z-8.745
X97.091 Y40.649 Z-8.775
X97.117 Y40.604 Z-8.794
X97.145 Y40.555 Z-8.8
X97.27 Y40.339
G3 X97.612 Y40.247 I0.217 J0.125
G1 X99.49 Y41.332
Y45.668
X95.734 Y47.837
X91.978 Y45.668
Y41.332
X95.734 Y39.163
X97.612 Y40.247
G3 X97.703 Y40.589 I-0.125 J0.217
G1 X97.578 Y40.805
X97.55 Y40.854 Z-8.794
X97.524 Y40.899 Z-8.775
X97.5 Y40.94 Z-8.745
X97.481 Y40.975 Z-8.706
X97.466 Y41 Z-8.658
X97.456 Y41.017 Z-8.606
X97.453 Y41.022 Z-8.55
Z5
X97.02 Y40.772
Z-6.7 F300
Z-9.65
X97.023 Y40.767 Z-9.706 F600
X97.033 Y40.751 Z-9.758
X97.048 Y40.725 Z-9.806
X97.067 Y40.69 Z-9.845
X97.091 Y40.649 Z-9.875
X97.117 Y40.604 Z-9.894
X97.145 Y40.555 Z-9.9
X97.27 Y40.339
G3 X97.612 Y40.247 I0.217 J0.125
G1 X99.49 Y41.332
Y45.668
X95.734 Y47.837
X91.978 Y45.668
Y41.332
X95.734 Y39.163
X97.612 Y40.247
G3 X97.703 Y40.589 I-0.125 J0.217
G1 X97.578 Y40.805
X97.55 Y40.854 Z-9.894
X97.524 Y40.899 Z-9.875
X97.5 Y40.94 Z-9.845
X97.481 Y40.975 Z-9.806
X97.466 Y41 Z-9.758
X97.456 Y41.017 Z-9.706
X97.453 Y41.022 Z-9.65
Z5
X97.02 Y40.772
Z-7.8 F300
Z-10.75
X97.023 Y40.767 Z-10.806 F600
X97.033 Y40.751 Z-10.858
X97.048 Y40.725 Z-10.906
X97.067 Y40.69 Z-10.945
X97.091 Y40.649 Z-10.975
X97.117 Y40.604 Z-10.994
X97.145 Y40.555 Z-11
X97.27 Y40.339
G3 X97.612 Y40.247 I0.217 J0.125
G1 X99.49 Y41.332
Y45.668
X95.734 Y47.837
X91.978 Y45.668
Y41.332
X95.734 Y39.163
X97.612 Y40.247
G3 X97.703 Y40.589 I-0.125 J0.217
G1 X97.578 Y40.805
X97.55 Y40.854 Z-10.994
X97.524 Y40.899 Z-10.975
X97.5 Y40.94 Z-10.945
X97.481 Y40.975 Z-10.906
X97.466 Y41 Z-10.858
X97.456 Y41.017 Z-10.806
X97.453 Y41.022 Z-10.75
Z5
X97.02 Y40.772
Z-8.9 F300
Z-11.75
X97.023 Y40.767 Z-11.806 F600
X97.033 Y40.751 Z-11.858
X97.048 Y40.725 Z-11.906
X97.067 Y40.69 Z-11.945
X97.091 Y40.649 Z-11.975
X97.117 Y40.604 Z-11.994
X97.145 Y40.555 Z-12
X97.27 Y40.339
G3 X97.612 Y40.247 I0.217 J0.125
G1 X99.49 Y41.332
Y45.668
X95.734 Y47.837
X91.978 Y45.668
Y41.332
X95.734 Y39.163
X97.612 Y40.247
G3 X97.703 Y40.589 I-0.125 J0.217
G1 X97.578 Y40.805
X97.55 Y40.854 Z-11.994
X97.524 Y40.899 Z-11.975
X97.5 Y40.94 Z-11.945
X97.481 Y40.975 Z-11.906
X97.466 Y41 Z-11.858
X97.456 Y41.017 Z-11.806
X97.453 Y41.022 Z-11.75
Z5
X104.695 Y53.565
Z2.1 F300
Z-0.85
G18 G2 X104.945 Z-1.1 I0.25 K0 F600
G1 X105.195
G17 G3 X105.445 Y53.815 I0 J0.25
G1 Y55.984
X101.69 Y58.152
X97.934 Y55.984
Y51.647
X101.69 Y49.479
X105.445 Y51.647
Y53.815
G3 X105.195 Y54.065 I-0.25 J0
G1 X104.945
G18 G3 X104.695 Z-0.85 I0 K0.25
G1 Z5
Y53.565
Z1 F300
Z-1.95
G2 X104.945 Z-2.2 I0.25 K0 F600
G1 X105.195
G17 G3 X105.445 Y53.815 I0 J0.25
G1 Y55.984
X101.69 Y58.152
X97.934 Y55.984
Y51.647
X101.69 Y49.479
X105.445 Y51.647
Y53.815
G3 X105.195 Y54.065 I-0.25 J0
G1 X104.945
G18 G3 X104.695 Z-1.95 I0 K0.25
G1 Z5
Y53.565
Z-0.1 F300
Z-3.05
G2 X104.945 Z-3.3 I0.25 K0 F600
G1 X105.195
G17 G3 X105.445 Y53.815 I0 J0.25
G1 Y55.984
X101.69 Y58.152
X97.934 Y55.984
Y51.647
X101.69 Y49.479
X105.445 Y51.647
Y53.815
G3 X105.195 Y54.065 I-0.25 J0
G1 X104.945
G18 G3 X104.695 Z-3.05 I0 K0.25
G1 Z5
Y53.565
Z-1.2 F300
Z-4.15
G2 X104.945 Z-4.4 I0.25 K0 F600
G1 X105.195
G17 G3 X105.445 Y53.815 I0 J0.25
G1 Y55.984
X101.69 Y58.152
X97.934 Y55.984
Y51.647
X101.69 Y49.479
X105.445 Y51.647
Y53.815
G3 X105.195 Y54.065 I-0.25 J0
G1 X104.945
G18 G3 X104.695 Z-4.15 I0 K0.25
G1 Z5
Y53.565
Z-2.3 F300
Z-5.25
G2 X104.945 Z-5.5 I0.25 K0 F600
G1 X105.195
G17 G3 X105.445 Y53.815 I0 J0.25
G1 Y55.984
X101.69 Y58.152
X97.934 Y55.984
Y51.647
X101.69 Y49.479
X105.445 Y51.647
Y53.815
G3 X105.195 Y54.065 I-0.25 J0
G1 X104.945
G18 G3 X104.695 Z-5.25 I0 K0.25
G1 Z5
Y53.565
Z-3.4 F300
Z-6.35
G2 X104.945 Z-6.6 I0.25 K0 F600
G1 X105.195
G17 G3 X105.445 Y53.815 I0 J0.25
G1 Y55.984
X101.69 Y58.152
X97.934 Y55.984
Y51.647
X101.69 Y49.479
X105.445 Y51.647
Y53.815
G3 X105.195 Y54.065 I-0.25 J0
G1 X104.945
G18 G3 X104.695 Z-6.35 I0 K0.25
G1 Z5
Y53.565
Z-4.5 F300
Z-7.45
G2 X104.945 Z-7.7 I0.25 K0 F600
G1 X105.195
G17 G3 X105.445 Y53.815 I0 J0.25
G1 Y55.984
X101.69 Y58.152
X97.934 Y55.984
Y51.647
X101.69 Y49.479
X105.445 Y51.647
Y53.815
G3 X105.195 Y54.065 I-0.25 J0
G1 X104.945
G18 G3 X104.695 Z-7.45 I0 K0.25
G1 Z5
Y53.565
Z-5.6 F300
Z-8.55
G2 X104.945 Z-8.8 I0.25 K0 F600
G1 X105.195
G17 G3 X105.445 Y53.815 I0 J0.25
G1 Y55.984
X101.69 Y58.152
X97.934 Y55.984
Y51.647
X101.69 Y49.479
X105.445 Y51.647
Y53.815
G3 X105.195 Y54.065 I-0.25 J0
G1 X104.945
G18 G3 X104.695 Z-8.55 I0 K0.25
G1 Z5
Y53.565
Z-6.7 F300
Z-9.65
G2 X104.945 Z-9.9 I0.25 K0 F600
G1 X105.195
G17 G3 X105.445 Y53.815 I0 J0.25
G1 Y55.984
X101.69 Y58.152
X97.934 Y55.984
Y51.647
X101.69 Y49.479
X105.445 Y51.647
Y53.815
G3 X105.195 Y54.065 I-0.25 J0
G1 X104.945
G18 G3 X104.695 Z-9.65 I0 K0.25
G1 Z5
Y53.565
Z-7.8 F300
Z-10.75
G2 X104.945 Z-11 I0.25 K0 F600
G1 X105.195
G17 G3 X105.445 Y53.815 I0 J0.25
G1 Y55.984
X101.69 Y58.152
X97.934 Y55.984
Y51.647
X101.69 Y49.479
X105.445 Y51.647
Y53.815
G3 X105.195 Y54.065 I-0.25 J0
G1 X104.945
G18 G3 X104.695 Z-10.75 I0 K0.25
G1 Z5
Y53.565
Z-8.9 F300
Z-11.75
G2 X104.945 Z-12 I0.25 K0 F600
G1 X105.195
G17 G3 X105.445 Y53.815 I0 J0.25
G1 Y55.984
X101.69 Y58.152
X97.934 Y55.984
Y51.647
X101.69 Y49.479
X105.445 Y51.647
Y53.815
G3 X105.195 Y54.065 I-0.25 J0
G1 X104.945
G18 G3 X104.695 Z-11.75 I0 K0.25
G1 Z5
X97.453 Y66.609
Z2.1 F300
Z-0.85
X97.456 Y66.614 Z-0.906 F600
X97.466 Y66.631 Z-0.958
X97.481 Y66.656 Z-1.006
X97.5 Y66.691 Z-1.045
X97.524 Y66.732 Z-1.075
X97.55 Y66.777 Z-1.094
X97.578 Y66.826 Z-1.1
X97.703 Y67.042
G17 G3 X97.612 Y67.384 I-0.217 J0.125
G1 X95.734 Y68.468
X91.978 Y66.299
Y61.963
X95.734 Y59.794
X99.49 Y61.963
Y66.299
X97.612 Y67.384
G3 X97.27 Y67.292 I-0.125 J-0.217
G1 X97.145 Y67.076
X97.117 Y67.027 Z-1.094
X97.091 Y66.982 Z-1.075
X97.067 Y66.941 Z-1.045
X97.048 Y66.906 Z-1.006
X97.033 Y66.88 Z-0.958
X97.023 Y66.864 Z-0.906
X97.02 Y66.859 Z-0.85
Z5
X97.453 Y66.609
Z1 F300
Z-1.95
X97.456 Y66.614 Z-2.006 F600
X97.466 Y66.631 Z-2.058
X97.481 Y66.656 Z-2.106
X97.5 Y66.691 Z-2.145
X97.524 Y66.732 Z-2.175
X97.55 Y66.777 Z-2.194
X97.578 Y66.826 Z-2.2
X97.703 Y67.042
G3 X97.612 Y67.384 I-0.217 J0.125
G1 X95.734 Y68.468
X91.978 Y66.299
Y61.963
X95.734 Y59.794
X99.49 Y61.963
Y66.299
X97.612 Y67.384
G3 X97.27 Y67.292 I-0.125 J-0.217
G1 X97.145 Y67.076
X97.117 Y67.027 Z-2.194
X97.091 Y66.982 Z-2.175
X97.067 Y66.941 Z-2.145
X97.048 Y66.906 Z-2.106
X97.033 Y66.88 Z-2.058
X97.023 Y66.864 Z-2.006
X97.02 Y66.859 Z-1.95
Z5
X97.453 Y66.609
Z-0.1 F300
Z-3.05
X97.456 Y66.614 Z-3.106 F600
X97.466 Y66.631 Z-3.158
X97.481 Y66.656 Z-3.206
X97.5 Y66.691 Z-3.245
X97.524 Y66.732 Z-3.275
X97.55 Y66.777 Z-3.294
X97.578 Y66.826 Z-3.3
X97.703 Y67.042
G3 X97.612 Y67.384 I-0.217 J0.125
G1 X95.734 Y68.468
X91.978 Y66.299
Y61.963
X95.734 Y59.794
X99.49 Y61.963
Y66.299
X97.612 Y67.384
G3 X97.27 Y67.292 I-0.125 J-0.217
G1 X97.145 Y67.076
X97.117 Y67.027 Z-3.294
X97.091 Y66.982 Z-3.275
X97.067 Y66.941 Z-3.245
X97.048 Y66.906 Z-3.206
X97.033 Y66.88 Z-3.158
X97.023 Y66.864 Z-3.106
X97.02 Y66.859 Z-3.05
Z5
X97.453 Y66.609
Z-1.2 F300
Z-4.15
X97.456 Y66.614 Z-4.206 F600
X97.466 Y66.631 Z-4.258
X97.481 Y66.656 Z-4.306
X97.5 Y66.691 Z-4.345
X97.524 Y66.732 Z-4.375
X97.55 Y66.777 Z-4.394
X97.578 Y66.826 Z-4.4
X97.703 Y67.042
G3 X97.612 Y67.384 I-0.217 J0.125
G1 X95.734 Y68.468
X91.978 Y66.299
Y61.963
X95.734 Y59.794
X99.49 Y61.963
Y66.299
X97.612 Y67.384
G3 X97.27 Y67.292 I-0.125 J-0.217
G1 X97.145 Y67.076
X97.117 Y67.027 Z-4.394
X97.091 Y66.982 Z-4.375
X97.067 Y66.941 Z-4.345
X97.048 Y66.906 Z-4.306
X97.033 Y66.88 Z-4.258
X97.023 Y66.864 Z-4.206
X97.02 Y66.859 Z-4.15
Z5
X97.453 Y66.609
Z-2.3 F300
Z-5.25
X97.456 Y66.614 Z-5.306 F600
X97.466 Y66.631 Z-5.358
X97.481 Y66.656 Z-5.406
X97.5 Y66.691 Z-5.445
X97.524 Y66.732 Z-5.475
X97.55 Y66.777 Z-5.494
X97.578 Y66.826 Z-5.5
X97.703 Y67.042
G3 X97.612 Y67.384 I-0.217 J0.125
G1 X95.734 Y68.468
X91.978 Y66.299
Y61.963
X95.734 Y59.794
X99.49 Y61.963
Y66.299
X97.612 Y67.384
G3 X97.27 Y67.292 I-0.125 J-0.217
G1 X97.145 Y67.076
X97.117 Y67.027 Z-5.494
X97.091 Y66.982 Z-5.475
X97.067 Y66.941 Z-5.445
X97.048 Y66.906 Z-5.406
X97.033 Y66.88 Z-5.358
X97.023 Y66.864 Z-5.306
X97.02 Y66.859 Z-5.25
Z5
X97.453 Y66.609
Z-3.4 F300
Z-6.35
X97.456 Y66.614 Z-6.406 F600
X97.466 Y66.631 Z-6.458
X97.481 Y66.656 Z-6.506
X97.5 Y66.691 Z-6.545
X97.524 Y66.732 Z-6.575
X97.55 Y66.777 Z-6.594
X97.578 Y66.826 Z-6.6
X97.703 Y67.042
G3 X97.612 Y67.384 I-0.217 J0.125
G1 X95.734 Y68.468
X91.978 Y66.299
Y61.963
X95.734 Y59.794
X99.49 Y61.963
Y66.299
X97.612 Y67.384
G3 X97.27 Y67.292 I-0.125 J-0.217
G1 X97.145 Y67.076
X97.117 Y67.027 Z-6.594
X97.091 Y66.982 Z-6.575
X97.067 Y66.941 Z-6.545
X97.048 Y66.906 Z-6.506
X97.033 Y66.88 Z-6.458
X97.023 Y66.864 Z-6.406
X97.02 Y66.859 Z-6.35
Z5
X97.453 Y66.609
Z-4.5 F300
Z-7.45
X97.456 Y66.614 Z-7.506 F600
X97.466 Y66.631 Z-7.558
X97.481 Y66.656 Z-7.606
X97.5 Y66.691 Z-7.645
X97.524 Y66.732 Z-7.675
X97.55 Y66.777 Z-7.694
X97.578 Y66.826 Z-7.7
X97.703 Y67.042
G3 X97.612 Y67.384 I-0.217 J0.125
G1 X95.734 Y68.468
X91.978 Y66.299
Y61.963
X95.734 Y59.794
X99.49 Y61.963
Y66.299
X97.612 Y67.384
G3 X97.27 Y67.292 I-0.125 J-0.217
G1 X97.145 Y67.076
X97.117 Y67.027 Z-7.694
X97.091 Y66.982 Z-7.675
X97.067 Y66.941 Z-7.645
X97.048 Y66.906 Z-7.606
X97.033 Y66.88 Z-7.558
X97.023 Y66.864 Z-7.506
X97.02 Y66.859 Z-7.45
Z5
X97.453 Y66.609
Z-5.6 F300
Z-8.55
X97.456 Y66.614 Z-8.606 F600
X97.466 Y66.631 Z-8.658
X97.481 Y66.656 Z-8.706
X97.5 Y66.691 Z-8.745
X97.524 Y66.732 Z-8.775
X97.55 Y66.777 Z-8.794
X97.578 Y66.826 Z-8.8
X97.703 Y67.042
G3 X97.612 Y67.384 I-0.217 J0.125
G1 X95.734 Y68.468
X91.978 Y66.299
Y61.963
X95.734 Y59.794
X99.49 Y61.963
Y66.299
X97.612 Y67.384
G3 X97.27 Y67.292 I-0.125 J-0.217
G1 X97.145 Y67.076
X97.117 Y67.027 Z-8.794
X97.091 Y66.982 Z-8.775
X97.067 Y66.941 Z-8.745
X97.048 Y66.906 Z-8.706
X97.033 Y66.88 Z-8.658
X97.023 Y66.864 Z-8.606
X97.02 Y66.859 Z-8.55
Z5
X97.453 Y66.609
Z-6.7 F300
Z-9.65
X97.456 Y66.614 Z-9.706 F600
X97.466 Y66.631 Z-9.758
X97.481 Y66.656 Z-9.806
X97.5 Y66.691 Z-9.845
X97.524 Y66.732 Z-9.875
X97.55 Y66.777 Z-9.894
X97.578 Y66.826 Z-9.9
X97.703 Y67.042
G3 X97.612 Y67.384 I-0.217 J0.125
G1 X95.734 Y68.468
X91.978 Y66.299
Y61.963
X95.734 Y59.794
X99.49 Y61.963
Y66.299
X97.612 Y67.384
G3 X97.27 Y67.292 I-0.125 J-0.217
G1 X97.145 Y67.076
X97.117 Y67.027 Z-9.894
X97.091 Y66.982 Z-9.875
X97.067 Y66.941 Z-9.845
X97.048 Y66.906 Z-9.806
X97.033 Y66.88 Z-9.758
X97.023 Y66.864 Z-9.706
X97.02 Y66.859 Z-9.65
Z5
X97.453 Y66.609
Z-7.8 F300
Z-10.75
X97.456 Y66.614 Z-10.806 F600
X97.466 Y66.631 Z-10.858
X97.481 Y66.656 Z-10.906
X97.5 Y66.691 Z-10.945
X97.524 Y66.732 Z-10.975
X97.55 Y66.777 Z-10.994
X97.578 Y66.826 Z-11
X97.703 Y67.042
G3 X97.612 Y67.384 I-0.217 J0.125
G1 X95.734 Y68.468
X91.978 Y66.299
Y61.963
X95.734 Y59.794
X99.49 Y61.963
Y66.299
X97.612 Y67.384
G3 X97.27 Y67.292 I-0.125 J-0.217
G1 X97.145 Y67.076
X97.117 Y67.027 Z-10.994
X97.091 Y66.982 Z-10.975
X97.067 Y66.941 Z-10.945
X97.048 Y66.906 Z-10.906
X97.033 Y66.88 Z-10.858
X97.023 Y66.864 Z-10.806
X97.02 Y66.859 Z-10.75
Z5
X97.453 Y66.609
Z-8.9 F300
Z-11.75
X97.456 Y66.614 Z-11.806 F600
X97.466 Y66.631 Z-11.858
X97.481 Y66.656 Z-11.906
X97.5 Y66.691 Z-11.945
X97.524 Y66.732 Z-11.975
X97.55 Y66.777 Z-11.994
X97.578 Y66.826 Z-12
X97.703 Y67.042
G3 X97.612 Y67.384 I-0.217 J0.125
G1 X95.734 Y68.468
X91.978 Y66.299
Y61.963
X95.734 Y59.794
X99.49 Y61.963
Y66.299
X97.612 Y67.384
G3 X97.27 Y67.292 I-0.125 J-0.217
G1 X97.145 Y67.076
X97.117 Y67.027 Z-11.994
X97.091 Y66.982 Z-11.975
X97.067 Y66.941 Z-11.945
X97.048 Y66.906 Z-11.906
X97.033 Y66.88 Z-11.858
X97.023 Y66.864 Z-11.806
X97.02 Y66.859 Z-11.75
Z5
X104.695 Y74.196
Z2.1 F300
Z-0.85
G18 G2 X104.945 Z-1.1 I0.25 K0 F600
G1 X105.195
G17 G3 X105.445 Y74.446 I0 J0.25
G1 Y76.615
X101.69 Y78.783
X97.934 Y76.615
Y72.278
X101.69 Y70.11
X105.445 Y72.278
Y74.446
G3 X105.195 Y74.696 I-0.25 J0
G1 X104.945
G18 G3 X104.695 Z-0.85 I0 K0.25
G1 Z5
Y74.196
Z1 F300
Z-1.95
G2 X104.945 Z-2.2 I0.25 K0 F600
G1 X105.195
G17 G3 X105.445 Y74.446 I0 J0.25
G1 Y76.615
X101.69 Y78.783
X97.934 Y76.615
Y72.278
X101.69 Y70.11
X105.445 Y72.278
Y74.446
G3 X105.195 Y74.696 I-0.25 J0
G1 X104.945
G18 G3 X104.695 Z-1.95 I0 K0.25
G1 Z5
Y74.196
Z-0.1 F300
Z-3.05
G2 X104.945 Z-3.3 I0.25 K0 F600
G1 X105.195
G17 G3 X105.445 Y74.446 I0 J0.25
G1 Y76.615
X101.69 Y78.783
X97.934 Y76.615
Y72.278
X101.69 Y70.11
X105.445 Y72.278
Y74.446
G3 X105.195 Y74.696 I-0.25 J0
G1 X104.945
G18 G3 X104.695 Z-3.05 I0 K0.25
G1 Z5
Y74.196
Z-1.2 F300
Z-4.15
G2 X104.945 Z-4.4 I0.25 K0 F600
G1 X105.195
G17 G3 X105.445 Y74.446 I0 J0.25
G1 Y76.615
X101.69 Y78.783
X97.934 Y76.615
Y72.278
X101.69 Y70.11
X105.445 Y72.278
Y74.446
G3 X105.195 Y74.696 I-0.25 J0
G1 X104.945
G18 G3 X104.695 Z-4.15 I0 K0.25
G1 Z5
Y74.196
Z-2.3 F300
Z-5.25
G2 X104.945 Z-5.5 I0.25 K0 F600
G1 X105.195
G17 G3 X105.445 Y74.446 I0 J0.25
G1 Y76.615
X101.69 Y78.783
X97.934 Y76.615
Y72.278
X101.69 Y70.11
X105.445 Y72.278
Y74.446
G3 X105.195 Y74.696 I-0.25 J0
G1 X104.945
G18 G3 X104.695 Z-5.25 I0 K0.25
G1 Z5
Y74.196
Z-3.4 F300
Z-6.35
G2 X104.945 Z-6.6 I0.25 K0 F600
G1 X105.195
G17 G3 X105.445 Y74.446 I0 J0.25
G1 Y76.615
X101.69 Y78.783
X97.934 Y76.615
Y72.278
X101.69 Y70.11
X105.445 Y72.278
Y74.446
G3 X105.195 Y74.696 I-0.25 J0
G1 X104.945
G18 G3 X104.695 Z-6.35 I0 K0.25
G1 Z5
Y74.196
Z-4.5 F300
Z-7.45
G2 X104.945 Z-7.7 I0.25 K0 F600
G1 X105.195
G17 G3 X105.445 Y74.446 I0 J0.25
G1 Y76.615
X101.69 Y78.783
X97.934 Y76.615
Y72.278
X101.69 Y70.11
X105.445 Y72.278
Y74.446
G3 X105.195 Y74.696 I-0.25 J0
G1 X104.945
G18 G3 X104.695 Z-7.45 I0 K0.25
G1 Z5
Y74.196
Z-5.6 F300
Z-8.55
G2 X104.945 Z-8.8 I0.25 K0 F600
G1 X105.195
G17 G3 X105.445 Y74.446 I0 J0.25
G1 Y76.615
X101.69 Y78.783
X97.934 Y76.615
Y72.278
X101.69 Y70.11
X105.445 Y72.278
Y74.446
G3 X105.195 Y74.696 I-0.25 J0
G1 X104.945
G18 G3 X104.695 Z-8.55 I0 K0.25
G1 Z5
Y74.196
Z-6.7 F300
Z-9.65
G2 X104.945 Z-9.9 I0.25 K0 F600
G1 X105.195
G17 G3 X105.445 Y74.446 I0 J0.25
G1 Y76.615
X101.69 Y78.783
X97.934 Y76.615
Y72.278
X101.69 Y70.11
X105.445 Y72.278
Y74.446
G3 X105.195 Y74.696 I-0.25 J0
G1 X104.945
G18 G3 X104.695 Z-9.65 I0 K0.25
G1 Z5
Y74.196
Z-7.8 F300
Z-10.75
G2 X104.945 Z-11 I0.25 K0 F600
G1 X105.195
G17 G3 X105.445 Y74.446 I0 J0.25
G1 Y76.615
X101.69 Y78.783
X97.934 Y76.615
Y72.278
X101.69 Y70.11
X105.445 Y72.278
Y74.446
G3 X105.195 Y74.696 I-0.25 J0
G1 X104.945
G18 G3 X104.695 Z-10.75 I0 K0.25
G1 Z5
Y74.196
Z-8.9 F300
Z-11.75
G2 X104.945 Z-12 I0.25 K0 F600
G1 X105.195
G17 G3 X105.445 Y74.446 I0 J0.25
G1 Y76.615
X101.69 Y78.783
X97.934 Y76.615
Y72.278
X101.69 Y70.11
X105.445 Y72.278
Y74.446
G3 X105.195 Y74.696 I-0.25 J0
G1 X104.945
G18 G3 X104.695 Z-11.75 I0 K0.25
G1 Z5
X92.784 Y74.196
Z2.1 F300
Z-0.85
G2 X93.034 Z-1.1 I0.25 K0 F600
G1 X93.284
G17 G3 X93.534 Y74.446 I0 J0.25
G1 Y76.615
X89.778 Y78.783
X86.023 Y76.615
Y72.278
X89.778 Y70.11
X93.534 Y72.278
Y74.446
G3 X93.284 Y74.696 I-0.25 J0
G1 X93.034
G18 G3 X92.784 Z-0.85 I0 K0.25
G1 Z5
Y74.196
Z1 F300
Z-1.95
G2 X93.034 Z-2.2 I0.25 K0 F600
G1 X93.284
G17 G3 X93.534 Y74.446 I0 J0.25
G1 Y76.615
X89.778 Y78.783
X86.023 Y76.615
Y72.278
X89.778 Y70.11
X93.534 Y72.278
Y74.446
G3 X93.284 Y74.696 I-0.25 J0
G1 X93.034
G18 G3 X92.784 Z-1.95 I0 K0.25
G1 Z5
Y74.196
Z-0.1 F300
Z-3.05
G2 X93.034 Z-3.3 I0.25 K0 F600
G1 X93.284
G17 G3 X93.534 Y74.446 I0 J0.25
G1 Y76.615
X89.778 Y78.783
X86.023 Y76.615
Y72.278
X89.778 Y70.11
X93.534 Y72.278
Y74.446
G3 X93.284 Y74.696 I-0.25 J0
G1 X93.034
G18 G3 X92.784 Z-3.05 I0 K0.25
G1 Z5
Y74.196
Z-1.2 F300
Z-4.15
G2 X93.034 Z-4.4 I0.25 K0 F600
G1 X93.284
G17 G3 X93.534 Y74.446 I0 J0.25
G1 Y76.615
X89.778 Y78.783
X86.023 Y76.615
Y72.278
X89.778 Y70.11
X93.534 Y72.278
Y74.446
G3 X93.284 Y74.696 I-0.25 J0
G1 X93.034
G18 G3 X92.784 Z-4.15 I0 K0.25
G1 Z5
Y74.196
Z-2.3 F300
Z-5.25
G2 X93.034 Z-5.5 I0.25 K0 F600
G1 X93.284
G17 G3 X93.534 Y74.446 I0 J0.25
G1 Y76.615
X89.778 Y78.783
X86.023 Y76.615
Y72.278
X89.778 Y70.11
X93.534 Y72.278
Y74.446
G3 X93.284 Y74.696 I-0.25 J0
G1 X93.034
G18 G3 X92.784 Z-5.25 I0 K0.25
G1 Z5
Y74.196
Z-3.4 F300
Z-6.35
G2 X93.034 Z-6.6 I0.25 K0 F600
G1 X93.284
G17 G3 X93.534 Y74.446 I0 J0.25
G1 Y76.615
X89.778 Y78.783
X86.023 Y76.615
Y72.278
X89.778 Y70.11
X93.534 Y72.278
Y74.446
G3 X93.284 Y74.696 I-0.25 J0
G1 X93.034
G18 G3 X92.784 Z-6.35 I0 K0.25
G1 Z5
Y74.196
Z-4.5 F300
Z-7.45
G2 X93.034 Z-7.7 I0.25 K0 F600
G1 X93.284
G17 G3 X93.534 Y74.446 I0 J0.25
G1 Y76.615
X89.778 Y78.783
X86.023 Y76.615
Y72.278
X89.778 Y70.11
X93.534 Y72.278
Y74.446
G3 X93.284 Y74.696 I-0.25 J0
G1 X93.034
G18 G3 X92.784 Z-7.45 I0 K0.25
G1 Z5
Y74.196
Z-5.6 F300
Z-8.55
G2 X93.034 Z-8.8 I0.25 K0 F600
G1 X93.284
G17 G3 X93.534 Y74.446 I0 J0.25
G1 Y76.615
X89.778 Y78.783
X86.023 Y76.615
Y72.278
X89.778 Y70.11
X93.534 Y72.278
Y74.446
G3 X93.284 Y74.696 I-0.25 J0
G1 X93.034
G18 G3 X92.784 Z-8.55 I0 K0.25
G1 Z5
Y74.196
Z-6.7 F300
Z-9.65
G2 X93.034 Z-9.9 I0.25 K0 F600
G1 X93.284
G17 G3 X93.534 Y74.446 I0 J0.25
G1 Y76.615
X89.778 Y78.783
X86.023 Y76.615
Y72.278
X89.778 Y70.11
X93.534 Y72.278
Y74.446
G3 X93.284 Y74.696 I-0.25 J0
G1 X93.034
G18 G3 X92.784 Z-9.65 I0 K0.25
G1 Z5
Y74.196
Z-7.8 F300
Z-10.75
G2 X93.034 Z-11 I0.25 K0 F600
G1 X93.284
G17 G3 X93.534 Y74.446 I0 J0.25
G1 Y76.615
X89.778 Y78.783
X86.023 Y76.615
Y72.278
X89.778 Y70.11
X93.534 Y72.278
Y74.446
G3 X93.284 Y74.696 I-0.25 J0
G1 X93.034
G18 G3 X92.784 Z-10.75 I0 K0.25
G1 Z5
Y74.196
Z-8.9 F300
Z-11.75
G2 X93.034 Z-12 I0.25 K0 F600
G1 X93.284
G17 G3 X93.534 Y74.446 I0 J0.25
G1 Y76.615
X89.778 Y78.783
X86.023 Y76.615
Y72.278
X89.778 Y70.11
X93.534 Y72.278
Y74.446
G3 X93.284 Y74.696 I-0.25 J0
G1 X93.034
G18 G3 X92.784 Z-11.75 I0 K0.25
G1 Z5
X85.542 Y66.609
Z2.1 F300
Z-0.85
X85.545 Y66.614 Z-0.906 F600
X85.554 Y66.63 Z-0.958
X85.569 Y66.656 Z-1.006
X85.589 Y66.69 Z-1.045
X85.613 Y66.732 Z-1.075
X85.639 Y66.777 Z-1.094
X85.667 Y66.825 Z-1.1
X85.792 Y67.042
G17 G3 X85.7 Y67.383 I-0.217 J0.125
G1 X83.823 Y68.468
X80.067 Y66.299
Y61.963
X83.823 Y59.794
X87.578 Y61.963
Y66.299
X85.7 Y67.383
G3 X85.359 Y67.292 I-0.125 J-0.217
G1 X85.234 Y67.075
X85.206 Y67.027 Z-1.094
X85.18 Y66.982 Z-1.075
X85.156 Y66.94 Z-1.045
X85.136 Y66.906 Z-1.006
X85.121 Y66.88 Z-0.958
X85.112 Y66.864 Z-0.906
X85.109 Y66.859 Z-0.85
Z5
X85.542 Y66.609
Z1 F300
Z-1.95
X85.545 Y66.614 Z-2.006 F600
X85.554 Y66.63 Z-2.058
X85.569 Y66.656 Z-2.106
X85.589 Y66.69 Z-2.145
X85.613 Y66.732 Z-2.175
X85.639 Y66.777 Z-2.194
X85.667 Y66.825 Z-2.2
X85.792 Y67.042
G3 X85.7 Y67.383 I-0.217 J0.125
G1 X83.823 Y68.468
X80.067 Y66.299
Y61.963
X83.823 Y59.794
X87.578 Y61.963
Y66.299
X85.7 Y67.383
G3 X85.359 Y67.292 I-0.125 J-0.217
G1 X85.234 Y67.075
X85.206 Y67.027 Z-2.194
X85.18 Y66.982 Z-2.175
X85.156 Y66.94 Z-2.145
X85.136 Y66.906 Z-2.106
X85.121 Y66.88 Z-2.058
X85.112 Y66.864 Z-2.006
X85.109 Y66.859 Z-1.95
Z5
X85.542 Y66.609
Z-0.1 F300
Z-3.05
X85.545 Y66.614 Z-3.106 F600
X85.554 Y66.63 Z-3.158
X85.569 Y66.656 Z-3.206
X85.589 Y66.69 Z-3.245
X85.613 Y66.732 Z-3.275
X85.639 Y66.777 Z-3.294
X85.667 Y66.825 Z-3.3
X85.792 Y67.042
G3 X85.7 Y67.383 I-0.217 J0.125
G1 X83.823 Y68.468
X80.067 Y66.299
Y61.963
X83.823 Y59.794
X87.578 Y61.963
Y66.299
X85.7 Y67.383
G3 X85.359 Y67.292 I-0.125 J-0.217
G1 X85.234 Y67.075
X85.206 Y67.027 Z-3.294
X85.18 Y66.982 Z-3.275
X85.156 Y66.94 Z-3.245
X85.136 Y66.906 Z-3.206
X85.121 Y66.88 Z-3.158
X85.112 Y66.864 Z-3.106
X85.109 Y66.859 Z-3.05
Z5
X85.542 Y66.609
Z-1.2 F300
Z-4.15
X85.545 Y66.614 Z-4.206 F600
X85.554 Y66.63 Z-4.258
X85.569 Y66.656 Z-4.306
X85.589 Y66.69 Z-4.345
X85.613 Y66.732 Z-4.375
X85.639 Y66.777 Z-4.394
X85.667 Y66.825 Z-4.4
X85.792 Y67.042
G3 X85.7 Y67.383 I-0.217 J0.125
G1 X83.823 Y68.468
X80.067 Y66.299
Y61.963
X83.823 Y59.794
X87.578 Y61.963
Y66.299
X85.7 Y67.383
G3 X85.359 Y67.292 I-0.125 J-0.217
G1 X85.234 Y67.075
X85.206 Y67.027 Z-4.394
X85.18 Y66.982 Z-4.375
X85.156 Y66.94 Z-4.345
X85.136 Y66.906 Z-4.306
X85.121 Y66.88 Z-4.258
X85.112 Y66.864 Z-4.206
X85.109 Y66.859 Z-4.15
Z5
X85.542 Y66.609
Z-2.3 F300
Z-5.25
X85.545 Y66.614 Z-5.306 F600
X85.554 Y66.63 Z-5.358
X85.569 Y66.656 Z-5.406
X85.589 Y66.69 Z-5.445
X85.613 Y66.732 Z-5.475
X85.639 Y66.777 Z-5.494
X85.667 Y66.825 Z-5.5
X85.792 Y67.042
G3 X85.7 Y67.383 I-0.217 J0.125
G1 X83.823 Y68.468
X80.067 Y66.299
Y61.963
X83.823 Y59.794
X87.578 Y61.963
Y66.299
X85.7 Y67.383
G3 X85.359 Y67.292 I-0.125 J-0.217
G1 X85.234 Y67.075
X85.206 Y67.027 Z-5.494
X85.18 Y66.982 Z-5.475
X85.156 Y66.94 Z-5.445
X85.136 Y66.906 Z-5.406
X85.121 Y66.88 Z-5.358
X85.112 Y66.864 Z-5.306
X85.109 Y66.859 Z-5.25
Z5
X85.542 Y66.609
Z-3.4 F300
Z-6.35
X85.545 Y66.614 Z-6.406 F600
X85.554 Y66.63 Z-6.458
X85.569 Y66.656 Z-6.506
X85.589 Y66.69 Z-6.545
X85.613 Y66.732 Z-6.575
X85.639 Y66.777 Z-6.594
X85.667 Y66.825 Z-6.6
X85.792 Y67.042
G3 X85.7 Y67.383 I-0.217 J0.125
G1 X83.823 Y68.468
X80.067 Y66.299
Y61.963
X83.823 Y59.794
X87.578 Y61.963
Y66.299
X85.7 Y67.383
G3 X85.359 Y67.292 I-0.125 J-0.217
G1 X85.234 Y67.075
X85.206 Y67.027 Z-6.594
X85.18 Y66.982 Z-6.575
X85.156 Y66.94 Z-6.545
X85.136 Y66.906 Z-6.506
X85.121 Y66.88 Z-6.458
X85.112 Y66.864 Z-6.406
X85.109 Y66.859 Z-6.35
Z5
X85.542 Y66.609
Z-4.5 F300
Z-7.45
X85.545 Y66.614 Z-7.506 F600
X85.554 Y66.63 Z-7.558
X85.569 Y66.656 Z-7.606
X85.589 Y66.69 Z-7.645
X85.613 Y66.732 Z-7.675
X85.639 Y66.777 Z-7.694
X85.667 Y66.825 Z-7.7
X85.792 Y67.042
G3 X85.7 Y67.383 I-0.217 J0.125
G1 X83.823 Y68.468
X80.067 Y66.299
Y61.963
X83.823 Y59.794
X87.578 Y61.963
Y66.299
X85.7 Y67.383
G3 X85.359 Y67.292 I-0.125 J-0.217
G1 X85.234 Y67.075
X85.206 Y67.027 Z-7.694
X85.18 Y66.982 Z-7.675
X85.156 Y66.94 Z-7.645
X85.136 Y66.906 Z-7.606
X85.121 Y66.88 Z-7.558
X85.112 Y66.864 Z-7.506
X85.109 Y66.859 Z-7.45
Z5
X85.542 Y66.609
Z-5.6 F300
Z-8.55
X85.545 Y66.614 Z-8.606 F600
X85.554 Y66.63 Z-8.658
X85.569 Y66.656 Z-8.706
X85.589 Y66.69 Z-8.745
X85.613 Y66.732 Z-8.775
X85.639 Y66.777 Z-8.794
X85.667 Y66.825 Z-8.8
X85.792 Y67.042
G3 X85.7 Y67.383 I-0.217 J0.125
G1 X83.823 Y68.468
X80.067 Y66.299
Y61.963
X83.823 Y59.794
X87.578 Y61.963
Y66.299
X85.7 Y67.383
G3 X85.359 Y67.292 I-0.125 J-0.217
G1 X85.234 Y67.075
X85.206 Y67.027 Z-8.794
X85.18 Y66.982 Z-8.775
X85.156 Y66.94 Z-8.745
X85.136 Y66.906 Z-8.706
X85.121 Y66.88 Z-8.658
X85.112 Y66.864 Z-8.606
X85.109 Y66.859 Z-8.55
Z5
X85.542 Y66.609
Z-6.7 F300
Z-9.65
X85.545 Y66.614 Z-9.706 F600
X85.554 Y66.63 Z-9.758
X85.569 Y66.656 Z-9.806
X85.589 Y66.69 Z-9.845
X85.613 Y66.732 Z-9.875
X85.639 Y66.777 Z-9.894
X85.667 Y66.825 Z-9.9
X85.792 Y67.042
G3 X85.7 Y67.383 I-0.217 J0.125
G1 X83.823 Y68.468
X80.067 Y66.299
Y61.963
X83.823 Y59.794
X87.578 Y61.963
Y66.299
X85.7 Y67.383
G3 X85.359 Y67.292 I-0.125 J-0.217
G1 X85.234 Y67.075
X85.206 Y67.027 Z-9.894
X85.18 Y66.982 Z-9.875
X85.156 Y66.94 Z-9.845
X85.136 Y66.906 Z-9.806
X85.121 Y66.88 Z-9.758
X85.112 Y66.864 Z-9.706
X85.109 Y66.859 Z-9.65
Z5
X85.542 Y66.609
Z-7.8 F300
Z-10.75
X85.545 Y66.614 Z-10.806 F600
X85.554 Y66.63 Z-10.858
X85.569 Y66.656 Z-10.906
X85.589 Y66.69 Z-10.945
X85.613 Y66.732 Z-10.975
X85.639 Y66.777 Z-10.994
X85.667 Y66.825 Z-11
X85.792 Y67.042
G3 X85.7 Y67.383 I-0.217 J0.125
G1 X83.823 Y68.468
X80.067 Y66.299
Y61.963
X83.823 Y59.794
X87.578 Y61.963
Y66.299
X85.7 Y67.383
G3 X85.359 Y67.292 I-0.125 J-0.217
G1 X85.234 Y67.075
X85.206 Y67.027 Z-10.994
X85.18 Y66.982 Z-10.975
X85.156 Y66.94 Z-10.945
X85.136 Y66.906 Z-10.906
X85.121 Y66.88 Z-10.858
X85.112 Y66.864 Z-10.806
X85.109 Y66.859 Z-10.75
Z5
X85.542 Y66.609
Z-8.9 F300
Z-11.75
X85.545 Y66.614 Z-11.806 F600
X85.554 Y66.63 Z-11.858
X85.569 Y66.656 Z-11.906
X85.589 Y66.69 Z-11.945
X85.613 Y66.732 Z-11.975
X85.639 Y66.777 Z-11.994
X85.667 Y66.825 Z-12
X85.792 Y67.042
G3 X85.7 Y67.383 I-0.217 J0.125
G1 X83.823 Y68.468
X80.067 Y66.299
Y61.963
X83.823 Y59.794
X87.578 Y61.963
Y66.299
X85.7 Y67.383
G3 X85.359 Y67.292 I-0.125 J-0.217
G1 X85.234 Y67.075
X85.206 Y67.027 Z-11.994
X85.18 Y66.982 Z-11.975
X85.156 Y66.94 Z-11.945
X85.136 Y66.906 Z-11.906
X85.121 Y66.88 Z-11.858
X85.112 Y66.864 Z-11.806
X85.109 Y66.859 Z-11.75
Z5
X80.873 Y74.196
Z2.1 F300
Z-0.85
G18 G2 X81.123 Z-1.1 I0.25 K0 F600
G1 X81.373
G17 G3 X81.623 Y74.446 I0 J0.25
G1 Y76.615
X77.867 Y78.783
X74.111 Y76.615
Y72.278
X77.867 Y70.11
X81.623 Y72.278
Y74.446
G3 X81.373 Y74.696 I-0.25 J0
G1 X81.123
G18 G3 X80.873 Z-0.85 I0 K0.25
G1 Z5
Y74.196
Z1 F300
Z-1.95
G2 X81.123 Z-2.2 I0.25 K0 F600
G1 X81.373
G17 G3 X81.623 Y74.446 I0 J0.25
G1 Y76.615
X77.867 Y78.783
X74.111 Y76.615
Y72.278
X77.867 Y70.11
X81.623 Y72.278
Y74.446
G3 X81.373 Y74.696 I-0.25 J0
G1 X81.123
G18 G3 X80.873 Z-1.95 I0 K0.25
G1 Z5
Y74.196
Z-0.1 F300
Z-3.05
G2 X81.123 Z-3.3 I0.25 K0 F600
G1 X81.373
G17 G3 X81.623 Y74.446 I0 J0.25
G1 Y76.615
X77.867 Y78.783
X74.111 Y76.615
Y72.278
X77.867 Y70.11
X81.623 Y72.278
Y74.446
G3 X81.373 Y74.696 I-0.25 J0
G1 X81.123
G18 G3 X80.873 Z-3.05 I0 K0.25
G1 Z5
Y74.196
Z-1.2 F300
Z-4.15
G2 X81.123 Z-4.4 I0.25 K0 F600
G1 X81.373
G17 G3 X81.623 Y74.446 I0 J0.25
G1 Y76.615
X77.867 Y78.783
X74.111 Y76.615
Y72.278
X77.867 Y70.11
X81.623 Y72.278
Y74.446
G3 X81.373 Y74.696 I-0.25 J0
G1 X81.123
G18 G3 X80.873 Z-4.15 I0 K0.25
G1 Z5
Y74.196
Z-2.3 F300
Z-5.25
G2 X81.123 Z-5.5 I0.25 K0 F600
G1 X81.373
G17 G3 X81.623 Y74.446 I0 J0.25
G1 Y76.615
X77.867 Y78.783
X74.111 Y76.615
Y72.278
X77.867 Y70.11
X81.623 Y72.278
Y74.446
G3 X81.373 Y74.696 I-0.25 J0
G1 X81.123
G18 G3 X80.873 Z-5.25 I0 K0.25
G1 Z5
Y74.196
Z-3.4 F300
Z-6.35
G2 X81.123 Z-6.6 I0.25 K0 F600
G1 X81.373
G17 G3 X81.623 Y74.446 I0 J0.25
G1 Y76.615
X77.867 Y78.783
X74.111 Y76.615
Y72.278
X77.867 Y70.11
X81.623 Y72.278
Y74.446
G3 X81.373 Y74.696 I-0.25 J0
G1 X81.123
G18 G3 X80.873 Z-6.35 I0 K0.25
G1 Z5
Y74.196
Z-4.5 F300
Z-7.45
G2 X81.123 Z-7.7 I0.25 K0 F600
G1 X81.373
G17 G3 X81.623 Y74.446 I0 J0.25
G1 Y76.615
X77.867 Y78.783
X74.111 Y76.615
Y72.278
X77.867 Y70.11
X81.623 Y72.278
Y74.446
G3 X81.373 Y74.696 I-0.25 J0
G1 X81.123
G18 G3 X80.873 Z-7.45 I0 K0.25
G1 Z5
Y74.196
Z-5.6 F300
Z-8.55
G2 X81.123 Z-8.8 I0.25 K0 F600
G1 X81.373
G17 G3 X81.623 Y74.446 I0 J0.25
G1 Y76.615
X77.867 Y78.783
X74.111 Y76.615
Y72.278
X77.867 Y70.11
X81.623 Y72.278
Y74.446
G3 X81.373 Y74.696 I-0.25 J0
G1 X81.123
G18 G3 X80.873 Z-8.55 I0 K0.25
G1 Z5
Y74.196
Z-6.7 F300
Z-9.65
G2 X81.123 Z-9.9 I0.25 K0 F600
G1 X81.373
G17 G3 X81.623 Y74.446 I0 J0.25
G1 Y76.615
X77.867 Y78.783
X74.111 Y76.615
Y72.278
X77.867 Y70.11
X81.623 Y72.278
Y74.446
G3 X81.373 Y74.696 I-0.25 J0
G1 X81.123
G18 G3 X80.873 Z-9.65 I0 K0.25
G1 Z5
Y74.196
Z-7.8 F300
Z-10.75
G2 X81.123 Z-11 I0.25 K0 F600
G1 X81.373
G17 G3 X81.623 Y74.446 I0 J0.25
G1 Y76.615
X77.867 Y78.783
X74.111 Y76.615
Y72.278
X77.867 Y70.11
X81.623 Y72.278
Y74.446
G3 X81.373 Y74.696 I-0.25 J0
G1 X81.123
G18 G3 X80.873 Z-10.75 I0 K0.25
G1 Z5
Y74.196
Z-8.9 F300
Z-11.75
G2 X81.123 Z-12 I0.25 K0 F600
G1 X81.373
G17 G3 X81.623 Y74.446 I0 J0.25
G1 Y76.615
X77.867 Y78.783
X74.111 Y76.615
Y72.278
X77.867 Y70.11
X81.623 Y72.278
Y74.446
G3 X81.373 Y74.696 I-0.25 J0
G1 X81.123
G18 G3 X80.873 Z-11.75 I0 K0.25
G1 Z5
X73.631 Y66.609
Z2.1 F300
Z-0.85
X73.634 Y66.614 Z-0.906 F600
X73.643 Y66.63 Z-0.958
X73.658 Y66.656 Z-1.006
X73.678 Y66.69 Z-1.045
X73.701 Y66.732 Z-1.075
X73.728 Y66.777 Z-1.094
X73.756 Y66.825 Z-1.1
X73.881 Y67.042
G17 G3 X73.789 Y67.383 I-0.217 J0.125
G1 X71.911 Y68.468
X68.156 Y66.299
Y61.963
X71.911 Y59.794
X75.667 Y61.963
Y66.299
X73.789 Y67.383
G3 X73.448 Y67.292 I-0.125 J-0.217
G1 X73.323 Y67.075
X73.295 Y67.027 Z-1.094
X73.268 Y66.982 Z-1.075
X73.245 Y66.94 Z-1.045
X73.225 Y66.906 Z-1.006
X73.21 Y66.88 Z-0.958
X73.201 Y66.864 Z-0.906
X73.198 Y66.859 Z-0.85
Z5
X73.631 Y66.609
Z1 F300
Z-1.95
X73.634 Y66.614 Z-2.006 F600
X73.643 Y66.63 Z-2.058
X73.658 Y66.656 Z-2.106
X73.678 Y66.69 Z-2.145
X73.701 Y66.732 Z-2.175
X73.728 Y66.777 Z-2.194
X73.756 Y66.825 Z-2.2
X73.881 Y67.042
G3 X73.789 Y67.383 I-0.217 J0.125
G1 X71.911 Y68.468
X68.156 Y66.299
Y61.963
X71.911 Y59.794
X75.667 Y61.963
Y66.299
X73.789 Y67.383
G3 X73.448 Y67.292 I-0.125 J-0.217
G1 X73.323 Y67.075
X73.295 Y67.027 Z-2.194
X73.268 Y66.982 Z-2.175
X73.245 Y66.94 Z-2.145
X73.225 Y66.906 Z-2.106
X73.21 Y66.88 Z-2.058
X73.201 Y66.864 Z-2.006
X73.198 Y66.859 Z-1.95
Z5
X73.631 Y66.609
Z-0.1 F300
Z-3.05
X73.634 Y66.614 Z-3.106 F600
X73.643 Y66.63 Z-3.158
X73.658 Y66.656 Z-3.206
X73.678 Y66.69 Z-3.245
X73.701 Y66.732 Z-3.275
X73.728 Y66.777 Z-3.294
X73.756 Y66.825 Z-3.3
X73.881 Y67.042
G3 X73.789 Y67.383 I-0.217 J0.125
G1 X71.911 Y68.468
X68.156 Y66.299
Y61.963
X71.911 Y59.794
X75.667 Y61.963
Y66.299
X73.789 Y67.383
G3 X73.448 Y67.292 I-0.125 J-0.217
G1 X73.323 Y67.075
X73.295 Y67.027 Z-3.294
X73.268 Y66.982 Z-3.275
X73.245 Y66.94 Z-3.245
X73.225 Y66.906 Z-3.206
X73.21 Y66.88 Z-3.158
X73.201 Y66.864 Z-3.106
X73.198 Y66.859 Z-3.05
Z5
X73.631 Y66.609
Z-1.2 F300
Z-4.15
X73.634 Y66.614 Z-4.206 F600
X73.643 Y66.63 Z-4.258
X73.658 Y66.656 Z-4.306
X73.678 Y66.69 Z-4.345
X73.701 Y66.732 Z-4.375
X73.728 Y66.777 Z-4.394
X73.756 Y66.825 Z-4.4
X73.881 Y67.042
G3 X73.789 Y67.383 I-0.217 J0.125
G1 X71.911 Y68.468
X68.156 Y66.299
Y61.963
X71.911 Y59.794
X75.667 Y61.963
Y66.299
X73.789 Y67.383
G3 X73.448 Y67.292 I-0.125 J-0.217
G1 X73.323 Y67.075
X73.295 Y67.027 Z-4.394
X73.268 Y66.982 Z-4.375
X73.245 Y66.94 Z-4.345
X73.225 Y66.906 Z-4.306
X73.21 Y66.88 Z-4.258
X73.201 Y66.864 Z-4.206
X73.198 Y66.859 Z-4.15
Z5
X73.631 Y66.609
Z-2.3 F300
Z-5.25
X73.634 Y66.614 Z-5.306 F600
X73.643 Y66.63 Z-5.358
X73.658 Y66.656 Z-5.406
X73.678 Y66.69 Z-5.445
X73.701 Y66.732 Z-5.475
X73.728 Y66.777 Z-5.494
X73.756 Y66.825 Z-5.5
X73.881 Y67.042
G3 X73.789 Y67.383 I-0.217 J0.125
G1 X71.911 Y68.468
X68.156 Y66.299
Y61.963
X71.911 Y59.794
X75.667 Y61.963
Y66.299
X73.789 Y67.383
G3 X73.448 Y67.292 I-0.125 J-0.217
G1 X73.323 Y67.075
X73.295 Y67.027 Z-5.494
X73.268 Y66.982 Z-5.475
X73.245 Y66.94 Z-5.445
X73.225 Y66.906 Z-5.406
X73.21 Y66.88 Z-5.358
X73.201 Y66.864 Z-5.306
X73.198 Y66.859 Z-5.25
Z5
X73.631 Y66.609
Z-3.4 F300
Z-6.35
X73.634 Y66.614 Z-6.406 F600
X73.643 Y66.63 Z-6.458
X73.658 Y66.656 Z-6.506
X73.678 Y66.69 Z-6.545
X73.701 Y66.732 Z-6.575
X73.728 Y66.777 Z-6.594
X73.756 Y66.825 Z-6.6
X73.881 Y67.042
G3 X73.789 Y67.383 I-0.217 J0.125
G1 X71.911 Y68.468
X68.156 Y66.299
Y61.963
X71.911 Y59.794
X75.667 Y61.963
Y66.299
X73.789 Y67.383
G3 X73.448 Y67.292 I-0.125 J-0.217
G1 X73.323 Y67.075
X73.295 Y67.027 Z-6.594
X73.268 Y66.982 Z-6.575
X73.245 Y66.94 Z-6.545
X73.225 Y66.906 Z-6.506
X73.21 Y66.88 Z-6.458
X73.201 Y66.864 Z-6.406
X73.198 Y66.859 Z-6.35
Z5
X73.631 Y66.609
Z-4.5 F300
Z-7.45
X73.634 Y66.614 Z-7.506 F600
X73.643 Y66.63 Z-7.558
X73.658 Y66.656 Z-7.606
X73.678 Y66.69 Z-7.645
X73.701 Y66.732 Z-7.675
X73.728 Y66.777 Z-7.694
X73.756 Y66.825 Z-7.7
X73.881 Y67.042
G3 X73.789 Y67.383 I-0.217 J0.125
G1 X71.911 Y68.468
X68.156 Y66.299
Y61.963
X71.911 Y59.794
X75.667 Y61.963
Y66.299
X73.789 Y67.383
G3 X73.448 Y67.292 I-0.125 J-0.217
G1 X73.323 Y67.075
X73.295 Y67.027 Z-7.694
X73.268 Y66.982 Z-7.675
X73.245 Y66.94 Z-7.645
X73.225 Y66.906 Z-7.606
X73.21 Y66.88 Z-7.558
X73.201 Y66.864 Z-7.506
X73.198 Y66.859 Z-7.45
Z5
X73.631 Y66.609
Z-5.6 F300
Z-8.55
X73.634 Y66.614 Z-8.606 F600
X73.643 Y66.63 Z-8.658
X73.658 Y66.656 Z-8.706
X73.678 Y66.69 Z-8.745
X73.701 Y66.732 Z-8.775
X73.728 Y66.777 Z-8.794
X73.756 Y66.825 Z-8.8
X73.881 Y67.042
G3 X73.789 Y67.383 I-0.217 J0.125
G1 X71.911 Y68.468
X68.156 Y66.299
Y61.963
X71.911 Y59.794
X75.667 Y61.963
Y66.299
X73.789 Y67.383
G3 X73.448 Y67.292 I-0.125 J-0.217
G1 X73.323 Y67.075
X73.295 Y67.027 Z-8.794
X73.268 Y66.982 Z-8.775
X73.245 Y66.94 Z-8.745
X73.225 Y66.906 Z-8.706
X73.21 Y66.88 Z-8.658
X73.201 Y66.864 Z-8.606
X73.198 Y66.859 Z-8.55
Z5
X73.631 Y66.609
Z-6.7 F300
Z-9.65
X73.634 Y66.614 Z-9.706 F600
X73.643 Y66.63 Z-9.758
X73.658 Y66.656 Z-9.806
X73.678 Y66.69 Z-9.845
X73.701 Y66.732 Z-9.875
X73.728 Y66.777 Z-9.894
X73.756 Y66.825 Z-9.9
X73.881 Y67.042
G3 X73.789 Y67.383 I-0.217 J0.125
G1 X71.911 Y68.468
X68.156 Y66.299
Y61.963
X71.911 Y59.794
X75.667 Y61.963
Y66.299
X73.789 Y67.383
G3 X73.448 Y67.292 I-0.125 J-0.217
G1 X73.323 Y67.075
X73.295 Y67.027 Z-9.894
X73.268 Y66.982 Z-9.875
X73.245 Y66.94 Z-9.845
X73.225 Y66.906 Z-9.806
X73.21 Y66.88 Z-9.758
X73.201 Y66.864 Z-9.706
X73.198 Y66.859 Z-9.65
Z5
X73.631 Y66.609
Z-7.8 F300
Z-10.75
X73.634 Y66.614 Z-10.806 F600
X73.643 Y66.63 Z-10.858
X73.658 Y66.656 Z-10.906
X73.678 Y66.69 Z-10.945
X73.701 Y66.732 Z-10.975
X73.728 Y66.777 Z-10.994
X73.756 Y66.825 Z-11
X73.881 Y67.042
G3 X73.789 Y67.383 I-0.217 J0.125
G1 X71.911 Y68.468
X68.156 Y66.299
Y61.963
X71.911 Y59.794
X75.667 Y61.963
Y66.299
X73.789 Y67.383
G3 X73.448 Y67.292 I-0.125 J-0.217
G1 X73.323 Y67.075
X73.295 Y67.027 Z-10.994
X73.268 Y66.982 Z-10.975
X73.245 Y66.94 Z-10.945
X73.225 Y66.906 Z-10.906
X73.21 Y66.88 Z-10.858
X73.201 Y66.864 Z-10.806
X73.198 Y66.859 Z-10.75
Z5
X73.631 Y66.609
Z-8.9 F300
Z-11.75
X73.634 Y66.614 Z-11.806 F600
X73.643 Y66.63 Z-11.858
X73.658 Y66.656 Z-11.906
X73.678 Y66.69 Z-11.945
X73.701 Y66.732 Z-11.975
X73.728 Y66.777 Z-11.994
X73.756 Y66.825 Z-12
X73.881 Y67.042
G3 X73.789 Y67.383 I-0.217 J0.125
G1 X71.911 Y68.468
X68.156 Y66.299
Y61.963
X71.911 Y59.794
X75.667 Y61.963
Y66.299
X73.789 Y67.383
G3 X73.448 Y67.292 I-0.125 J-0.217
G1 X73.323 Y67.075
X73.295 Y67.027 Z-11.994
X73.268 Y66.982 Z-11.975
X73.245 Y66.94 Z-11.945
X73.225 Y66.906 Z-11.906
X73.21 Y66.88 Z-11.858
X73.201 Y66.864 Z-11.806
X73.198 Y66.859 Z-11.75
Z5
X68.961 Y74.196
Z2.1 F300
Z-0.85
G18 G2 X69.211 Z-1.1 I0.25 K0 F600
G1 X69.461
G17 G3 X69.711 Y74.446 I0 J0.25
G1 Y76.615
X65.956 Y78.783
X62.2 Y76.615
Y72.278
X65.956 Y70.11
X69.711 Y72.278
Y74.446
G3 X69.461 Y74.696 I-0.25 J0
G1 X69.211
G18 G3 X68.961 Z-0.85 I0 K0.25
G1 Z5
Y74.196
Z1 F300
Z-1.95
G2 X69.211 Z-2.2 I0.25 K0 F600
G1 X69.461
G17 G3 X69.711 Y74.446 I0 J0.25
G1 Y76.615
X65.956 Y78.783
X62.2 Y76.615
Y72.278
X65.956 Y70.11
X69.711 Y72.278
Y74.446
G3 X69.461 Y74.696 I-0.25 J0
G1 X69.211
G18 G3 X68.961 Z-1.95 I0 K0.25
G1 Z5
Y74.196
Z-0.1 F300
Z-3.05
G2 X69.211 Z-3.3 I0.25 K0 F600
G1 X69.461
G17 G3 X69.711 Y74.446 I0 J0.25
G1 Y76.615
X65.956 Y78.783
X62.2 Y76.615
Y72.278
X65.956 Y70.11
X69.711 Y72.278
Y74.446
G3 X69.461 Y74.696 I-0.25 J0
G1 X69.211
G18 G3 X68.961 Z-3.05 I0 K0.25
G1 Z5
Y74.196
Z-1.2 F300
Z-4.15
G2 X69.211 Z-4.4 I0.25 K0 F600
G1 X69.461
G17 G3 X69.711 Y74.446 I0 J0.25
G1 Y76.615
X65.956 Y78.783
X62.2 Y76.615
Y72.278
X65.956 Y70.11
X69.711 Y72.278
Y74.446
G3 X69.461 Y74.696 I-0.25 J0
G1 X69.211
G18 G3 X68.961 Z-4.15 I0 K0.25
G1 Z5
Y74.196
Z-2.3 F300
Z-5.25
G2 X69.211 Z-5.5 I0.25 K0 F600
G1 X69.461
G17 G3 X69.711 Y74.446 I0 J0.25
G1 Y76.615
X65.956 Y78.783
X62.2 Y76.615
Y72.278
X65.956 Y70.11
X69.711 Y72.278
Y74.446
G3 X69.461 Y74.696 I-0.25 J0
G1 X69.211
G18 G3 X68.961 Z-5.25 I0 K0.25
G1 Z5
Y74.196
Z-3.4 F300
Z-6.35
G2 X69.211 Z-6.6 I0.25 K0 F600
G1 X69.461
G17 G3 X69.711 Y74.446 I0 J0.25
G1 Y76.615
X65.956 Y78.783
X62.2 Y76.615
Y72.278
X65.956 Y70.11
X69.711 Y72.278
Y74.446
G3 X69.461 Y74.696 I-0.25 J0
G1 X69.211
G18 G3 X68.961 Z-6.35 I0 K0.25
G1 Z5
Y74.196
Z-4.5 F300
Z-7.45
G2 X69.211 Z-7.7 I0.25 K0 F600
G1 X69.461
G17 G3 X69.711 Y74.446 I0 J0.25
G1 Y76.615
X65.956 Y78.783
X62.2 Y76.615
Y72.278
X65.956 Y70.11
X69.711 Y72.278
Y74.446
G3 X69.461 Y74.696 I-0.25 J0
G1 X69.211
G18 G3 X68.961 Z-7.45 I0 K0.25
G1 Z5
Y74.196
Z-5.6 F300
Z-8.55
G2 X69.211 Z-8.8 I0.25 K0 F600
G1 X69.461
G17 G3 X69.711 Y74.446 I0 J0.25
G1 Y76.615
X65.956 Y78.783
X62.2 Y76.615
Y72.278
X65.956 Y70.11
X69.711 Y72.278
Y74.446
G3 X69.461 Y74.696 I-0.25 J0
G1 X69.211
G18 G3 X68.961 Z-8.55 I0 K0.25
G1 Z5
Y74.196
Z-6.7 F300
Z-9.65
G2 X69.211 Z-9.9 I0.25 K0 F600
G1 X69.461
G17 G3 X69.711 Y74.446 I0 J0.25
G1 Y76.615
X65.956 Y78.783
X62.2 Y76.615
Y72.278
X65.956 Y70.11
X69.711 Y72.278
Y74.446
G3 X69.461 Y74.696 I-0.25 J0
G1 X69.211
G18 G3 X68.961 Z-9.65 I0 K0.25
G1 Z5
Y74.196
Z-7.8 F300
Z-10.75
G2 X69.211 Z-11 I0.25 K0 F600
G1 X69.461
G17 G3 X69.711 Y74.446 I0 J0.25
G1 Y76.615
X65.956 Y78.783
X62.2 Y76.615
Y72.278
X65.956 Y70.11
X69.711 Y72.278
Y74.446
G3 X69.461 Y74.696 I-0.25 J0
G1 X69.211
G18 G3 X68.961 Z-10.75 I0 K0.25
G1 Z5
Y74.196
Z-8.9 F300
Z-11.75
G2 X69.211 Z-12 I0.25 K0 F600
G1 X69.461
G17 G3 X69.711 Y74.446 I0 J0.25
G1 Y76.615
X65.956 Y78.783
X62.2 Y76.615
Y72.278
X65.956 Y70.11
X69.711 Y72.278
Y74.446
G3 X69.461 Y74.696 I-0.25 J0
G1 X69.211
G18 G3 X68.961 Z-11.75 I0 K0.25
G1 Z5
X61.719 Y66.609
Z2.1 F300
Z-0.85
X61.722 Y66.614 Z-0.906 F600
X61.732 Y66.63 Z-0.958
X61.747 Y66.656 Z-1.006
X61.766 Y66.69 Z-1.045
X61.79 Y66.732 Z-1.075
X61.816 Y66.777 Z-1.094
X61.844 Y66.825 Z-1.1
X61.969 Y67.042
G17 G3 X61.878 Y67.383 I-0.217 J0.125
G1 X60 Y68.468
X56.244 Y66.299
Y61.963
X60 Y59.794
X63.756 Y61.963
Y66.299
X61.878 Y67.383
G3 X61.536 Y67.292 I-0.125 J-0.217
G1 X61.411 Y67.075
X61.383 Y67.027 Z-1.094
X61.357 Y66.982 Z-1.075
X61.333 Y66.94 Z-1.045
X61.314 Y66.906 Z-1.006
X61.299 Y66.88 Z-0.958
X61.289 Y66.864 Z-0.906
X61.286 Y66.859 Z-0.85
Z5
X61.719 Y66.609
Z1 F300
Z-1.95
X61.722 Y66.614 Z-2.006 F600
X61.732 Y66.63 Z-2.058
X61.747 Y66.656 Z-2.106
X61.766 Y66.69 Z-2.145
X61.79 Y66.732 Z-2.175
X61.816 Y66.777 Z-2.194
X61.844 Y66.825 Z-2.2
X61.969 Y67.042
G3 X61.878 Y67.383 I-0.217 J0.125
G1 X60 Y68.468
X56.244 Y66.299
Y61.963
X60 Y59.794
X63.756 Y61.963
Y66.299
X61.878 Y67.383
G3 X61.536 Y67.292 I-0.125 J-0.217
G1 X61.411 Y67.075
X61.383 Y67.027 Z-2.194
X61.357 Y66.982 Z-2.175
X61.333 Y66.94 Z-2.145
X61.314 Y66.906 Z-2.106
X61.299 Y66.88 Z-2.058
X61.289 Y66.864 Z-2.006
X61.286 Y66.859 Z-1.95
Z5
X61.719 Y66.609
Z-0.1 F300
Z-3.05
X61.722 Y66.614 Z-3.106 F600
X61.732 Y66.63 Z-3.158
X61.747 Y66.656 Z-3.206
X61.766 Y66.69 Z-3.245
X61.79 Y66.732 Z-3.275
X61.816 Y66.777 Z-3.294
X61.844 Y66.825 Z-3.3
X61.969 Y67.042
G3 X61.878 Y67.383 I-0.217 J0.125
G1 X60 Y68.468
X56.244 Y66.299
Y61.963
X60 Y59.794
X63.756 Y61.963
Y66.299
X61.878 Y67.383
G3 X61.536 Y67.292 I-0.125 J-0.217
G1 X61.411 Y67.075
X61.383 Y67.027 Z-3.294
X61.357 Y66.982 Z-3.275
X61.333 Y66.94 Z-3.245
X61.314 Y66.906 Z-3.206
X61.299 Y66.88 Z-3.158
X61.289 Y66.864 Z-3.106
X61.286 Y66.859 Z-3.05
Z5
X61.719 Y66.609
Z-1.2 F300
Z-4.15
X61.722 Y66.614 Z-4.206 F600
X61.732 Y66.63 Z-4.258
X61.747 Y66.656 Z-4.306
X61.766 Y66.69 Z-4.345
X61.79 Y66.732 Z-4.375
X61.816 Y66.777 Z-4.394
X61.844 Y66.825 Z-4.4
X61.969 Y67.042
G3 X61.878 Y67.383 I-0.217 J0.125
G1 X60 Y68.468
X56.244 Y66.299
Y61.963
X60 Y59.794
X63.756 Y61.963
Y66.299
X61.878 Y67.383
G3 X61.536 Y67.292 I-0.125 J-0.217
G1 X61.411 Y67.075
X61.383 Y67.027 Z-4.394
X61.357 Y66.982 Z-4.375
X61.333 Y66.94 Z-4.345
X61.314 Y66.906 Z-4.306
X61.299 Y66.88 Z-4.258
X61.289 Y66.864 Z-4.206
X61.286 Y66.859 Z-4.15
Z5
X61.719 Y66.609
Z-2.3 F300
Z-5.25
X61.722 Y66.614 Z-5.306 F600
X61.732 Y66.63 Z-5.358
X61.747 Y66.656 Z-5.406
X61.766 Y66.69 Z-5.445
X61.79 Y66.732 Z-5.475
X61.816 Y66.777 Z-5.494
X61.844 Y66.825 Z-5.5
X61.969 Y67.042
G3 X61.878 Y67.383 I-0.217 J0.125
G1 X60 Y68.468
X56.244 Y66.299
Y61.963
X60 Y59.794
X63.756 Y61.963
Y66.299
X61.878 Y67.383
G3 X61.536 Y67.292 I-0.125 J-0.217
G1 X61.411 Y67.075
X61.383 Y67.027 Z-5.494
X61.357 Y66.982 Z-5.475
X61.333 Y66.94 Z-5.445
X61.314 Y66.906 Z-5.406
X61.299 Y66.88 Z-5.358
X61.289 Y66.864 Z-5.306
X61.286 Y66.859 Z-5.25
Z5
X61.719 Y66.609
Z-3.4 F300
Z-6.35
X61.722 Y66.614 Z-6.406 F600
X61.732 Y66.63 Z-6.458
X61.747 Y66.656 Z-6.506
X61.766 Y66.69 Z-6.545
X61.79 Y66.732 Z-6.575
X61.816 Y66.777 Z-6.594
X61.844 Y66.825 Z-6.6
X61.969 Y67.042
G3 X61.878 Y67.383 I-0.217 J0.125
G1 X60 Y68.468
X56.244 Y66.299
Y61.963
X60 Y59.794
X63.756 Y61.963
Y66.299
X61.878 Y67.383
G3 X61.536 Y67.292 I-0.125 J-0.217
G1 X61.411 Y67.075
X61.383 Y67.027 Z-6.594
X61.357 Y66.982 Z-6.575
X61.333 Y66.94 Z-6.545
X61.314 Y66.906 Z-6.506
X61.299 Y66.88 Z-6.458
X61.289 Y66.864 Z-6.406
X61.286 Y66.859 Z-6.35
Z5
X61.719 Y66.609
Z-4.5 F300
Z-7.45
X61.722 Y66.614 Z-7.506 F600
X61.732 Y66.63 Z-7.558
X61.747 Y66.656 Z-7.606
X61.766 Y66.69 Z-7.645
X61.79 Y66.732 Z-7.675
X61.816 Y66.777 Z-7.694
X61.844 Y66.825 Z-7.7
X61.969 Y67.042
G3 X61.878 Y67.383 I-0.217 J0.125
G1 X60 Y68.468
X56.244 Y66.299
Y61.963
X60 Y59.794
X63.756 Y61.963
Y66.299
X61.878 Y67.383
G3 X61.536 Y67.292 I-0.125 J-0.217
G1 X61.411 Y67.075
X61.383 Y67.027 Z-7.694
X61.357 Y66.982 Z-7.675
X61.333 Y66.94 Z-7.645
X61.314 Y66.906 Z-7.606
X61.299 Y66.88 Z-7.558
X61.289 Y66.864 Z-7.506
X61.286 Y66.859 Z-7.45
Z5
X61.719 Y66.609
Z-5.6 F300
Z-8.55
X61.722 Y66.614 Z-8.606 F600
X61.732 Y66.63 Z-8.658
X61.747 Y66.656 Z-8.706
X61.766 Y66.69 Z-8.745
X61.79 Y66.732 Z-8.775
X61.816 Y66.777 Z-8.794
X61.844 Y66.825 Z-8.8
X61.969 Y67.042
G3 X61.878 Y67.383 I-0.217 J0.125
G1 X60 Y68.468
X56.244 Y66.299
Y61.963
X60 Y59.794
X63.756 Y61.963
Y66.299
X61.878 Y67.383
G3 X61.536 Y67.292 I-0.125 J-0.217
G1 X61.411 Y67.075
X61.383 Y67.027 Z-8.794
X61.357 Y66.982 Z-8.775
X61.333 Y66.94 Z-8.745
X61.314 Y66.906 Z-8.706
X61.299 Y66.88 Z-8.658
X61.289 Y66.864 Z-8.606
X61.286 Y66.859 Z-8.55
Z5
X61.719 Y66.609
Z-6.7 F300
Z-9.65
X61.722 Y66.614 Z-9.706 F600
X61.732 Y66.63 Z-9.758
X61.747 Y66.656 Z-9.806
X61.766 Y66.69 Z-9.845
X61.79 Y66.732 Z-9.875
X61.816 Y66.777 Z-9.894
X61.844 Y66.825 Z-9.9
X61.969 Y67.042
G3 X61.878 Y67.383 I-0.217 J0.125
G1 X60 Y68.468
X56.244 Y66.299
Y61.963
X60 Y59.794
X63.756 Y61.963
Y66.299
X61.878 Y67.383
G3 X61.536 Y67.292 I-0.125 J-0.217
G1 X61.411 Y67.075
X61.383 Y67.027 Z-9.894
X61.357 Y66.982 Z-9.875
X61.333 Y66.94 Z-9.845
X61.314 Y66.906 Z-9.806
X61.299 Y66.88 Z-9.758
X61.289 Y66.864 Z-9.706
X61.286 Y66.859 Z-9.65
Z5
X61.719 Y66.609
Z-7.8 F300
Z-10.75
X61.722 Y66.614 Z-10.806 F600
X61.732 Y66.63 Z-10.858
X61.747 Y66.656 Z-10.906
X61.766 Y66.69 Z-10.945
X61.79 Y66.732 Z-10.975
X61.816 Y66.777 Z-10.994
X61.844 Y66.825 Z-11
X61.969 Y67.042
G3 X61.878 Y67.383 I-0.217 J0.125
G1 X60 Y68.468
X56.244 Y66.299
Y61.963
X60 Y59.794
X63.756 Y61.963
Y66.299
X61.878 Y67.383
G3 X61.536 Y67.292 I-0.125 J-0.217
G1 X61.411 Y67.075
X61.383 Y67.027 Z-10.994
X61.357 Y66.982 Z-10.975
X61.333 Y66.94 Z-10.945
X61.314 Y66.906 Z-10.906
X61.299 Y66.88 Z-10.858
X61.289 Y66.864 Z-10.806
X61.286 Y66.859 Z-10.75
Z5
X61.719 Y66.609
Z-8.9 F300
Z-11.75
X61.722 Y66.614 Z-11.806 F600
X61.732 Y66.63 Z-11.858
X61.747 Y66.656 Z-11.906
X61.766 Y66.69 Z-11.945
X61.79 Y66.732 Z-11.975
X61.816 Y66.777 Z-11.994
X61.844 Y66.825 Z-12
X61.969 Y67.042
G3 X61.878 Y67.383 I-0.217 J0.125
G1 X60 Y68.468
X56.244 Y66.299
Y61.963
X60 Y59.794
X63.756 Y61.963
Y66.299
X61.878 Y67.383
G3 X61.536 Y67.292 I-0.125 J-0.217
G1 X61.411 Y67.075
X61.383 Y67.027 Z-11.994
X61.357 Y66.982 Z-11.975
X61.333 Y66.94 Z-11.945
X61.314 Y66.906 Z-11.906
X61.299 Y66.88 Z-11.858
X61.289 Y66.864 Z-11.806
X61.286 Y66.859 Z-11.75
Z5
X55.331 Y71.719
Z2.1 F300
Z-0.85
X55.334 Y71.713 Z-0.906 F600
X55.343 Y71.697 Z-0.958
X55.358 Y71.671 Z-1.006
X55.378 Y71.637 Z-1.045
X55.401 Y71.596 Z-1.075
X55.428 Y71.55 Z-1.094
X55.456 Y71.502 Z-1.1
X55.581 Y71.286
G3 X55.922 Y71.194 I0.217 J0.125
G1 X57.8 Y72.278
Y76.615
X54.044 Y78.783
X50.289 Y76.615
Y72.278
X54.044 Y70.11
X55.922 Y71.194
G3 X56.014 Y71.536 I-0.125 J0.217
G1 X55.889 Y71.752
X55.861 Y71.8 Z-1.094
X55.834 Y71.846 Z-1.075
X55.811 Y71.887 Z-1.045
X55.791 Y71.921 Z-1.006
X55.776 Y71.947 Z-0.958
X55.767 Y71.963 Z-0.906
X55.764 Y71.969 Z-0.85
Z5
X55.331 Y71.719
Z1 F300
Z-1.95
X55.334 Y71.713 Z-2.006 F600
X55.343 Y71.697 Z-2.058
X55.358 Y71.671 Z-2.106
X55.378 Y71.637 Z-2.145
X55.401 Y71.596 Z-2.175
X55.428 Y71.55 Z-2.194
X55.456 Y71.502 Z-2.2
X55.581 Y71.286
G3 X55.922 Y71.194 I0.217 J0.125
G1 X57.8 Y72.278
Y76.615
X54.044 Y78.783
X50.289 Y76.615
Y72.278
X54.044 Y70.11
X55.922 Y71.194
G3 X56.014 Y71.536 I-0.125 J0.217
G1 X55.889 Y71.752
X55.861 Y71.8 Z-2.194
X55.834 Y71.846 Z-2.175
X55.811 Y71.887 Z-2.145
X55.791 Y71.921 Z-2.106
X55.776 Y71.947 Z-2.058
X55.767 Y71.963 Z-2.006
X55.764 Y71.969 Z-1.95
Z5
X55.331 Y71.719
Z-0.1 F300
Z-3.05
X55.334 Y71.713 Z-3.106 F600
X55.343 Y71.697 Z-3.158
X55.358 Y71.671 Z-3.206
X55.378 Y71.637 Z-3.245
X55.401 Y71.596 Z-3.275
X55.428 Y71.55 Z-3.294
X55.456 Y71.502 Z-3.3
X55.581 Y71.286
G3 X55.922 Y71.194 I0.217 J0.125
G1 X57.8 Y72.278
Y76.615
X54.044 Y78.783
X50.289 Y76.615
Y72.278
X54.044 Y70.11
X55.922 Y71.194
G3 X56.014 Y71.536 I-0.125 J0.217
G1 X55.889 Y71.752
X55.861 Y71.8 Z-3.294
X55.834 Y71.846 Z-3.275
X55.811 Y71.887 Z-3.245
X55.791 Y71.921 Z-3.206
X55.776 Y71.947 Z-3.158
X55.767 Y71.963 Z-3.106
X55.764 Y71.969 Z-3.05
Z5
X55.331 Y71.719
Z-1.2 F300
Z-4.15
X55.334 Y71.713 Z-4.206 F600
X55.343 Y71.697 Z-4.258
X55.358 Y71.671 Z-4.306
X55.378 Y71.637 Z-4.345
X55.401 Y71.596 Z-4.375
X55.428 Y71.55 Z-4.394
X55.456 Y71.502 Z-4.4
X55.581 Y71.286
G3 X55.922 Y71.194 I0.217 J0.125
G1 X57.8 Y72.278
Y76.615
X54.044 Y78.783
X50.289 Y76.615
Y72.278
X54.044 Y70.11
X55.922 Y71.194
G3 X56.014 Y71.536 I-0.125 J0.217
G1 X55.889 Y71.752
X55.861 Y71.8 Z-4.394
X55.834 Y71.846 Z-4.375
X55.811 Y71.887 Z-4.345
X55.791 Y71.921 Z-4.306
X55.776 Y71.947 Z-4.258
X55.767 Y71.963 Z-4.206
X55.764 Y71.969 Z-4.15
Z5
X55.331 Y71.719
Z-2.3 F300
Z-5.25
X55.334 Y71.713 Z-5.306 F600
X55.343 Y71.697 Z-5.358
X55.358 Y71.671 Z-5.406
X55.378 Y71.637 Z-5.445
X55.401 Y71.596 Z-5.475
X55.428 Y71.55 Z-5.494
X55.456 Y71.502 Z-5.5
X55.581 Y71.286
G3 X55.922 Y71.194 I0.217 J0.125
G1 X57.8 Y72.278
Y76.615
X54.044 Y78.783
X50.289 Y76.615
Y72.278
X54.044 Y70.11
X55.922 Y71.194
G3 X56.014 Y71.536 I-0.125 J0.217
G1 X55.889 Y71.752
X55.861 Y71.8 Z-5.494
X55.834 Y71.846 Z-5.475
X55.811 Y71.887 Z-5.445
X55.791 Y71.921 Z-5.406
X55.776 Y71.947 Z-5.358
X55.767 Y71.963 Z-5.306
X55.764 Y71.969 Z-5.25
Z5
X55.331 Y71.719
Z-3.4 F300
Z-6.35
X55.334 Y71.713 Z-6.406 F600
X55.343 Y71.697 Z-6.458
X55.358 Y71.671 Z-6.506
X55.378 Y71.637 Z-6.545
X55.401 Y71.596 Z-6.575
X55.428 Y71.55 Z-6.594
X55.456 Y71.502 Z-6.6
X55.581 Y71.286
G3 X55.922 Y71.194 I0.217 J0.125
G1 X57.8 Y72.278
Y76.615
X54.044 Y78.783
X50.289 Y76.615
Y72.278
X54.044 Y70.11
X55.922 Y71.194
G3 X56.014 Y71.536 I-0.125 J0.217
G1 X55.889 Y71.752
X55.861 Y71.8 Z-6.594
X55.834 Y71.846 Z-6.575
X55.811 Y71.887 Z-6.545
X55.791 Y71.921 Z-6.506
X55.776 Y71.947 Z-6.458
X55.767 Y71.963 Z-6.406
X55.764 Y71.969 Z-6.35
Z5
X55.331 Y71.719
Z-4.5 F300
Z-7.45
X55.334 Y71.713 Z-7.506 F600
X55.343 Y71.697 Z-7.558
X55.358 Y71.671 Z-7.606
X55.378 Y71.637 Z-7.645
X55.401 Y71.596 Z-7.675
X55.428 Y71.55 Z-7.694
X55.456 Y71.502 Z-7.7
X55.581 Y71.286
G3 X55.922 Y71.194 I0.217 J0.125
G1 X57.8 Y72.278
Y76.615
X54.044 Y78.783
X50.289 Y76.615
Y72.278
X54.044 Y70.11
X55.922 Y71.194
G3 X56.014 Y71.536 I-0.125 J0.217
G1 X55.889 Y71.752
X55.861 Y71.8 Z-7.694
X55.834 Y71.846 Z-7.675
X55.811 Y71.887 Z-7.645
X55.791 Y71.921 Z-7.606
X55.776 Y71.947 Z-7.558
X55.767 Y71.963 Z-7.506
X55.764 Y71.969 Z-7.45
Z5
X55.331 Y71.719
Z-5.6 F300
Z-8.55
X55.334 Y71.713 Z-8.606 F600
X55.343 Y71.697 Z-8.658
X55.358 Y71.671 Z-8.706
X55.378 Y71.637 Z-8.745
X55.401 Y71.596 Z-8.775
X55.428 Y71.55 Z-8.794
X55.456 Y71.502 Z-8.8
X55.581 Y71.286
G3 X55.922 Y71.194 I0.217 J0.125
G1 X57.8 Y72.278
Y76.615
X54.044 Y78.783
X50.289 Y76.615
Y72.278
X54.044 Y70.11
X55.922 Y71.194
G3 X56.014 Y71.536 I-0.125 J0.217
G1 X55.889 Y71.752
X55.861 Y71.8 Z-8.794
X55.834 Y71.846 Z-8.775
X55.811 Y71.887 Z-8.745
X55.791 Y71.921 Z-8.706
X55.776 Y71.947 Z-8.658
X55.767 Y71.963 Z-8.606
X55.764 Y71.969 Z-8.55
Z5
X55.331 Y71.719
Z-6.7 F300
Z-9.65
X55.334 Y71.713 Z-9.706 F600
X55.343 Y71.697 Z-9.758
X55.358 Y71.671 Z-9.806
X55.378 Y71.637 Z-9.845
X55.401 Y71.596 Z-9.875
X55.428 Y71.55 Z-9.894
X55.456 Y71.502 Z-9.9
X55.581 Y71.286
G3 X55.922 Y71.194 I0.217 J0.125
G1 X57.8 Y72.278
Y76.615
X54.044 Y78.783
X50.289 Y76.615
Y72.278
X54.044 Y70.11
X55.922 Y71.194
G3 X56.014 Y71.536 I-0.125 J0.217
G1 X55.889 Y71.752
X55.861 Y71.8 Z-9.894
X55.834 Y71.846 Z-9.875
X55.811 Y71.887 Z-9.845
X55.791 Y71.921 Z-9.806
X55.776 Y71.947 Z-9.758
X55.767 Y71.963 Z-9.706
X55.764 Y71.969 Z-9.65
Z5
X55.331 Y71.719
Z-7.8 F300
Z-10.75
X55.334 Y71.713 Z-10.806 F600
X55.343 Y71.697 Z-10.858
X55.358 Y71.671 Z-10.906
X55.378 Y71.637 Z-10.945
X55.401 Y71.596 Z-10.975
X55.428 Y71.55 Z-10.994
X55.456 Y71.502 Z-11
X55.581 Y71.286
G3 X55.922 Y71.194 I0.217 J0.125
G1 X57.8 Y72.278
Y76.615
X54.044 Y78.783
X50.289 Y76.615
Y72.278
X54.044 Y70.11
X55.922 Y71.194
G3 X56.014 Y71.536 I-0.125 J0.217
G1 X55.889 Y71.752
X55.861 Y71.8 Z-10.994
X55.834 Y71.846 Z-10.975
X55.811 Y71.887 Z-10.945
X55.791 Y71.921 Z-10.906
X55.776 Y71.947 Z-10.858
X55.767 Y71.963 Z-10.806
X55.764 Y71.969 Z-10.75
Z5
X55.331 Y71.719
Z-8.9 F300
Z-11.75
X55.334 Y71.713 Z-11.806 F600
X55.343 Y71.697 Z-11.858
X55.358 Y71.671 Z-11.906
X55.378 Y71.637 Z-11.945
X55.401 Y71.596 Z-11.975
X55.428 Y71.55 Z-11.994
X55.456 Y71.502 Z-12
X55.581 Y71.286
G3 X55.922 Y71.194 I0.217 J0.125
G1 X57.8 Y72.278
Y76.615
X54.044 Y78.783
X50.289 Y76.615
Y72.278
X54.044 Y70.11
X55.922 Y71.194
G3 X56.014 Y71.536 I-0.125 J0.217
G1 X55.889 Y71.752
X55.861 Y71.8 Z-11.994
X55.834 Y71.846 Z-11.975
X55.811 Y71.887 Z-11.945
X55.791 Y71.921 Z-11.906
X55.776 Y71.947 Z-11.858
X55.767 Y71.963 Z-11.806
X55.764 Y71.969 Z-11.75
Z5
X51.094 Y63.881
Z2.1 F300
Z-0.85
G18 G2 X51.344 Z-1.1 I0.25 K0 F600
G1 X51.594
G17 G3 X51.844 Y64.131 I0 J0.25
G1 Y66.299
X48.089 Y68.468
X44.333 Y66.299
Y61.963
X48.089 Y59.794
X51.844 Y61.963
Y64.131
G3 X51.594 Y64.381 I-0.25 J0
G1 X51.344
G18 G3 X51.094 Z-0.85 I0 K0.25
G1 Z5
Y63.881
Z1 F300
Z-1.95
G2 X51.344 Z-2.2 I0.25 K0 F600
G1 X51.594
G17 G3 X51.844 Y64.131 I0 J0.25
G1 Y66.299
X48.089 Y68.468
X44.333 Y66.299
Y61.963
X48.089 Y59.794
X51.844 Y61.963
Y64.131
G3 X51.594 Y64.381 I-0.25 J0
G1 X51.344
G18 G3 X51.094 Z-1.95 I0 K0.25
G1 Z5
Y63.881
Z-0.1 F300
Z-3.05
G2 X51.344 Z-3.3 I0.25 K0 F600
G1 X51.594
G17 G3 X51.844 Y64.131 I0 J0.25
G1 Y66.299
X48.089 Y68.468
X44.333 Y66.299
Y61.963
X48.089 Y59.794
X51.844 Y61.963
Y64.131
G3 X51.594 Y64.381 I-0.25 J0
G1 X51.344
G18 G3 X51.094 Z-3.05 I0 K0.25
G1 Z5
Y63.881
Z-1.2 F300
Z-4.15
G2 X51.344 Z-4.4 I0.25 K0 F600
G1 X51.594
G17 G3 X51.844 Y64.131 I0 J0.25
G1 Y66.299
X48.089 Y68.468
X44.333 Y66.299
Y61.963
X48.089 Y59.794
X51.844 Y61.963
Y64.131
G3 X51.594 Y64.381 I-0.25 J0
G1 X51.344
G18 G3 X51.094 Z-4.15 I0 K0.25
G1 Z5
Y63.881
Z-2.3 F300
Z-5.25
G2 X51.344 Z-5.5 I0.25 K0 F600
G1 X51.594
G17 G3 X51.844 Y64.131 I0 J0.25
G1 Y66.299
X48.089 Y68.468
X44.333 Y66.299
Y61.963
X48.089 Y59.794
X51.844 Y61.963
Y64.131
G3 X51.594 Y64.381 I-0.25 J0
G1 X51.344
G18 G3 X51.094 Z-5.25 I0 K0.25
G1 Z5
Y63.881
Z-3.4 F300
Z-6.35
G2 X51.344 Z-6.6 I0.25 K0 F600
G1 X51.594
G17 G3 X51.844 Y64.131 I0 J0.25
G1 Y66.299
X48.089 Y68.468
X44.333 Y66.299
Y61.963
X48.089 Y59.794
X51.844 Y61.963
Y64.131
G3 X51.594 Y64.381 I-0.25 J0
G1 X51.344
G18 G3 X51.094 Z-6.35 I0 K0.25
G1 Z5
Y63.881
Z-4.5 F300
Z-7.45
G2 X51.344 Z-7.7 I0.25 K0 F600
G1 X51.594
G17 G3 X51.844 Y64.131 I0 J0.25
G1 Y66.299
X48.089 Y68.468
X44.333 Y66.299
Y61.963
X48.089 Y59.794
X51.844 Y61.963
Y64.131
G3 X51.594 Y64.381 I-0.25 J0
G1 X51.344
G18 G3 X51.094 Z-7.45 I0 K0.25
G1 Z5
Y63.881
Z-5.6 F300
Z-8.55
G2 X51.344 Z-8.8 I0.25 K0 F600
G1 X51.594
G17 G3 X51.844 Y64.131 I0 J0.25
G1 Y66.299
X48.089 Y68.468
X44.333 Y66.299
Y61.963
X48.089 Y59.794
X51.844 Y61.963
Y64.131
G3 X51.594 Y64.381 I-0.25 J0
G1 X51.344
G18 G3 X51.094 Z-8.55 I0 K0.25
G1 Z5
Y63.881
Z-6.7 F300
Z-9.65
G2 X51.344 Z-9.9 I0.25 K0 F600
G1 X51.594
G17 G3 X51.844 Y64.131 I0 J0.25
G1 Y66.299
X48.089 Y68.468
X44.333 Y66.299
Y61.963
X48.089 Y59.794
X51.844 Y61.963
Y64.131
G3 X51.594 Y64.381 I-0.25 J0
G1 X51.344
G18 G3 X51.094 Z-9.65 I0 K0.25
G1 Z5
Y63.881
Z-7.8 F300
Z-10.75
G2 X51.344 Z-11 I0.25 K0 F600
G1 X51.594
G17 G3 X51.844 Y64.131 I0 J0.25
G1 Y66.299
X48.089 Y68.468
X44.333 Y66.299
Y61.963
X48.089 Y59.794
X51.844 Y61.963
Y64.131
G3 X51.594 Y64.381 I-0.25 J0
G1 X51.344
G18 G3 X51.094 Z-10.75 I0 K0.25
G1 Z5
Y63.881
Z-8.9 F300
Z-11.75
G2 X51.344 Z-12 I0.25 K0 F600
G1 X51.594
G17 G3 X51.844 Y64.131 I0 J0.25
G1 Y66.299
X48.089 Y68.468
X44.333 Y66.299
Y61.963
X48.089 Y59.794
X51.844 Y61.963
Y64.131
G3 X51.594 Y64.381 I-0.25 J0
G1 X51.344
G18 G3 X51.094 Z-11.75 I0 K0.25
G1 Z5
X55.331 Y51.088
Z2.1 F300
Z-0.85
X55.334 Y51.082 Z-0.906 F600
X55.343 Y51.066 Z-0.958
X55.358 Y51.04 Z-1.006
X55.378 Y51.006 Z-1.045
X55.401 Y50.965 Z-1.075
X55.428 Y50.919 Z-1.094
X55.456 Y50.871 Z-1.1
X55.581 Y50.655
G17 G3 X55.922 Y50.563 I0.217 J0.125
G1 X57.8 Y51.647
Y55.984
X54.044 Y58.152
X50.289 Y55.984
Y51.647
X54.044 Y49.479
X55.922 Y50.563
G3 X56.014 Y50.905 I-0.125 J0.217
G1 X55.889 Y51.121
X55.861 Y51.169 Z-1.094
X55.834 Y51.215 Z-1.075
X55.811 Y51.256 Z-1.045
X55.791 Y51.29 Z-1.006
X55.776 Y51.316 Z-0.958
X55.767 Y51.332 Z-0.906
X55.764 Y51.338 Z-0.85
Z5
X55.331 Y51.088
Z1 F300
Z-1.95
X55.334 Y51.082 Z-2.006 F600
X55.343 Y51.066 Z-2.058
X55.358 Y51.04 Z-2.106
X55.378 Y51.006 Z-2.145
X55.401 Y50.965 Z-2.175
X55.428 Y50.919 Z-2.194
X55.456 Y50.871 Z-2.2
X55.581 Y50.655
G3 X55.922 Y50.563 I0.217 J0.125
G1 X57.8 Y51.647
Y55.984
X54.044 Y58.152
X50.289 Y55.984
Y51.647
X54.044 Y49.479
X55.922 Y50.563
G3 X56.014 Y50.905 I-0.125 J0.217
G1 X55.889 Y51.121
X55.861 Y51.169 Z-2.194
X55.834 Y51.215 Z-2.175
X55.811 Y51.256 Z-2.145
X55.791 Y51.29 Z-2.106
X55.776 Y51.316 Z-2.058
X55.767 Y51.332 Z-2.006
X55.764 Y51.338 Z-1.95
Z5
X55.331 Y51.088
Z-0.1 F300
Z-3.05
X55.334 Y51.082 Z-3.106 F600
X55.343 Y51.066 Z-3.158
X55.358 Y51.04 Z-3.206
X55.378 Y51.006 Z-3.245
X55.401 Y50.965 Z-3.275
X55.428 Y50.919 Z-3.294
X55.456 Y50.871 Z-3.3
X55.581 Y50.655
G3 X55.922 Y50.563 I0.217 J0.125
G1 X57.8 Y51.647
Y55.984
X54.044 Y58.152
X50.289 Y55.984
Y51.647
X54.044 Y49.479
X55.922 Y50.563
G3 X56.014 Y50.905 I-0.125 J0.217
G1 X55.889 Y51.121
X55.861 Y51.169 Z-3.294
X55.834 Y51.215 Z-3.275
X55.811 Y51.256 Z-3.245
X55.791 Y51.29 Z-3.206
X55.776 Y51.316 Z-3.158
X55.767 Y51.332 Z-3.106
X55.764 Y51.338 Z-3.05
Z5
X55.331 Y51.088
Z-1.2 F300
Z-4.15
X55.334 Y51.082 Z-4.206 F600
X55.343 Y51.066 Z-4.258
X55.358 Y51.04 Z-4.306
X55.378 Y51.006 Z-4.345
X55.401 Y50.965 Z-4.375
X55.428 Y50.919 Z-4.394
X55.456 Y50.871 Z-4.4
X55.581 Y50.655
G3 X55.922 Y50.563 I0.217 J0.125
G1 X57.8 Y51.647
Y55.984
X54.044 Y58.152
X50.289 Y55.984
Y51.647
X54.044 Y49.479
X55.922 Y50.563
G3 X56.014 Y50.905 I-0.125 J0.217
G1 X55.889 Y51.121
X55.861 Y51.169 Z-4.394
X55.834 Y51.215 Z-4.375
X55.811 Y51.256 Z-4.345
X55.791 Y51.29 Z-4.306
X55.776 Y51.316 Z-4.258
X55.767 Y51.332 Z-4.206
X55.764 Y51.338 Z-4.15
Z5
X55.331 Y51.088
Z-2.3 F300
Z-5.25
X55.334 Y51.082 Z-5.306 F600
X55.343 Y51.066 Z-5.358
X55.358 Y51.04 Z-5.406
X55.378 Y51.006 Z-5.445
X55.401 Y50.965 Z-5.475
X55.428 Y50.919 Z-5.494
X55.456 Y50.871 Z-5.5
X55.581 Y50.655
G3 X55.922 Y50.563 I0.217 J0.125
G1 X57.8 Y51.647
Y55.984
X54.044 Y58.152
X50.289 Y55.984
Y51.647
X54.044 Y49.479
X55.922 Y50.563
G3 X56.014 Y50.905 I-0.125 J0.217
G1 X55.889 Y51.121
X55.861 Y51.169 Z-5.494
X55.834 Y51.215 Z-5.475
X55.811 Y51.256 Z-5.445
X55.791 Y51.29 Z-5.406
X55.776 Y51.316 Z-5.358
X55.767 Y51.332 Z-5.306
X55.764 Y51.338 Z-5.25
Z5
X55.331 Y51.088
Z-3.4 F300
Z-6.35
X55.334 Y51.082 Z-6.406 F600
X55.343 Y51.066 Z-6.458
X55.358 Y51.04 Z-6.506
X55.378 Y51.006 Z-6.545
X55.401 Y50.965 Z-6.575
X55.428 Y50.919 Z-6.594
X55.456 Y50.871 Z-6.6
X55.581 Y50.655
G3 X55.922 Y50.563 I0.217 J0.125
G1 X57.8 Y51.647
Y55.984
X54.044 Y58.152
X50.289 Y55.984
Y51.647
X54.044 Y49.479
X55.922 Y50.563
G3 X56.014 Y50.905 I-0.125 J0.217
G1 X55.889 Y51.121
X55.861 Y51.169 Z-6.594
X55.834 Y51.215 Z-6.575
X55.811 Y51.256 Z-6.545
X55.791 Y51.29 Z-6.506
X55.776 Y51.316 Z-6.458
X55.767 Y51.332 Z-6.406
X55.764 Y51.338 Z-6.35
Z5
X55.331 Y51.088
Z-4.5 F300
Z-7.45
X55.334 Y51.082 Z-7.506 F600
X55.343 Y51.066 Z-7.558
X55.358 Y51.04 Z-7.606
X55.378 Y51.006 Z-7.645
X55.401 Y50.965 Z-7.675
X55.428 Y50.919 Z-7.694
X55.456 Y50.871 Z-7.7
X55.581 Y50.655
G3 X55.922 Y50.563 I0.217 J0.125
G1 X57.8 Y51.647
Y55.984
X54.044 Y58.152
X50.289 Y55.984
Y51.647
X54.044 Y49.479
X55.922 Y50.563
G3 X56.014 Y50.905 I-0.125 J0.217
G1 X55.889 Y51.121
X55.861 Y51.169 Z-7.694
X55.834 Y51.215 Z-7.675
X55.811 Y51.256 Z-7.645
X55.791 Y51.29 Z-7.606
X55.776 Y51.316 Z-7.558
X55.767 Y51.332 Z-7.506
X55.764 Y51.338 Z-7.45
Z5
X55.331 Y51.088
Z-5.6 F300
Z-8.55
X55.334 Y51.082 Z-8.606 F600
X55.343 Y51.066 Z-8.658
X55.358 Y51.04 Z-8.706
X55.378 Y51.006 Z-8.745
X55.401 Y50.965 Z-8.775
X55.428 Y50.919 Z-8.794
X55.456 Y50.871 Z-8.8
X55.581 Y50.655
G3 X55.922 Y50.563 I0.217 J0.125
G1 X57.8 Y51.647
Y55.984
X54.044 Y58.152
X50.289 Y55.984
Y51.647
X54.044 Y49.479
X55.922 Y50.563
G3 X56.014 Y50.905 I-0.125 J0.217
G1 X55.889 Y51.121
X55.861 Y51.169 Z-8.794
X55.834 Y51.215 Z-8.775
X55.811 Y51.256 Z-8.745
X55.791 Y51.29 Z-8.706
X55.776 Y51.316 Z-8.658
X55.767 Y51.332 Z-8.606
X55.764 Y51.338 Z-8.55
Z5
X55.331 Y51.088
Z-6.7 F300
Z-9.65
X55.334 Y51.082 Z-9.706 F600
X55.343 Y51.066 Z-9.758
X55.358 Y51.04 Z-9.806
X55.378 Y51.006 Z-9.845
X55.401 Y50.965 Z-9.875
X55.428 Y50.919 Z-9.894
X55.456 Y50.871 Z-9.9
X55.581 Y50.655
G3 X55.922 Y50.563 I0.217 J0.125
G1 X57.8 Y51.647
Y55.984
X54.044 Y58.152
X50.289 Y55.984
Y51.647
X54.044 Y49.479
X55.922 Y50.563
G3 X56.014 Y50.905 I-0.125 J0.217
G1 X55.889 Y51.121
X55.861 Y51.169 Z-9.894
X55.834 Y51.215 Z-9.875
X55.811 Y51.256 Z-9.845
X55.791 Y51.29 Z-9.806
X55.776 Y51.316 Z-9.758
X55.767 Y51.332 Z-9.706
X55.764 Y51.338 Z-9.65
Z5
X55.331 Y51.088
Z-7.8 F300
Z-10.75
X55.334 Y51.082 Z-10.806 F600
X55.343 Y51.066 Z-10.858
X55.358 Y51.04 Z-10.906
X55.378 Y51.006 Z-10.945
X55.401 Y50.965 Z-10.975
X55.428 Y50.919 Z-10.994
X55.456 Y50.871 Z-11
X55.581 Y50.655
G3 X55.922 Y50.563 I0.217 J0.125
G1 X57.8 Y51.647
Y55.984
X54.044 Y58.152
X50.289 Y55.984
Y51.647
X54.044 Y49.479
X55.922 Y50.563
G3 X56.014 Y50.905 I-0.125 J0.217
G1 X55.889 Y51.121
X55.861 Y51.169 Z-10.994
X55.834 Y51.215 Z-10.975
X55.811 Y51.256 Z-10.945
X55.791 Y51.29 Z-10.906
X55.776 Y51.316 Z-10.858
X55.767 Y51.332 Z-10.806
X55.764 Y51.338 Z-10.75
Z5
X55.331 Y51.088
Z-8.9 F300
Z-11.75
X55.334 Y51.082 Z-11.806 F600
X55.343 Y51.066 Z-11.858
X55.358 Y51.04 Z-11.906
X55.378 Y51.006 Z-11.945
X55.401 Y50.965 Z-11.975
X55.428 Y50.919 Z-11.994
X55.456 Y50.871 Z-12
X55.581 Y50.655
G3 X55.922 Y50.563 I0.217 J0.125
G1 X57.8 Y51.647
Y55.984
X54.044 Y58.152
X50.289 Y55.984
Y51.647
X54.044 Y49.479
X55.922 Y50.563
G3 X56.014 Y50.905 I-0.125 J0.217
G1 X55.889 Y51.121
X55.861 Y51.169 Z-11.994
X55.834 Y51.215 Z-11.975
X55.811 Y51.256 Z-11.945
X55.791 Y51.29 Z-11.906
X55.776 Y51.316 Z-11.858
X55.767 Y51.332 Z-11.806
X55.764 Y51.338 Z-11.75
Z5
X68.961 Y53.565
Z2.1 F300
Z-0.85
G18 G2 X69.211 Z-1.1 I0.25 K0 F600
G1 X69.461
G17 G3 X69.711 Y53.815 I0 J0.25
G1 Y55.984
X65.956 Y58.152
X62.2 Y55.984
Y51.647
X65.956 Y49.479
X69.711 Y51.647
Y53.815
G3 X69.461 Y54.065 I-0.25 J0
G1 X69.211
G18 G3 X68.961 Z-0.85 I0 K0.25
G1 Z5
Y53.565
Z1 F300
Z-1.95
G2 X69.211 Z-2.2 I0.25 K0 F600
G1 X69.461
G17 G3 X69.711 Y53.815 I0 J0.25
G1 Y55.984
X65.956 Y58.152
X62.2 Y55.984
Y51.647
X65.956 Y49.479
X69.711 Y51.647
Y53.815
G3 X69.461 Y54.065 I-0.25 J0
G1 X69.211
G18 G3 X68.961 Z-1.95 I0 K0.25
G1 Z5
Y53.565
Z-0.1 F300
Z-3.05
G2 X69.211 Z-3.3 I0.25 K0 F600
G1 X69.461
G17 G3 X69.711 Y53.815 I0 J0.25
G1 Y55.984
X65.956 Y58.152
X62.2 Y55.984
Y51.647
X65.956 Y49.479
X69.711 Y51.647
Y53.815
G3 X69.461 Y54.065 I-0.25 J0
G1 X69.211
G18 G3 X68.961 Z-3.05 I0 K0.25
G1 Z5
Y53.565
Z-1.2 F300
Z-4.15
G2 X69.211 Z-4.4 I0.25 K0 F600
G1 X69.461
G17 G3 X69.711 Y53.815 I0 J0.25
G1 Y55.984
X65.956 Y58.152
X62.2 Y55.984
Y51.647
X65.956 Y49.479
X69.711 Y51.647
Y53.815
G3 X69.461 Y54.065 I-0.25 J0
G1 X69.211
G18 G3 X68.961 Z-4.15 I0 K0.25
G1 Z5
Y53.565
Z-2.3 F300
Z-5.25
G2 X69.211 Z-5.5 I0.25 K0 F600
G1 X69.461
G17 G3 X69.711 Y53.815 I0 J0.25
G1 Y55.984
X65.956 Y58.152
X62.2 Y55.984
Y51.647
X65.956 Y49.479
X69.711 Y51.647
Y53.815
G3 X69.461 Y54.065 I-0.25 J0
G1 X69.211
G18 G3 X68.961 Z-5.25 I0 K0.25
G1 Z5
Y53.565
Z-3.4 F300
Z-6.35
G2 X69.211 Z-6.6 I0.25 K0 F600
G1 X69.461
G17 G3 X69.711 Y53.815 I0 J0.25
G1 Y55.984
X65.956 Y58.152
X62.2 Y55.984
Y51.647
X65.956 Y49.479
X69.711 Y51.647
Y53.815
G3 X69.461 Y54.065 I-0.25 J0
G1 X69.211
G18 G3 X68.961 Z-6.35 I0 K0.25
G1 Z5
Y53.565
Z-4.5 F300
Z-7.45
G2 X69.211 Z-7.7 I0.25 K0 F600
G1 X69.461
G17 G3 X69.711 Y53.815 I0 J0.25
G1 Y55.984
X65.956 Y58.152
X62.2 Y55.984
Y51.647
X65.956 Y49.479
X69.711 Y51.647
Y53.815
G3 X69.461 Y54.065 I-0.25 J0
G1 X69.211
G18 G3 X68.961 Z-7.45 I0 K0.25
G1 Z5
Y53.565
Z-5.6 F300
Z-8.55
G2 X69.211 Z-8.8 I0.25 K0 F600
G1 X69.461
G17 G3 X69.711 Y53.815 I0 J0.25
G1 Y55.984
X65.956 Y58.152
X62.2 Y55.984
Y51.647
X65.956 Y49.479
X69.711 Y51.647
Y53.815
G3 X69.461 Y54.065 I-0.25 J0
G1 X69.211
G18 G3 X68.961 Z-8.55 I0 K0.25
G1 Z5
Y53.565
Z-6.7 F300
Z-9.65
G2 X69.211 Z-9.9 I0.25 K0 F600
G1 X69.461
G17 G3 X69.711 Y53.815 I0 J0.25
G1 Y55.984
X65.956 Y58.152
X62.2 Y55.984
Y51.647
X65.956 Y49.479
X69.711 Y51.647
Y53.815
G3 X69.461 Y54.065 I-0.25 J0
G1 X69.211
G18 G3 X68.961 Z-9.65 I0 K0.25
G1 Z5
Y53.565
Z-7.8 F300
Z-10.75
G2 X69.211 Z-11 I0.25 K0 F600
G1 X69.461
G17 G3 X69.711 Y53.815 I0 J0.25
G1 Y55.984
X65.956 Y58.152
X62.2 Y55.984
Y51.647
X65.956 Y49.479
X69.711 Y51.647
Y53.815
G3 X69.461 Y54.065 I-0.25 J0
G1 X69.211
G18 G3 X68.961 Z-10.75 I0 K0.25
G1 Z5
Y53.565
Z-8.9 F300
Z-11.75
G2 X69.211 Z-12 I0.25 K0 F600
G1 X69.461
G17 G3 X69.711 Y53.815 I0 J0.25
G1 Y55.984
X65.956 Y58.152
X62.2 Y55.984
Y51.647
X65.956 Y49.479
X69.711 Y51.647
Y53.815
G3 X69.461 Y54.065 I-0.25 J0
G1 X69.211
G18 G3 X68.961 Z-11.75 I0 K0.25
G1 Z5
X80.873 Y53.565
Z2.1 F300
Z-0.85
G2 X81.123 Z-1.1 I0.25 K0 F600
G1 X81.373
G17 G3 X81.623 Y53.815 I0 J0.25
G1 Y55.984
X77.867 Y58.152
X74.111 Y55.984
Y51.647
X77.867 Y49.479
X81.623 Y51.647
Y53.815
G3 X81.373 Y54.065 I-0.25 J0
G1 X81.123
G18 G3 X80.873 Z-0.85 I0 K0.25
G1 Z5
Y53.565
Z1 F300
Z-1.95
G2 X81.123 Z-2.2 I0.25 K0 F600
G1 X81.373
G17 G3 X81.623 Y53.815 I0 J0.25
G1 Y55.984
X77.867 Y58.152
X74.111 Y55.984
Y51.647
X77.867 Y49.479
X81.623 Y51.647
Y53.815
G3 X81.373 Y54.065 I-0.25 J0
G1 X81.123
G18 G3 X80.873 Z-1.95 I0 K0.25
G1 Z5
Y53.565
Z-0.1 F300
Z-3.05
G2 X81.123 Z-3.3 I0.25 K0 F600
G1 X81.373
G17 G3 X81.623 Y53.815 I0 J0.25
G1 Y55.984
X77.867 Y58.152
X74.111 Y55.984
Y51.647
X77.867 Y49.479
X81.623 Y51.647
Y53.815
G3 X81.373 Y54.065 I-0.25 J0
G1 X81.123
G18 G3 X80.873 Z-3.05 I0 K0.25
G1 Z5
Y53.565
Z-1.2 F300
Z-4.15
G2 X81.123 Z-4.4 I0.25 K0 F600
G1 X81.373
G17 G3 X81.623 Y53.815 I0 J0.25
G1 Y55.984
X77.867 Y58.152
X74.111 Y55.984
Y51.647
X77.867 Y49.479
X81.623 Y51.647
Y53.815
G3 X81.373 Y54.065 I-0.25 J0
G1 X81.123
G18 G3 X80.873 Z-4.15 I0 K0.25
G1 Z5
Y53.565
Z-2.3 F300
Z-5.25
G2 X81.123 Z-5.5 I0.25 K0 F600
G1 X81.373
G17 G3 X81.623 Y53.815 I0 J0.25
G1 Y55.984
X77.867 Y58.152
X74.111 Y55.984
Y51.647
X77.867 Y49.479
X81.623 Y51.647
Y53.815
G3 X81.373 Y54.065 I-0.25 J0
G1 X81.123
G18 G3 X80.873 Z-5.25 I0 K0.25
G1 Z5
Y53.565
Z-3.4 F300
Z-6.35
G2 X81.123 Z-6.6 I0.25 K0 F600
G1 X81.373
G17 G3 X81.623 Y53.815 I0 J0.25
G1 Y55.984
X77.867 Y58.152
X74.111 Y55.984
Y51.647
X77.867 Y49.479
X81.623 Y51.647
Y53.815
G3 X81.373 Y54.065 I-0.25 J0
G1 X81.123
G18 G3 X80.873 Z-6.35 I0 K0.25
G1 Z5
Y53.565
Z-4.5 F300
Z-7.45
G2 X81.123 Z-7.7 I0.25 K0 F600
G1 X81.373
G17 G3 X81.623 Y53.815 I0 J0.25
G1 Y55.984
X77.867 Y58.152
X74.111 Y55.984
Y51.647
X77.867 Y49.479
X81.623 Y51.647
Y53.815
G3 X81.373 Y54.065 I-0.25 J0
G1 X81.123
G18 G3 X80.873 Z-7.45 I0 K0.25
G1 Z5
Y53.565
Z-5.6 F300
Z-8.55
G2 X81.123 Z-8.8 I0.25 K0 F600
G1 X81.373
G17 G3 X81.623 Y53.815 I0 J0.25
G1 Y55.984
X77.867 Y58.152
X74.111 Y55.984
Y51.647
X77.867 Y49.479
X81.623 Y51.647
Y53.815
G3 X81.373 Y54.065 I-0.25 J0
G1 X81.123
G18 G3 X80.873 Z-8.55 I0 K0.25
G1 Z5
Y53.565
Z-6.7 F300
Z-9.65
G2 X81.123 Z-9.9 I0.25 K0 F600
G1 X81.373
G17 G3 X81.623 Y53.815 I0 J0.25
G1 Y55.984
X77.867 Y58.152
X74.111 Y55.984
Y51.647
X77.867 Y49.479
X81.623 Y51.647
Y53.815
G3 X81.373 Y54.065 I-0.25 J0
G1 X81.123
G18 G3 X80.873 Z-9.65 I0 K0.25
G1 Z5
Y53.565
Z-7.8 F300
Z-10.75
G2 X81.123 Z-11 I0.25 K0 F600
G1 X81.373
G17 G3 X81.623 Y53.815 I0 J0.25
G1 Y55.984
X77.867 Y58.152
X74.111 Y55.984
Y51.647
X77.867 Y49.479
X81.623 Y51.647
Y53.815
G3 X81.373 Y54.065 I-0.25 J0
G1 X81.123
G18 G3 X80.873 Z-10.75 I0 K0.25
G1 Z5
Y53.565
Z-8.9 F300
Z-11.75
G2 X81.123 Z-12 I0.25 K0 F600
G1 X81.373
G17 G3 X81.623 Y53.815 I0 J0.25
G1 Y55.984
X77.867 Y58.152
X74.111 Y55.984
Y51.647
X77.867 Y49.479
X81.623 Y51.647
Y53.815
G3 X81.373 Y54.065 I-0.25 J0
G1 X81.123
G18 G3 X80.873 Z-11.75 I0 K0.25
G1 Z5
X92.784 Y53.565
Z2.1 F300
Z-0.85
G2 X93.034 Z-1.1 I0.25 K0 F600
G1 X93.284
G17 G3 X93.534 Y53.815 I0 J0.25
G1 Y55.984
X89.778 Y58.152
X86.023 Y55.984
Y51.647
X89.778 Y49.479
X93.534 Y51.647
Y53.815
G3 X93.284 Y54.065 I-0.25 J0
G1 X93.034
G18 G3 X92.784 Z-0.85 I0 K0.25
G1 Z5
Y53.565
Z1 F300
Z-1.95
G2 X93.034 Z-2.2 I0.25 K0 F600
G1 X93.284
G17 G3 X93.534 Y53.815 I0 J0.25
G1 Y55.984
X89.778 Y58.152
X86.023 Y55.984
Y51.647
X89.778 Y49.479
X93.534 Y51.647
Y53.815
G3 X93.284 Y54.065 I-0.25 J0
G1 X93.034
G18 G3 X92.784 Z-1.95 I0 K0.25
G1 Z5
Y53.565
Z-0.1 F300
Z-3.05
G2 X93.034 Z-3.3 I0.25 K0 F600
G1 X93.284
G17 G3 X93.534 Y53.815 I0 J0.25
G1 Y55.984
X89.778 Y58.152
X86.023 Y55.984
Y51.647
X89.778 Y49.479
X93.534 Y51.647
Y53.815
G3 X93.284 Y54.065 I-0.25 J0
G1 X93.034
G18 G3 X92.784 Z-3.05 I0 K0.25
G1 Z5
Y53.565
Z-1.2 F300
Z-4.15
G2 X93.034 Z-4.4 I0.25 K0 F600
G1 X93.284
G17 G3 X93.534 Y53.815 I0 J0.25
G1 Y55.984
X89.778 Y58.152
X86.023 Y55.984
Y51.647
X89.778 Y49.479
X93.534 Y51.647
Y53.815
G3 X93.284 Y54.065 I-0.25 J0
G1 X93.034
G18 G3 X92.784 Z-4.15 I0 K0.25
G1 Z5
Y53.565
Z-2.3 F300
Z-5.25
G2 X93.034 Z-5.5 I0.25 K0 F600
G1 X93.284
G17 G3 X93.534 Y53.815 I0 J0.25
G1 Y55.984
X89.778 Y58.152
X86.023 Y55.984
Y51.647
X89.778 Y49.479
X93.534 Y51.647
Y53.815
G3 X93.284 Y54.065 I-0.25 J0
G1 X93.034
G18 G3 X92.784 Z-5.25 I0 K0.25
G1 Z5
Y53.565
Z-3.4 F300
Z-6.35
G2 X93.034 Z-6.6 I0.25 K0 F600
G1 X93.284
G17 G3 X93.534 Y53.815 I0 J0.25
G1 Y55.984
X89.778 Y58.152
X86.023 Y55.984
Y51.647
X89.778 Y49.479
X93.534 Y51.647
Y53.815
G3 X93.284 Y54.065 I-0.25 J0
G1 X93.034
G18 G3 X92.784 Z-6.35 I0 K0.25
G1 Z5
Y53.565
Z-4.5 F300
Z-7.45
G2 X93.034 Z-7.7 I0.25 K0 F600
G1 X93.284
G17 G3 X93.534 Y53.815 I0 J0.25
G1 Y55.984
X89.778 Y58.152
X86.023 Y55.984
Y51.647
X89.778 Y49.479
X93.534 Y51.647
Y53.815
G3 X93.284 Y54.065 I-0.25 J0
G1 X93.034
G18 G3 X92.784 Z-7.45 I0 K0.25
G1 Z5
Y53.565
Z-5.6 F300
Z-8.55
G2 X93.034 Z-8.8 I0.25 K0 F600
G1 X93.284
G17 G3 X93.534 Y53.815 I0 J0.25
G1 Y55.984
X89.778 Y58.152
X86.023 Y55.984
Y51.647
X89.778 Y49.479
X93.534 Y51.647
Y53.815
G3 X93.284 Y54.065 I-0.25 J0
G1 X93.034
G18 G3 X92.784 Z-8.55 I0 K0.25
G1 Z5
Y53.565
Z-6.7 F300
Z-9.65
G2 X93.034 Z-9.9 I0.25 K0 F600
G1 X93.284
G17 G3 X93.534 Y53.815 I0 J0.25
G1 Y55.984
X89.778 Y58.152
X86.023 Y55.984
Y51.647
X89.778 Y49.479
X93.534 Y51.647
Y53.815
G3 X93.284 Y54.065 I-0.25 J0
G1 X93.034
G18 G3 X92.784 Z-9.65 I0 K0.25
G1 Z5
Y53.565
Z-7.8 F300
Z-10.75
G2 X93.034 Z-11 I0.25 K0 F600
G1 X93.284
G17 G3 X93.534 Y53.815 I0 J0.25
G1 Y55.984
X89.778 Y58.152
X86.023 Y55.984
Y51.647
X89.778 Y49.479
X93.534 Y51.647
Y53.815
G3 X93.284 Y54.065 I-0.25 J0
G1 X93.034
G18 G3 X92.784 Z-10.75 I0 K0.25
G1 Z5
Y53.565
Z-8.9 F300
Z-11.75
G2 X93.034 Z-12 I0.25 K0 F600
G1 X93.284
G17 G3 X93.534 Y53.815 I0 J0.25
G1 Y55.984
X89.778 Y58.152
X86.023 Y55.984
Y51.647
X89.778 Y49.479
X93.534 Y51.647
Y53.815
G3 X93.284 Y54.065 I-0.25 J0
G1 X93.034
G18 G3 X92.784 Z-11.75 I0 K0.25
G1 Z5
X85.542 Y45.978
Z2.1 F300
Z-0.85
X85.545 Y45.983 Z-0.906 F600
X85.554 Y45.999 Z-0.958
X85.569 Y46.025 Z-1.006
X85.589 Y46.059 Z-1.045
X85.613 Y46.101 Z-1.075
X85.639 Y46.146 Z-1.094
X85.667 Y46.194 Z-1.1
X85.792 Y46.411
G17 G3 X85.7 Y46.752 I-0.217 J0.125
G1 X83.823 Y47.837
X80.067 Y45.668
Y41.332
X83.823 Y39.163
X87.578 Y41.332
Y45.668
X85.7 Y46.752
G3 X85.359 Y46.661 I-0.125 J-0.217
G1 X85.234 Y46.444
X85.206 Y46.396 Z-1.094
X85.18 Y46.351 Z-1.075
X85.156 Y46.309 Z-1.045
X85.136 Y46.275 Z-1.006
X85.121 Y46.249 Z-0.958
X85.112 Y46.233 Z-0.906
X85.109 Y46.228 Z-0.85
Z5
X85.542 Y45.978
Z1 F300
Z-1.95
X85.545 Y45.983 Z-2.006 F600
X85.554 Y45.999 Z-2.058
X85.569 Y46.025 Z-2.106
X85.589 Y46.059 Z-2.145
X85.613 Y46.101 Z-2.175
X85.639 Y46.146 Z-2.194
X85.667 Y46.194 Z-2.2
X85.792 Y46.411
G3 X85.7 Y46.752 I-0.217 J0.125
G1 X83.823 Y47.837
X80.067 Y45.668
Y41.332
X83.823 Y39.163
X87.578 Y41.332
Y45.668
X85.7 Y46.752
G3 X85.359 Y46.661 I-0.125 J-0.217
G1 X85.234 Y46.444
X85.206 Y46.396 Z-2.194
X85.18 Y46.351 Z-2.175
X85.156 Y46.309 Z-2.145
X85.136 Y46.275 Z-2.106
X85.121 Y46.249 Z-2.058
X85.112 Y46.233 Z-2.006
X85.109 Y46.228 Z-1.95
Z5
X85.542 Y45.978
Z-0.1 F300
Z-3.05
X85.545 Y45.983 Z-3.106 F600
X85.554 Y45.999 Z-3.158
X85.569 Y46.025 Z-3.206
X85.589 Y46.059 Z-3.245
X85.613 Y46.101 Z-3.275
X85.639 Y46.146 Z-3.294
X85.667 Y46.194 Z-3.3
X85.792 Y46.411
G3 X85.7 Y46.752 I-0.217 J0.125
G1 X83.823 Y47.837
X80.067 Y45.668
Y41.332
X83.823 Y39.163
X87.578 Y41.332
Y45.668
X85.7 Y46.752
G3 X85.359 Y46.661 I-0.125 J-0.217
G1 X85.234 Y46.444
X85.206 Y46.396 Z-3.294
X85.18 Y46.351 Z-3.275
X85.156 Y46.309 Z-3.245
X85.136 Y46.275 Z-3.206
X85.121 Y46.249 Z-3.158
X85.112 Y46.233 Z-3.106
X85.109 Y46.228 Z-3.05
Z5
X85.542 Y45.978
Z-1.2 F300
Z-4.15
X85.545 Y45.983 Z-4.206 F600
X85.554 Y45.999 Z-4.258
X85.569 Y46.025 Z-4.306
X85.589 Y46.059 Z-4.345
X85.613 Y46.101 Z-4.375
X85.639 Y46.146 Z-4.394
X85.667 Y46.194 Z-4.4
X85.792 Y46.411
G3 X85.7 Y46.752 I-0.217 J0.125
G1 X83.823 Y47.837
X80.067 Y45.668
Y41.332
X83.823 Y39.163
X87.578 Y41.332
Y45.668
X85.7 Y46.752
G3 X85.359 Y46.661 I-0.125 J-0.217
G1 X85.234 Y46.444
X85.206 Y46.396 Z-4.394
X85.18 Y46.351 Z-4.375
X85.156 Y46.309 Z-4.345
X85.136 Y46.275 Z-4.306
X85.121 Y46.249 Z-4.258
X85.112 Y46.233 Z-4.206
X85.109 Y46.228 Z-4.15
Z5
X85.542 Y45.978
Z-2.3 F300
Z-5.25
X85.545 Y45.983 Z-5.306 F600
X85.554 Y45.999 Z-5.358
X85.569 Y46.025 Z-5.406
X85.589 Y46.059 Z-5.445
X85.613 Y46.101 Z-5.475
X85.639 Y46.146 Z-5.494
X85.667 Y46.194 Z-5.5
X85.792 Y46.411
G3 X85.7 Y46.752 I-0.217 J0.125
G1 X83.823 Y47.837
X80.067 Y45.668
Y41.332
X83.823 Y39.163
X87.578 Y41.332
Y45.668
X85.7 Y46.752
G3 X85.359 Y46.661 I-0.125 J-0.217
G1 X85.234 Y46.444
X85.206 Y46.396 Z-5.494
X85.18 Y46.351 Z-5.475
X85.156 Y46.309 Z-5.445
X85.136 Y46.275 Z-5.406
X85.121 Y46.249 Z-5.358
X85.112 Y46.233 Z-5.306
X85.109 Y46.228 Z-5.25
Z5
X85.542 Y45.978
Z-3.4 F300
Z-6.35
X85.545 Y45.983 Z-6.406 F600
X85.554 Y45.999 Z-6.458
X85.569 Y46.025 Z-6.506
X85.589 Y46.059 Z-6.545
X85.613 Y46.101 Z-6.575
X85.639 Y46.146 Z-6.594
X85.667 Y46.194 Z-6.6
X85.792 Y46.411
G3 X85.7 Y46.752 I-0.217 J0.125
G1 X83.823 Y47.837
X80.067 Y45.668
Y41.332
X83.823 Y39.163
X87.578 Y41.332
Y45.668
X85.7 Y46.752
G3 X85.359 Y46.661 I-0.125 J-0.217
G1 X85.234 Y46.444
X85.206 Y46.396 Z-6.594
X85.18 Y46.351 Z-6.575
X85.156 Y46.309 Z-6.545
X85.136 Y46.275 Z-6.506
X85.121 Y46.249 Z-6.458
X85.112 Y46.233 Z-6.406
X85.109 Y46.228 Z-6.35
Z5
X85.542 Y45.978
Z-4.5 F300
Z-7.45
X85.545 Y45.983 Z-7.506 F600
X85.554 Y45.999 Z-7.558
X85.569 Y46.025 Z-7.606
X85.589 Y46.059 Z-7.645
X85.613 Y46.101 Z-7.675
X85.639 Y46.146 Z-7.694
X85.667 Y46.194 Z-7.7
X85.792 Y46.411
G3 X85.7 Y46.752 I-0.217 J0.125
G1 X83.823 Y47.837
X80.067 Y45.668
Y41.332
X83.823 Y39.163
X87.578 Y41.332
Y45.668
X85.7 Y46.752
G3 X85.359 Y46.661 I-0.125 J-0.217
G1 X85.234 Y46.444
X85.206 Y46.396 Z-7.694
X85.18 Y46.351 Z-7.675
X85.156 Y46.309 Z-7.645
X85.136 Y46.275 Z-7.606
X85.121 Y46.249 Z-7.558
X85.112 Y46.233 Z-7.506
X85.109 Y46.228 Z-7.45
Z5
X85.542 Y45.978
Z-5.6 F300
Z-8.55
X85.545 Y45.983 Z-8.606 F600
X85.554 Y45.999 Z-8.658
X85.569 Y46.025 Z-8.706
X85.589 Y46.059 Z-8.745
X85.613 Y46.101 Z-8.775
X85.639 Y46.146 Z-8.794
X85.667 Y46.194 Z-8.8
X85.792 Y46.411
G3 X85.7 Y46.752 I-0.217 J0.125
G1 X83.823 Y47.837
X80.067 Y45.668
Y41.332
X83.823 Y39.163
X87.578 Y41.332
Y45.668
X85.7 Y46.752
G3 X85.359 Y46.661 I-0.125 J-0.217
G1 X85.234 Y46.444
X85.206 Y46.396 Z-8.794
X85.18 Y46.351 Z-8.775
X85.156 Y46.309 Z-8.745
X85.136 Y46.275 Z-8.706
X85.121 Y46.249 Z-8.658
X85.112 Y46.233 Z-8.606
X85.109 Y46.228 Z-8.55
Z5
X85.542 Y45.978
Z-6.7 F300
Z-9.65
X85.545 Y45.983 Z-9.706 F600
X85.554 Y45.999 Z-9.758
X85.569 Y46.025 Z-9.806
X85.589 Y46.059 Z-9.845
X85.613 Y46.101 Z-9.875
X85.639 Y46.146 Z-9.894
X85.667 Y46.194 Z-9.9
X85.792 Y46.411
G3 X85.7 Y46.752 I-0.217 J0.125
G1 X83.823 Y47.837
X80.067 Y45.668
Y41.332
X83.823 Y39.163
X87.578 Y41.332
Y45.668
X85.7 Y46.752
G3 X85.359 Y46.661 I-0.125 J-0.217
G1 X85.234 Y46.444
X85.206 Y46.396 Z-9.894
X85.18 Y46.351 Z-9.875
X85.156 Y46.309 Z-9.845
X85.136 Y46.275 Z-9.806
X85.121 Y46.249 Z-9.758
X85.112 Y46.233 Z-9.706
X85.109 Y46.228 Z-9.65
Z5
X85.542 Y45.978
Z-7.8 F300
Z-10.75
X85.545 Y45.983 Z-10.806 F600
X85.554 Y45.999 Z-10.858
X85.569 Y46.025 Z-10.906
X85.589 Y46.059 Z-10.945
X85.613 Y46.101 Z-10.975
X85.639 Y46.146 Z-10.994
X85.667 Y46.194 Z-11
X85.792 Y46.411
G3 X85.7 Y46.752 I-0.217 J0.125
G1 X83.823 Y47.837
X80.067 Y45.668
